( Made using CamBam - http://www.cambam.co.uk )
( dual_vcf_panel 11/30/2014 11:20:51 AM )
( T3 : 3.175 )
( T10 : 0.0 )
G21 G90 G61 G40
G0 Z3.0
( T10 : 0.0 )
T10 M6
( Engrave1 )
G17
M3 S1000
G0 X28.615 Y93.5383
G0 Z0.4
G1 F1000.0 Z-0.01
G2 F2000.0 X27.4654 Y93.7545 I0.0047 J3.1893
G2 X26.4634 Y94.3926 I1.0905 J2.8181
G2 X25.7462 Y95.4262 I2.2511 J2.3276
G2 X25.472 Y96.8448 I3.2005 J1.3545
G2 X25.6988 Y98.0313 I3.3195 J-0.0195
G2 X26.3632 Y99.0965 I3.0249 J-1.147
G2 X27.4548 Y99.8559 I2.436 J-2.3375
G2 X28.9472 Y100.1512 I1.4253 J-3.2845
G1 X29.2162
G1 X28.9472
G3 X28.1852 Y100.0837 I-0.0189 J-4.1234
G3 X27.4548 Y99.8559 I0.5724 J-3.1191
G3 X26.3632 Y99.0965 I1.3444 J-3.0968
G3 X25.6988 Y98.0313 I2.3604 J-2.2122
G3 X25.472 Y96.8448 I3.0927 J-1.206
G3 X25.7462 Y95.4262 I3.4745 J-0.0641
G3 X26.4634 Y94.3926 I2.9684 J1.2941
G3 X27.4654 Y93.7545 I2.0925 J2.18
G3 X28.615 Y93.5383 I1.1542 J2.9727
G1 X29.2162
G1 X28.615
G0 Z3.0
G0 X32.5543 Y94.1026
G0 Z0.4
G1 F1000.0 Z-0.01
G3 F2000.0 X32.6669 Y93.8155 I4.9029 J1.7581
G3 X32.8127 Y93.5436 I1.3248 J0.5352
G3 X32.8975 Y93.4589 I0.4636 J0.3793
G3 X33.0078 Y93.4118 I0.1254 J0.141
G3 X33.1141 Y93.4613 I-0.0226 J0.1874
G3 X33.1976 Y93.5436 I-0.4608 J0.5509
G3 X33.3516 Y93.8126 I-0.8694 J0.6763
G3 X33.4613 Y94.1026 I-3.4866 J1.4844
G1 X35.4283 Y100.1512
G1 X33.4613 Y94.1026
G2 X33.3516 Y93.8126 I-3.5919 J1.1928
G2 X33.1976 Y93.5436 I-1.0236 J0.4073
G2 X33.1141 Y93.4613 I-0.5456 J0.47
G2 X33.0078 Y93.4118 I-0.1289 J0.1379
G2 X32.8975 Y93.4589 I0.0151 J0.1881
G2 X32.8127 Y93.5436 I0.3801 J0.4654
G2 X32.6669 Y93.8155 I1.1803 J0.8077
G2 X32.5543 Y94.1026 I4.7639 J2.0349
G1 X30.5134 Y100.1512
G1 X32.5543 Y94.1026
G0 Z3.0
G0 X32.2735 Y82.1582
G0 Z0.4
G1 F1000.0 Z-0.01
G1 F2000.0 X31.5721
G3 X30.7987 Y82.0533 I-0.0391 J-2.6155
G3 X30.1324 Y81.6467 I0.4199 J-1.437
G3 X29.7538 Y80.9427 I1.2259 J-1.1131
G3 X29.6578 Y80.149 I2.9095 J-0.7545
G1 Y75.5453
G1 Y80.149
G2 X29.7538 Y80.9427 I3.0054 J0.0391
G2 X30.1324 Y81.6467 I1.6046 J-0.4091
G2 X30.7987 Y82.0533 I1.0861 J-1.0303
G2 X31.5721 Y82.1582 I0.7343 J-2.5105
G1 X32.2735
G0 Z3.0
G0 Y78.8307
G0 Z0.4
G1 F1000.0 Z-0.01
G1 F2000.0 X29.6578
G1 X32.2735
G0 Z3.0
G0 X30.3359 Y54.1453
G0 Z0.4
G1 F1000.0 Z-0.01
G3 F2000.0 X31.6226 Y54.4723 I-0.1719 J3.3721
G3 X32.6404 Y55.2264 I-1.4876 J3.0717
G3 X33.3048 Y56.2916 I-2.5051 J2.3024
G3 X33.5421 Y57.5678 I-3.2338 J1.2615
G3 X33.2837 Y58.8914 I-3.4174 J0.0199
G3 X32.5718 Y59.983 I-3.2104 J-1.3158
G3 X31.4908 Y60.7266 I-2.4031 J-2.3362
G3 X30.1197 Y61.0061 I-1.3367 J-3.0548
G3 X28.7486 Y60.7266 I-0.0343 J-3.3343
G3 X27.6675 Y59.983 I1.322 J-3.0797
G3 X26.9556 Y58.8914 I2.4985 J-2.4074
G3 X26.6972 Y57.5678 I3.1591 J-1.3038
G3 X26.8501 Y56.5289 I3.5388 J-0.0097
G3 X27.2878 Y55.6166 I3.418 J1.0787
G3 X27.9681 Y54.8836 I2.9056 J2.0144
G3 X28.8593 Y54.3721 I2.1906 J2.7845
G2 X27.9681 Y54.8836 I1.2994 J3.296
G2 X27.2878 Y55.6166 I2.2251 J2.7472
G2 X26.8501 Y56.5289 I2.98 J1.9909
G2 X26.6972 Y57.5678 I3.3854 J1.029
G2 X26.9556 Y58.8914 I3.4174 J0.0199
G2 X27.6675 Y59.983 I3.2104 J-1.3158
G2 X28.7486 Y60.7266 I2.4031 J-2.3362
G2 X30.1197 Y61.0061 I1.3367 J-3.0548
G2 X31.4908 Y60.7266 I0.0343 J-3.3343
G2 X32.5718 Y59.983 I-1.322 J-3.0797
G2 X33.2837 Y58.8914 I-2.4985 J-2.4074
G2 X33.5421 Y57.5678 I-3.1591 J-1.3038
G2 X33.3048 Y56.2916 I-3.4712 J-0.0147
G2 X32.6404 Y55.2264 I-3.1697 J1.2373
G2 X31.6226 Y54.4723 I-2.5055 J2.3177
G2 X30.3359 Y54.1453 I-1.4587 J3.0452
G0 Z3.0
G0 Y55.7748
G0 Z0.4
G1 F1000.0 Z-0.01
G1 F2000.0 Y52.7109
G1 Y55.7748
G0 Z3.0
G0 X29.3869 Y41.8491
G0 Z0.4
G1 F1000.0 Z-0.01
G1 F2000.0 Y34.5015
G1 Y41.8491
G0 Z3.0
G0 X31.9254 Y40.7507
G0 Z0.4
G1 F1000.0 Z-0.01
G2 F2000.0 X32.2228 Y41.2515 I2.1012 J-0.9092
G2 X32.8791 Y41.7905 I1.5254 J-1.188
G2 X33.8459 Y41.9956 I0.9129 J-1.9221
G2 X34.8361 Y41.7964 I0.0593 J-2.266
G2 X35.5216 Y41.2808 I-0.8616 J-1.8591
G2 X35.9142 Y40.5835 I-1.4763 J-1.2903
G2 X36.0431 Y39.8218 I-2.2352 J-0.77
G2 X35.9259 Y39.0894 I-2.4929 J0.0233
G2 X35.5802 Y38.4038 I-2.0523 J0.605
G2 X34.9709 Y37.8823 I-1.5434 J1.1867
G2 X34.0861 Y37.6714 I-0.8377 J1.5525
G1 X33.2482
G1 X34.0861
G3 X34.9709 Y37.8823 I0.0471 J1.7633
G3 X35.5802 Y38.4038 I-0.934 J1.7082
G3 X35.9259 Y39.0894 I-1.7064 J1.2904
G3 X36.0431 Y39.8218 I-2.3752 J0.7556
G3 X35.9142 Y40.5835 I-2.3643 J-0.0083
G3 X35.5216 Y41.2808 I-1.869 J-0.5931
G3 X34.8361 Y41.7964 I-1.5471 J-1.3434
G3 X33.8459 Y41.9956 I-0.9309 J-2.0666
G3 X32.8791 Y41.7905 I-0.0539 J-2.1272
G3 X32.2228 Y41.2515 I0.8692 J-1.7271
G3 X31.8361 Y40.5073 I1.8041 J-1.4101
G3 X31.713 Y39.6636 I2.7977 J-0.8388
G1 Y34.5073
G1 Y39.6636
G2 X31.8361 Y40.5073 I2.9205 J0.0049
G2 X31.9254 Y40.7507 I2.1905 J-0.6658
G0 Z3.0
G0 X29.3869 Y38.3218
G0 Z0.4
G1 F1000.0 Z-0.01
G1 F2000.0 X24.6115
G1 X29.3869
G0 Z3.0
G0 X24.6115 Y41.8491
G0 Z0.4
G1 F1000.0 Z-0.01
G1 F2000.0 Y34.5015
G1 Y41.8491
G0 Z3.0
G0 X26.4778 Y30.0284
G0 Z0.4
G1 F1000.0 Z-0.01
G2 F2000.0 X26.886 Y30.0556 I0.355 J-2.2482
G2 X27.7942 Y29.9091 I0.0459 J-2.6043
G2 X28.4622 Y29.5107 I-0.6466 J-1.8432
G2 X28.8665 Y28.9248 I-1.0285 J-1.1421
G2 X29.0013 Y28.2041 I-1.7743 J-0.7047
G2 X28.8899 Y27.542 I-2.049 J0.0041
G2 X28.5501 Y26.9619 I-1.5105 J0.4954
G2 X27.9348 Y26.54 I-1.2808 J1.2083
G2 X27.0208 Y26.3818 I-0.8543 J2.2164
G1 X26.2649
G1 X27.0208
G2 X28.1165 Y26.2353 I0.0738 J-3.6192
G2 X28.8489 Y25.8369 I-0.5823 J-1.9428
G2 X29.2532 Y25.2334 I-0.9514 J-1.0745
G2 X29.3821 Y24.4482 I-2.1445 J-0.7552
G2 X29.3388 Y23.9637 I-2.5266 J-0.0183
G2 X29.177 Y23.5048 I-1.5349 J0.2832
G2 X28.6614 Y22.9306 I-1.4133 J0.7505
G2 X27.9817 Y22.6435 I-1.0535 J1.546
G2 X27.2845 Y22.5673 I-0.7161 J3.3258
G1 X26.2649
G1 X27.2845
G3 X27.9817 Y22.6435 I-0.019 J3.4031
G3 X28.6614 Y22.9306 I-0.3738 J1.833
G3 X29.177 Y23.5048 I-0.8978 J1.3248
G3 X29.3388 Y23.9637 I-1.3735 J0.7421
G3 X29.3821 Y24.4482 I-2.4837 J0.4663
G3 X29.2532 Y25.2334 I-2.2738 J0.0298
G3 X28.8489 Y25.8369 I-1.3558 J-0.4711
G3 X28.1165 Y26.2353 I-1.3147 J-1.5443
G3 X27.0208 Y26.3818 I-1.0219 J-3.4725
G1 X26.2649
G1 X27.0208
G3 X27.9348 Y26.54 I0.0598 J2.3744
G3 X28.5501 Y26.9619 I-0.6656 J1.6302
G3 X28.8899 Y27.542 I-1.1705 J1.0753
G3 X29.0013 Y28.2041 I-1.9377 J0.6662
G3 X28.8665 Y28.9248 I-1.909 J0.016
G3 X28.4622 Y29.5107 I-1.4328 J-0.5562
G3 X27.7942 Y29.9091 I-1.3147 J-1.4448
G3 X26.886 Y30.0556 I-0.8623 J-2.4578
G3 X25.9134 Y29.8623 I-0.0532 J-2.2756
G3 X25.2454 Y29.3701 I0.8678 J-1.8771
G3 X24.8587 Y28.6904 I1.4214 J-1.2586
G3 X24.7415 Y27.9404 I2.386 J-0.757
G1 Y22.5673
G1 Y27.9404
G2 X24.8587 Y28.6904 I2.5033 J-0.007
G2 X25.2454 Y29.3701 I1.8083 J-0.579
G2 X25.9134 Y29.8623 I1.5356 J-1.3847
G2 X26.4778 Y30.0284 I0.9194 J-2.082
G0 Z3.0
G0 X31.1868 Y27.7236
G0 Z0.4
G1 F1000.0 Z-0.01
G2 F2000.0 X31.3098 Y28.5673 I2.9205 J0.0049
G2 X31.6966 Y29.3115 I2.1905 J-0.6658
G2 X32.3528 Y29.8505 I1.5254 J-1.188
G2 X33.3196 Y30.0556 I0.9129 J-1.9221
G2 X34.3098 Y29.8564 I0.0593 J-2.266
G2 X34.9954 Y29.3408 I-0.8616 J-1.8591
G2 X35.388 Y28.6435 I-1.4763 J-1.2903
G2 X35.5169 Y27.8818 I-2.2352 J-0.77
G2 X35.3997 Y27.1494 I-2.4929 J0.0233
G2 X35.054 Y26.4638 I-2.0523 J0.605
G2 X34.4446 Y25.9423 I-1.5434 J1.1867
G2 X33.5598 Y25.7314 I-0.8377 J1.5525
G1 X32.722
G1 X33.5598
G3 X34.4446 Y25.9423 I0.0471 J1.7633
G3 X35.054 Y26.4638 I-0.934 J1.7082
G3 X35.3997 Y27.1494 I-1.7064 J1.2904
G3 X35.5169 Y27.8818 I-2.3752 J0.7556
G3 X35.388 Y28.6435 I-2.3643 J-0.0083
G3 X34.9954 Y29.3408 I-1.869 J-0.5931
G3 X34.3098 Y29.8564 I-1.5471 J-1.3434
G3 X33.3196 Y30.0556 I-0.9309 J-2.0666
G3 X32.3528 Y29.8505 I-0.0539 J-2.1272
G3 X31.6966 Y29.3115 I0.8692 J-1.7271
G3 X31.3098 Y28.5673 I1.8041 J-1.4101
G3 X31.1868 Y27.7236 I2.7977 J-0.8388
G1 Y22.5673
G1 Y27.7236
G0 Z3.0
G0 X30.3029 Y15.8036
G0 Z0.4
G1 F1000.0 Z-0.01
G2 F2000.0 X30.4259 Y16.6473 I2.9205 J0.0049
G2 X30.8127 Y17.3915 I2.1905 J-0.6658
G2 X31.4689 Y17.9305 I1.5254 J-1.188
G2 X32.4357 Y18.1356 I0.9129 J-1.9221
G2 X33.4259 Y17.9364 I0.0593 J-2.266
G2 X34.1115 Y17.4208 I-0.8616 J-1.8591
G2 X34.5041 Y16.7235 I-1.4763 J-1.2903
G2 X34.633 Y15.9618 I-2.2352 J-0.77
G2 X34.5158 Y15.2294 I-2.4929 J0.0233
G2 X34.1701 Y14.5438 I-2.0523 J0.605
G2 X33.5607 Y14.0223 I-1.5434 J1.1867
G2 X32.6759 Y13.8114 I-0.8377 J1.5525
G1 X31.838
G1 X32.6759
G3 X33.5607 Y14.0223 I0.0471 J1.7633
G3 X34.1701 Y14.5438 I-0.934 J1.7082
G3 X34.5158 Y15.2294 I-1.7064 J1.2904
G3 X34.633 Y15.9618 I-2.3752 J0.7556
G3 X34.5041 Y16.7235 I-2.3643 J-0.0083
G3 X34.1115 Y17.4208 I-1.869 J-0.5931
G3 X33.4259 Y17.9364 I-1.5471 J-1.3434
G3 X32.4357 Y18.1356 I-0.9309 J-2.0666
G3 X31.4689 Y17.9305 I-0.0539 J-2.1272
G3 X30.8127 Y17.3915 I0.8692 J-1.7271
G3 X30.4259 Y16.6473 I1.8041 J-1.4101
G3 X30.3029 Y15.8036 I2.7977 J-0.8388
G1 Y10.6473
G1 Y15.8036
G0 Z3.0
G0 X28.1056 Y10.6415
G0 Z0.4
G1 F1000.0 Z-0.01
G2 F2000.0 X27.3029 Y10.7587 I-0.0024 J2.7918
G2 X26.6056 Y11.1571 I0.5816 J1.8271
G2 X26.1076 Y11.8778 I1.4123 J1.5085
G2 X25.9603 Y12.4135 I2.1306 J0.874
G2 X25.9201 Y12.9677 I3.5434 J0.5356
G1 Y17.9891
G1 Y12.9677
G3 X26.1076 Y11.8778 I2.8392 J-0.0726
G3 X26.6056 Y11.1571 I1.9104 J0.7877
G3 X27.3029 Y10.7587 I1.2789 J1.4287
G3 X28.1056 Y10.6415 I0.8004 J2.6745
G1 X28.7502
G1 X28.1056
G0 Z3.0
G0 X23.543 Y109.9767
G0 Z0.4
G1 F1000.0 Z-0.01
G1 F2000.0 Y114.8751
G1 X22.6094
G1 X23.543
G1 Y109.9767
G0 Z3.0
G0 X20.5508 Y109.9806
G0 Z0.4
G1 F1000.0 Z-0.01
G1 F2000.0 Y111.8673
G3 X20.4649 Y112.3517 I-1.4409 J-0.0058
G3 X20.2227 Y112.7892 I-1.2642 J-0.4141
G3 X19.8203 Y113.1017 I-0.9454 J-0.802
G3 X19.2657 Y113.2228 I-0.5289 J-1.0919
G3 X18.7032 Y113.1017 I-0.0259 J-1.2467
G3 X18.3008 Y112.7892 I0.5789 J-1.1606
G3 X18.0547 Y112.3517 I0.9833 J-0.8411
G3 X17.9766 Y111.8673 I1.4925 J-0.4892
G1 Y109.9806
G1 Y111.8673
G2 X18.0547 Y112.3517 I1.5702 J-0.0048
G2 X18.3008 Y112.7892 I1.2293 J-0.4035
G2 X18.7032 Y113.1017 I0.9813 J-0.8482
G2 X19.2657 Y113.2228 I0.5366 J-1.1257
G2 X19.8203 Y113.1017 I0.0257 J-1.2131
G2 X20.2227 Y112.7892 I-0.5431 J-1.1145
G2 X20.4649 Y112.3517 I-1.0221 J-0.8516
G2 X20.5508 Y111.8673 I-1.355 J-0.4902
G1 Y109.9806
G0 Z3.0
G0 X16.1524
G0 Z0.4
G1 F1000.0 Z-0.01
G1 F2000.0 Y113.1134
G1 Y109.9806
G0 Z3.0
G0 X16.1465 Y114.2537
G0 Z0.4
G1 F1000.0 Z-0.01
G2 F2000.0 X16.0977 Y114.2774 I-0.0001 J0.0619
G2 X16.0821 Y114.3243 I0.0688 J0.049
G2 X16.1524 Y114.3985 I0.0631 J0.0106
G2 X16.2266 Y114.3243 I0.0093 J-0.0649
G2 X16.2071 Y114.2774 I-0.0741 J0.0034
G2 X16.1524 Y114.254 I-0.0487 J0.0382
G2 X16.1465 Y114.2537 I-0.0059 J0.0616
G2 X16.0977 Y114.2774 I-0.0001 J0.0619
G2 X16.0821 Y114.3243 I0.0688 J0.049
G2 X16.1524 Y114.3985 I0.0631 J0.0106
G2 X16.2266 Y114.3243 I0.0093 J-0.0649
G2 X16.2071 Y114.2774 I-0.0741 J0.0034
G2 X16.1524 Y114.254 I-0.0487 J0.0382
G2 X16.1465 Y114.2537 I-0.0059 J0.0616
G3 X16.1524 Y114.254 I-0.0001 J0.0619
G3 X16.2071 Y114.2774 I0.0059 J0.0616
G3 X16.2266 Y114.3243 I-0.0545 J0.0502
G3 X16.1524 Y114.3985 I-0.0649 J0.0093
G3 X16.0821 Y114.3243 I-0.0072 J-0.0636
G3 X16.0977 Y114.2774 I0.0844 J0.0021
G3 X16.1465 Y114.2537 I0.0487 J0.0382
G3 X16.1524 Y114.254 I-0.0001 J0.0619
G3 X16.2071 Y114.2774 I0.0059 J0.0616
G3 X16.2266 Y114.3243 I-0.0545 J0.0502
G3 X16.1524 Y114.3985 I-0.0649 J0.0093
G3 X16.0821 Y114.3243 I-0.0072 J-0.0636
G3 X16.0977 Y114.2774 I0.0844 J0.0021
G3 X16.1465 Y114.2537 I0.0487 J0.0382
G0 Z3.0
G0 X14.5007 Y118.5212
G0 Z0.4
G1 F1000.0 Z-0.01
G2 F2000.0 X14.1966 Y118.4289 I-0.7795 J2.0212
G2 X13.2671 Y118.33 I-0.8799 J3.8531
G1 X11.1749
G1 Y124.1281
G1 X13.1722
G2 X13.6905 Y124.1131 I0.0255 J-8.0345
G2 X14.2045 Y124.0451 I-0.1768 J-3.3145
G2 X15.0548 Y123.6298 I-0.4125 J-1.9228
G2 X15.7391 Y122.6371 I-1.5225 J-1.7815
G2 X15.9165 Y121.9593 I-3.1548 J-1.1879
G2 X15.9685 Y121.2607 I-4.4371 J-0.6814
G2 X15.8142 Y120.09 I-4.0731 J-0.0589
G2 X15.4187 Y119.2436 I-2.7838 J0.7852
G2 X14.8887 Y118.7176 I-1.7476 J1.2308
G2 X14.5007 Y118.5212 I-1.1675 J1.8248
G0 Z3.0
G0 X14.2211 Y119.1727
G0 Z0.4
G1 F1000.0 Z-0.01
G3 F2000.0 X14.6 Y119.4216 I-0.511 J1.1907
G3 X14.8546 Y119.7626 I-1.1039 J1.0895
G3 X15.0232 Y120.1533 I-1.9283 J1.064
G3 X15.1445 Y120.7069 I-2.7615 J0.895
G3 X15.1774 Y121.2726 I-4.5199 J0.5473
G3 X15.1194 Y121.9905 I-4.0422 J0.0343
G3 X14.8769 Y122.6687 I-1.9406 J-0.3115
G3 X14.5698 Y123.0575 I-1.5913 J-0.9412
G3 X14.1531 Y123.3253 I-0.8874 J-0.9228
G3 X13.6614 Y123.4237 I-0.6261 J-1.8506
G3 X13.1604 Y123.4439 I-0.4738 J-5.5194
G1 X11.9422
G1 Y119.0142
G1 X13.1801
G3 X13.633 Y119.0345 I0.0206 J4.5982
G3 X14.0779 Y119.121 I-0.1834 J2.132
G3 X14.2211 Y119.1727 I-0.3678 J1.2425
G0 Z3.0
G0 X17.1216 Y119.7798
G0 Z0.4
G1 F1000.0 Z-0.01
G2 F2000.0 X17.0795 Y120.0402 I2.804 J0.5869
G2 X17.0363 Y120.7782 I5.7327 J0.7055
G1 Y124.1281
G1 X17.8036
G1 Y120.7821
G3 X17.8279 Y120.2189 I5.8597 J-0.0297
G3 X17.942 Y119.6668 I2.2081 J0.1687
G3 X18.4246 Y119.1171 I1.0039 J0.3945
G3 X18.8313 Y118.9661 I0.6994 J1.2611
G3 X19.263 Y118.9233 I0.4179 J2.0141
G3 X19.9044 Y118.9951 I0.0363 J2.5752
G3 X20.209 Y119.1109 I-0.3458 J1.3678
G3 X20.4693 Y119.3069 I-0.4558 J0.8765
G3 X20.6688 Y119.6401 I-0.7666 J0.6853
G3 X20.7985 Y120.2042 I-2.2161 J0.8063
G3 X20.8292 Y120.7821 I-4.9178 J0.5518
G1 Y124.1281
G1 X21.5965
G1 Y120.7782
G2 X21.5579 Y120.0755 I-5.8485 J-0.0305
G2 X21.3988 Y119.39 I-2.9121 J0.3145
G2 X20.6829 Y118.5515 I-1.5839 J0.6274
G2 X20.0287 Y118.298 I-1.0475 J1.7324
G2 X19.3303 Y118.2311 I-0.6703 J3.3205
G2 X18.6467 Y118.2899 I-0.0263 J3.6964
G2 X17.9974 Y118.5119 I0.3881 J2.1955
G2 X17.2578 Y119.3227 I0.7439 J1.4213
G2 X17.1216 Y119.7798 I2.6678 J1.044
G0 Z3.0
G0 X22.2373 Y118.33
G0 Z0.4
G1 F1000.0 Z-0.01
G1 F2000.0 X24.464 Y124.1281
G1 X25.2906
G1 X27.6636 Y118.33
G1 X26.7896
G1 X26.1132 Y120.0861
G1 X23.6888
G1 X23.052 Y118.33
G1 X22.2373
G0 Z3.0
G0 X23.9103 Y120.711
G0 Z0.4
G1 F1000.0 Z-0.01
G1 F2000.0 X25.8759
G1 X25.2708 Y122.3167
G2 X24.8595 Y123.5191 I15.1948 J5.8698
G2 X24.547 Y122.4116 I-7.2479 J1.4471
G1 X23.9103 Y120.711
G0 Z3.0
G0 X28.249
G0 Z0.4
G1 F1000.0 Z-0.01
G1 F2000.0 Y124.1281
G1 X29.0163
G1 Y119.0142
G1 X31.8718
G1 Y118.33
G1 X28.249
G1 Y120.711
G0 Z3.0
G0 X32.4176
G0 Z0.4
G1 F1000.0 Z-0.01
G1 F2000.0 Y120.7861
G1 X34.6048
G1 Y120.0702
G1 X32.4176
G1 Y120.711
G0 Z3.0
G0 X35.7215 Y121.991
G0 Z0.4
G1 F1000.0 Z-0.01
G1 F2000.0 X34.8935 Y124.1281
G1 X35.7241
G1 X37.231 Y119.916
G2 X37.5355 Y118.9668 I-12.5994 J-4.5658
G2 X37.8479 Y119.916 I11.6353 J-3.3039
G1 X39.4142 Y124.1281
G1 X40.1973
G1 X37.9271 Y118.33
G1 X37.14
G1 X35.7215 Y121.991
G0 Z3.0
G0 X40.676 Y121.6057
G0 Z0.4
G1 F1000.0 Z-0.01
G2 F2000.0 X40.742 Y122.0821 I3.9991 J-0.311
G2 X41.0081 Y122.8507 I2.9569 J-0.5935
G2 X41.9929 Y123.875 I2.1241 J-1.0565
G2 X43.4009 Y124.227 I1.3792 J-2.5246
G2 X44.169 Y124.1259 I0.0244 J-2.7834
G2 X44.8643 Y123.7841 I-0.5789 J-2.0551
G2 X45.3814 Y123.23 I-1.2741 J-1.7075
G2 X45.6909 Y122.5382 I-2.1962 J-1.3977
G1 X44.9354 Y122.3602
G3 X44.7136 Y122.866 I-2.3099 J-0.7119
G3 X44.3501 Y123.2818 I-1.2413 J-0.7183
G3 X43.8914 Y123.5057 I-0.8201 J-1.0978
G3 X43.3851 Y123.5705 I-0.4889 J-1.8111
G3 X42.8002 Y123.4985 I-0.0194 J-2.2542
G3 X42.2658 Y123.2501 I0.4196 J-1.6021
G3 X41.6369 Y122.3879 I0.9859 J-1.3795
G3 X41.455 Y121.2765 I3.2634 J-1.1048
G3 X41.5025 Y120.6201 I4.3073 J-0.0181
G3 X41.6686 Y119.9832 I3.0383 J0.4521
G3 X41.9353 Y119.5152 I1.6878 J0.6519
G3 X42.3409 Y119.1606 I1.1822 J0.943
G3 X43.3257 Y118.8877 I0.9756 J1.6072
G3 X43.905 Y118.9753 I0.017 J1.8469
G3 X44.4173 Y119.2594 I-0.4837 J1.476
G3 X44.8129 Y119.7602 I-1.032 J1.2217
G3 X45.0225 Y120.3629 I-2.1634 J1.0901
G1 X45.7897 Y120.1691
G2 X45.4748 Y119.3749 I-3.0361 J0.7444
G2 X44.9196 Y118.7255 I-1.9698 J1.122
G2 X44.197 Y118.346 I-1.3685 J1.7281
G2 X43.389 Y118.2311 I-0.7835 J2.6114
G2 X42.5985 Y118.3119 I-0.0305 J3.611
G2 X41.8624 Y118.6108 I0.4735 J2.2219
G2 X41.332 Y119.0972 I1.2267 J1.8697
G2 X40.9685 Y119.7182 I2.1308 J1.6642
G2 X40.664 Y121.2726 I3.6635 J1.5248
G2 X40.676 Y121.6057 I4.0111 J0.0221
G0 Z3.0
G0 X46.7746
G0 Z0.4
G1 F1000.0 Z-0.01
G1 F2000.0 Y124.1281
G1 X50.6861
G1 Y123.4439
G1 X47.5418
G1 Y121.6483
G1 X50.2629
G1 Y120.9641
G1 X47.5418
G1 Y118.33
G1 X46.7746
G1 Y121.6057
G0 Z3.0
G0 X42.2835 Y109.9606
G0 Z0.4
G1 F1000.0 Z-0.01
G2 F2000.0 X42.1128 Y109.9703 I-0.0111 J1.3028
G2 X41.9514 Y110.027 I0.0234 J0.3248
G2 X41.8811 Y110.2067 I0.1657 J0.1684
G2 X41.8889 Y110.2535 I0.1473 J-0.0005
G2 X41.9397 Y110.316 I0.1744 J-0.0898
G2 X42.0647 Y110.4254 I3.1527 J-3.477
G2 X42.2913 Y110.6051 I3.3188 J-3.9519
G1 X44.0491 Y111.984
G3 X44.3967 Y112.2809 I-7.7838 J9.4672
G3 X44.7014 Y112.6246 I-1.4235 J1.5686
G3 X44.9124 Y113.0387 I-1.4168 J0.9825
G3 X44.9944 Y113.5348 I-1.3479 J0.4777
G3 X44.8616 Y114.1754 I-1.4294 J0.0377
G3 X44.5217 Y114.6168 I-1.1977 J-0.5706
G3 X44.0569 Y114.8707 I-0.8369 J-0.9796
G3 X43.5452 Y114.9528 I-0.5147 J-1.5738
G3 X42.9944 Y114.8707 I0.0109 J-1.9633
G3 X42.4866 Y114.6129 I0.3762 J-1.37
G3 X42.1233 Y114.152 I0.83 J-1.0278
G3 X41.9866 Y113.4723 I1.4178 J-0.6388
G3 X42.1936 Y112.7653 I1.3276 J0.0049
G3 X42.7678 Y112.2301 I1.2735 J0.7908
G2 X42.1936 Y112.7653 I0.6992 J1.3259
G2 X41.9866 Y113.4723 I1.1205 J0.7119
G2 X42.1233 Y114.152 I1.5546 J0.0409
G2 X42.4866 Y114.6129 I1.1933 J-0.5669
G2 X42.9944 Y114.8707 I0.884 J-1.1122
G2 X43.5452 Y114.9528 I0.5617 J-1.8811
G2 X44.0569 Y114.8707 I-0.003 J-1.6557
G2 X44.5217 Y114.6168 I-0.372 J-1.2336
G2 X44.8616 Y114.1754 I-0.8578 J-1.0119
G2 X44.9944 Y113.5348 I-1.2966 J-0.6029
G2 X44.9124 Y113.0387 I-1.4298 J-0.0184
G2 X44.7014 Y112.6246 I-1.6276 J0.5684
G2 X44.3967 Y112.2809 I-1.7277 J1.2244
G2 X44.0491 Y111.984 I-8.2248 J9.2796
G1 X42.2913 Y110.6051
G3 X42.0647 Y110.4254 I3.0917 J-4.1309
G3 X41.9397 Y110.316 I3.112 J-3.6827
G3 X41.8889 Y110.2535 I0.1236 J-0.1523
G3 X41.8811 Y110.2067 I0.1399 J-0.0474
G3 X41.9514 Y110.027 I0.236 J-0.0113
G3 X42.1128 Y109.9703 I0.1848 J0.2681
G3 X42.2835 Y109.9606 I0.1597 J1.2958
G1 X44.9944
G1 X42.2835
G0 Z3.0
G0 X40.5608
G0 Z0.4
G1 F1000.0 Z-0.01
G1 F2000.0 Y111.8473
G3 X40.4749 Y112.3317 I-1.4409 J-0.0058
G3 X40.2327 Y112.7692 I-1.2642 J-0.4141
G3 X39.8303 Y113.0817 I-0.9454 J-0.802
G3 X39.2757 Y113.2028 I-0.5289 J-1.0919
G3 X38.7132 Y113.0817 I-0.0259 J-1.2467
G3 X38.3108 Y112.7692 I0.5789 J-1.1606
G3 X38.0647 Y112.3317 I0.9833 J-0.8411
G3 X37.9866 Y111.8473 I1.4925 J-0.4892
G1 Y109.9606
G1 Y111.8473
G2 X38.0647 Y112.3317 I1.5702 J-0.0048
G2 X38.3108 Y112.7692 I1.2293 J-0.4035
G2 X38.7132 Y113.0817 I0.9813 J-0.8482
G2 X39.2757 Y113.2028 I0.5366 J-1.1257
G2 X39.8303 Y113.0817 I0.0257 J-1.2131
G2 X40.2327 Y112.7692 I-0.5431 J-1.1145
G2 X40.4749 Y112.3317 I-1.0221 J-0.8516
G2 X40.5608 Y111.8473 I-1.355 J-0.4902
G1 Y109.9606
G0 Z3.0
G0 X36.1624
G0 Z0.4
G1 F1000.0 Z-0.01
G1 F2000.0 Y113.0934
G1 Y109.9606
G0 Z3.0
G0 X36.1565 Y114.2337
G0 Z0.4
G1 F1000.0 Z-0.01
G2 F2000.0 X36.1077 Y114.2574 I-0.0001 J0.0619
G2 X36.0921 Y114.3043 I0.0688 J0.049
G2 X36.1624 Y114.3785 I0.0631 J0.0106
G2 X36.2366 Y114.3043 I0.0093 J-0.0649
G2 X36.2171 Y114.2574 I-0.0741 J0.0034
G2 X36.1624 Y114.234 I-0.0487 J0.0382
G2 X36.1565 Y114.2337 I-0.0059 J0.0616
G2 X36.1077 Y114.2574 I-0.0001 J0.0619
G2 X36.0921 Y114.3043 I0.0688 J0.049
G2 X36.1624 Y114.3785 I0.0631 J0.0106
G2 X36.2366 Y114.3043 I0.0093 J-0.0649
G2 X36.2171 Y114.2574 I-0.0741 J0.0034
G2 X36.1624 Y114.234 I-0.0487 J0.0382
G2 X36.1565 Y114.2337 I-0.0059 J0.0616
G3 X36.1624 Y114.234 I-0.0001 J0.0619
G3 X36.2171 Y114.2574 I0.0059 J0.0616
G3 X36.2366 Y114.3043 I-0.0545 J0.0502
G3 X36.1624 Y114.3785 I-0.0649 J0.0093
G3 X36.0921 Y114.3043 I-0.0072 J-0.0636
G3 X36.1077 Y114.2574 I0.0844 J0.0021
G3 X36.1565 Y114.2337 I0.0487 J0.0382
G3 X36.1624 Y114.234 I-0.0001 J0.0619
G3 X36.2171 Y114.2574 I0.0059 J0.0616
G3 X36.2366 Y114.3043 I-0.0545 J0.0502
G3 X36.1624 Y114.3785 I-0.0649 J0.0093
G3 X36.0921 Y114.3043 I-0.0072 J-0.0636
G3 X36.1077 Y114.2574 I0.0844 J0.0021
G3 X36.1565 Y114.2337 I0.0487 J0.0382
( mounting )
G0 Z3.0
( T3 : 3.175 )
T3 M6
M3 S1000
G0 X29.81 Y115.08
G0 Z3.0
G0 X29.8225 Y115.08
G0 Z0.01
G1 F1000.0 Z0.0
G2 F2000.0 X29.8038 Y115.0692 Z-0.0333 I-0.0125 J0.0
G2 Y115.0908 Z-0.0667 I0.0062 J0.0108
G2 X29.8225 Y115.08 Z-0.1 I0.0063 J-0.0108
G2 X29.8038 Y115.0692 Z-0.1333 I-0.0125 J0.0
G2 Y115.0908 Z-0.1667 I0.0062 J0.0108
G2 X29.8225 Y115.08 Z-0.2 I0.0063 J-0.0108
G2 X29.8038 Y115.0692 Z-0.2333 I-0.0125 J0.0
G2 Y115.0908 Z-0.2667 I0.0062 J0.0108
G2 X29.8225 Y115.08 Z-0.3 I0.0063 J-0.0108
G2 X29.8038 Y115.0692 Z-0.3333 I-0.0125 J0.0
G2 Y115.0908 Z-0.3667 I0.0062 J0.0108
G2 X29.8225 Y115.08 Z-0.4 I0.0063 J-0.0108
G2 X29.8038 Y115.0692 Z-0.4333 I-0.0125 J0.0
G2 Y115.0908 Z-0.4667 I0.0062 J0.0108
G2 X29.8225 Y115.08 Z-0.5 I0.0063 J-0.0108
G2 X29.8038 Y115.0692 Z-0.5333 I-0.0125 J0.0
G2 Y115.0908 Z-0.5667 I0.0062 J0.0108
G2 X29.8225 Y115.08 Z-0.6 I0.0063 J-0.0108
G2 X29.8038 Y115.0692 Z-0.6333 I-0.0125 J0.0
G2 Y115.0908 Z-0.6667 I0.0062 J0.0108
G2 X29.8225 Y115.08 Z-0.7 I0.0063 J-0.0108
G2 X29.8038 Y115.0692 Z-0.7333 I-0.0125 J0.0
G2 Y115.0908 Z-0.7667 I0.0062 J0.0108
G2 X29.8225 Y115.08 Z-0.8 I0.0063 J-0.0108
G2 X29.8038 Y115.0692 Z-0.8333 I-0.0125 J0.0
G2 Y115.0908 Z-0.8667 I0.0062 J0.0108
G2 X29.8225 Y115.08 Z-0.9 I0.0063 J-0.0108
G2 X29.8038 Y115.0692 Z-0.9333 I-0.0125 J0.0
G2 Y115.0908 Z-0.9667 I0.0062 J0.0108
G2 X29.8225 Y115.08 Z-1.0 I0.0063 J-0.0108
G2 X29.8038 Y115.0692 Z-1.0333 I-0.0125 J0.0
G2 Y115.0908 Z-1.0667 I0.0062 J0.0108
G2 X29.8225 Y115.08 Z-1.1 I0.0063 J-0.0108
G2 X29.8038 Y115.0692 Z-1.1333 I-0.0125 J0.0
G2 Y115.0908 Z-1.1667 I0.0062 J0.0108
G2 X29.8225 Y115.08 Z-1.2 I0.0063 J-0.0108
G2 X29.8038 Y115.0692 Z-1.2333 I-0.0125 J0.0
G2 Y115.0908 Z-1.2667 I0.0062 J0.0108
G2 X29.8225 Y115.08 Z-1.3 I0.0063 J-0.0108
G2 X29.8038 Y115.0692 Z-1.3333 I-0.0125 J0.0
G2 Y115.0908 Z-1.3667 I0.0062 J0.0108
G2 X29.8225 Y115.08 Z-1.4 I0.0063 J-0.0108
G2 X29.8038 Y115.0692 Z-1.4333 I-0.0125 J0.0
G2 Y115.0908 Z-1.4667 I0.0062 J0.0108
G2 X29.8225 Y115.08 Z-1.5 I0.0063 J-0.0108
G2 X29.8038 Y115.0692 Z-1.5333 I-0.0125 J0.0
G2 Y115.0908 Z-1.5667 I0.0062 J0.0108
G2 X29.8225 Y115.08 Z-1.6 I0.0063 J-0.0108
G2 X29.8038 Y115.0692 Z-1.6333 I-0.0125 J0.0
G2 Y115.0908 Z-1.6667 I0.0062 J0.0108
G2 X29.8225 Y115.08 Z-1.7 I0.0063 J-0.0108
G2 X29.8038 Y115.0692 Z-1.7333 I-0.0125 J0.0
G2 Y115.0908 Z-1.7667 I0.0062 J0.0108
G2 X29.8225 Y115.08 Z-1.8 I0.0063 J-0.0108
G2 X29.8038 Y115.0692 Z-1.8333 I-0.0125 J0.0
G2 Y115.0908 Z-1.8667 I0.0062 J0.0108
G2 X29.8225 Y115.08 Z-1.9 I0.0063 J-0.0108
G2 X29.8038 Y115.0692 Z-1.9333 I-0.0125 J0.0
G2 Y115.0908 Z-1.9667 I0.0062 J0.0108
G2 X29.8225 Y115.08 Z-2.0 I0.0063 J-0.0108
G2 X29.8038 Y115.0692 Z-2.0333 I-0.0125 J0.0
G2 Y115.0908 Z-2.0667 I0.0062 J0.0108
G2 X29.8225 Y115.08 Z-2.1 I0.0063 J-0.0108
G2 X29.8038 Y115.0692 Z-2.1333 I-0.0125 J0.0
G2 Y115.0908 Z-2.1667 I0.0062 J0.0108
G2 X29.8225 Y115.08 Z-2.2 I0.0063 J-0.0108
G2 X29.8038 Y115.0692 Z-2.2333 I-0.0125 J0.0
G2 Y115.0908 Z-2.2667 I0.0062 J0.0108
G2 X29.8225 Y115.08 Z-2.3 I0.0063 J-0.0108
G2 X29.8038 Y115.0692 Z-2.3333 I-0.0125 J0.0
G2 Y115.0908 Z-2.3667 I0.0062 J0.0108
G2 X29.8225 Y115.08 Z-2.4 I0.0063 J-0.0108
G2 X29.8038 Y115.0692 Z-2.4333 I-0.0125 J0.0
G2 Y115.0908 Z-2.4667 I0.0062 J0.0108
G2 X29.8225 Y115.08 Z-2.5 I0.0063 J-0.0108
G2 X29.8038 Y115.0692 Z-2.5333 I-0.0125 J0.0
G2 Y115.0908 Z-2.5667 I0.0062 J0.0108
G2 X29.8225 Y115.08 Z-2.6 I0.0063 J-0.0108
G2 X29.8038 Y115.0692 Z-2.6333 I-0.0125 J0.0
G2 Y115.0908 Z-2.6667 I0.0062 J0.0108
G2 X29.8225 Y115.08 Z-2.7 I0.0063 J-0.0108
G2 X29.8038 Y115.0692 Z-2.7333 I-0.0125 J0.0
G2 Y115.0908 Z-2.7667 I0.0062 J0.0108
G2 X29.8225 Y115.08 Z-2.8 I0.0063 J-0.0108
G2 X29.8038 Y115.0692 Z-2.8333 I-0.0125 J0.0
G2 Y115.0908 Z-2.8667 I0.0062 J0.0108
G2 X29.8225 Y115.08 Z-2.9 I0.0063 J-0.0108
G2 X29.8038 Y115.0692 Z-2.9333 I-0.0125 J0.0
G2 Y115.0908 Z-2.9667 I0.0062 J0.0108
G2 X29.8225 Y115.08 Z-3.0 I0.0063 J-0.0108
G2 X29.8038 Y115.0692 Z-3.0333 I-0.0125 J0.0
G2 Y115.0908 Z-3.0667 I0.0062 J0.0108
G2 X29.8225 Y115.08 Z-3.1 I0.0063 J-0.0108
G2 X29.8038 Y115.0692 Z-3.1333 I-0.0125 J0.0
G2 Y115.0908 Z-3.1667 I0.0062 J0.0108
G2 X29.8225 Y115.08 Z-3.2 I0.0063 J-0.0108
G2 X29.8038 Y115.0692 I-0.0125 J0.0
G2 Y115.0908 I0.0063 J0.0108
G2 X29.8225 Y115.08 I0.0062 J-0.0108
G0 Z3.0
G0 X10.5025 Y111.79
G0 Z0.01
G1 F1000.0 Z0.0
G2 F2000.0 X10.4837 Y111.7792 Z-0.0333 I-0.0125 J0.0
G2 Y111.8008 Z-0.0667 I0.0062 J0.0108
G2 X10.5025 Y111.79 Z-0.1 I0.0063 J-0.0108
G2 X10.4837 Y111.7792 Z-0.1333 I-0.0125 J0.0
G2 Y111.8008 Z-0.1667 I0.0062 J0.0108
G2 X10.5025 Y111.79 Z-0.2 I0.0063 J-0.0108
G2 X10.4837 Y111.7792 Z-0.2333 I-0.0125 J0.0
G2 Y111.8008 Z-0.2667 I0.0062 J0.0108
G2 X10.5025 Y111.79 Z-0.3 I0.0063 J-0.0108
G2 X10.4837 Y111.7792 Z-0.3333 I-0.0125 J0.0
G2 Y111.8008 Z-0.3667 I0.0062 J0.0108
G2 X10.5025 Y111.79 Z-0.4 I0.0063 J-0.0108
G2 X10.4837 Y111.7792 Z-0.4333 I-0.0125 J0.0
G2 Y111.8008 Z-0.4667 I0.0062 J0.0108
G2 X10.5025 Y111.79 Z-0.5 I0.0063 J-0.0108
G2 X10.4837 Y111.7792 Z-0.5333 I-0.0125 J0.0
G2 Y111.8008 Z-0.5667 I0.0062 J0.0108
G2 X10.5025 Y111.79 Z-0.6 I0.0063 J-0.0108
G2 X10.4837 Y111.7792 Z-0.6333 I-0.0125 J0.0
G2 Y111.8008 Z-0.6667 I0.0062 J0.0108
G2 X10.5025 Y111.79 Z-0.7 I0.0063 J-0.0108
G2 X10.4837 Y111.7792 Z-0.7333 I-0.0125 J0.0
G2 Y111.8008 Z-0.7667 I0.0062 J0.0108
G2 X10.5025 Y111.79 Z-0.8 I0.0063 J-0.0108
G2 X10.4837 Y111.7792 Z-0.8333 I-0.0125 J0.0
G2 Y111.8008 Z-0.8667 I0.0062 J0.0108
G2 X10.5025 Y111.79 Z-0.9 I0.0063 J-0.0108
G2 X10.4837 Y111.7792 Z-0.9333 I-0.0125 J0.0
G2 Y111.8008 Z-0.9667 I0.0062 J0.0108
G2 X10.5025 Y111.79 Z-1.0 I0.0063 J-0.0108
G2 X10.4837 Y111.7792 Z-1.0333 I-0.0125 J0.0
G2 Y111.8008 Z-1.0667 I0.0062 J0.0108
G2 X10.5025 Y111.79 Z-1.1 I0.0063 J-0.0108
G2 X10.4837 Y111.7792 Z-1.1333 I-0.0125 J0.0
G2 Y111.8008 Z-1.1667 I0.0062 J0.0108
G2 X10.5025 Y111.79 Z-1.2 I0.0063 J-0.0108
G2 X10.4837 Y111.7792 Z-1.2333 I-0.0125 J0.0
G2 Y111.8008 Z-1.2667 I0.0062 J0.0108
G2 X10.5025 Y111.79 Z-1.3 I0.0063 J-0.0108
G2 X10.4837 Y111.7792 Z-1.3333 I-0.0125 J0.0
G2 Y111.8008 Z-1.3667 I0.0062 J0.0108
G2 X10.5025 Y111.79 Z-1.4 I0.0063 J-0.0108
G2 X10.4837 Y111.7792 Z-1.4333 I-0.0125 J0.0
G2 Y111.8008 Z-1.4667 I0.0062 J0.0108
G2 X10.5025 Y111.79 Z-1.5 I0.0063 J-0.0108
G2 X10.4837 Y111.7792 Z-1.5333 I-0.0125 J0.0
G2 Y111.8008 Z-1.5667 I0.0062 J0.0108
G2 X10.5025 Y111.79 Z-1.6 I0.0063 J-0.0108
G2 X10.4837 Y111.7792 Z-1.6333 I-0.0125 J0.0
G2 Y111.8008 Z-1.6667 I0.0062 J0.0108
G2 X10.5025 Y111.79 Z-1.7 I0.0063 J-0.0108
G2 X10.4837 Y111.7792 Z-1.7333 I-0.0125 J0.0
G2 Y111.8008 Z-1.7667 I0.0062 J0.0108
G2 X10.5025 Y111.79 Z-1.8 I0.0063 J-0.0108
G2 X10.4837 Y111.7792 Z-1.8333 I-0.0125 J0.0
G2 Y111.8008 Z-1.8667 I0.0062 J0.0108
G2 X10.5025 Y111.79 Z-1.9 I0.0063 J-0.0108
G2 X10.4837 Y111.7792 Z-1.9333 I-0.0125 J0.0
G2 Y111.8008 Z-1.9667 I0.0062 J0.0108
G2 X10.5025 Y111.79 Z-2.0 I0.0063 J-0.0108
G2 X10.4837 Y111.7792 Z-2.0333 I-0.0125 J0.0
G2 Y111.8008 Z-2.0667 I0.0062 J0.0108
G2 X10.5025 Y111.79 Z-2.1 I0.0063 J-0.0108
G2 X10.4837 Y111.7792 Z-2.1333 I-0.0125 J0.0
G2 Y111.8008 Z-2.1667 I0.0062 J0.0108
G2 X10.5025 Y111.79 Z-2.2 I0.0063 J-0.0108
G2 X10.4837 Y111.7792 Z-2.2333 I-0.0125 J0.0
G2 Y111.8008 Z-2.2667 I0.0062 J0.0108
G2 X10.5025 Y111.79 Z-2.3 I0.0063 J-0.0108
G2 X10.4837 Y111.7792 Z-2.3333 I-0.0125 J0.0
G2 Y111.8008 Z-2.3667 I0.0062 J0.0108
G2 X10.5025 Y111.79 Z-2.4 I0.0063 J-0.0108
G2 X10.4837 Y111.7792 Z-2.4333 I-0.0125 J0.0
G2 Y111.8008 Z-2.4667 I0.0062 J0.0108
G2 X10.5025 Y111.79 Z-2.5 I0.0063 J-0.0108
G2 X10.4837 Y111.7792 Z-2.5333 I-0.0125 J0.0
G2 Y111.8008 Z-2.5667 I0.0062 J0.0108
G2 X10.5025 Y111.79 Z-2.6 I0.0063 J-0.0108
G2 X10.4837 Y111.7792 Z-2.6333 I-0.0125 J0.0
G2 Y111.8008 Z-2.6667 I0.0062 J0.0108
G2 X10.5025 Y111.79 Z-2.7 I0.0063 J-0.0108
G2 X10.4837 Y111.7792 Z-2.7333 I-0.0125 J0.0
G2 Y111.8008 Z-2.7667 I0.0062 J0.0108
G2 X10.5025 Y111.79 Z-2.8 I0.0063 J-0.0108
G2 X10.4837 Y111.7792 Z-2.8333 I-0.0125 J0.0
G2 Y111.8008 Z-2.8667 I0.0062 J0.0108
G2 X10.5025 Y111.79 Z-2.9 I0.0063 J-0.0108
G2 X10.4837 Y111.7792 Z-2.9333 I-0.0125 J0.0
G2 Y111.8008 Z-2.9667 I0.0062 J0.0108
G2 X10.5025 Y111.79 Z-3.0 I0.0063 J-0.0108
G2 X10.4837 Y111.7792 Z-3.0333 I-0.0125 J0.0
G2 Y111.8008 Z-3.0667 I0.0062 J0.0108
G2 X10.5025 Y111.79 Z-3.1 I0.0063 J-0.0108
G2 X10.4837 Y111.7792 Z-3.1333 I-0.0125 J0.0
G2 Y111.8008 Z-3.1667 I0.0063 J0.0108
G2 X10.5025 Y111.79 Z-3.2 I0.0062 J-0.0108
G2 X10.4837 Y111.7792 I-0.0125 J0.0
G2 Y111.8008 I0.0063 J0.0108
G2 X10.5025 Y111.79 I0.0062 J-0.0108
G0 Z3.0
G0 X10.6625 Y98.41
G0 Z0.01
G1 F1000.0 Z0.0
G2 F2000.0 X10.6437 Y98.3992 Z-0.0333 I-0.0125 J0.0
G2 Y98.4208 Z-0.0667 I0.0062 J0.0108
G2 X10.6625 Y98.41 Z-0.1 I0.0063 J-0.0108
G2 X10.6437 Y98.3992 Z-0.1333 I-0.0125 J0.0
G2 Y98.4208 Z-0.1667 I0.0062 J0.0108
G2 X10.6625 Y98.41 Z-0.2 I0.0063 J-0.0108
G2 X10.6437 Y98.3992 Z-0.2333 I-0.0125 J0.0
G2 Y98.4208 Z-0.2667 I0.0062 J0.0108
G2 X10.6625 Y98.41 Z-0.3 I0.0063 J-0.0108
G2 X10.6437 Y98.3992 Z-0.3333 I-0.0125 J0.0
G2 Y98.4208 Z-0.3667 I0.0062 J0.0108
G2 X10.6625 Y98.41 Z-0.4 I0.0063 J-0.0108
G2 X10.6437 Y98.3992 Z-0.4333 I-0.0125 J0.0
G2 Y98.4208 Z-0.4667 I0.0062 J0.0108
G2 X10.6625 Y98.41 Z-0.5 I0.0063 J-0.0108
G2 X10.6437 Y98.3992 Z-0.5333 I-0.0125 J0.0
G2 Y98.4208 Z-0.5667 I0.0062 J0.0108
G2 X10.6625 Y98.41 Z-0.6 I0.0063 J-0.0108
G2 X10.6437 Y98.3992 Z-0.6333 I-0.0125 J0.0
G2 Y98.4208 Z-0.6667 I0.0062 J0.0108
G2 X10.6625 Y98.41 Z-0.7 I0.0063 J-0.0108
G2 X10.6437 Y98.3992 Z-0.7333 I-0.0125 J0.0
G2 Y98.4208 Z-0.7667 I0.0062 J0.0108
G2 X10.6625 Y98.41 Z-0.8 I0.0063 J-0.0108
G2 X10.6437 Y98.3992 Z-0.8333 I-0.0125 J0.0
G2 Y98.4208 Z-0.8667 I0.0062 J0.0108
G2 X10.6625 Y98.41 Z-0.9 I0.0063 J-0.0108
G2 X10.6437 Y98.3992 Z-0.9333 I-0.0125 J0.0
G2 Y98.4208 Z-0.9667 I0.0062 J0.0108
G2 X10.6625 Y98.41 Z-1.0 I0.0063 J-0.0108
G2 X10.6437 Y98.3992 Z-1.0333 I-0.0125 J0.0
G2 Y98.4208 Z-1.0667 I0.0062 J0.0108
G2 X10.6625 Y98.41 Z-1.1 I0.0063 J-0.0108
G2 X10.6437 Y98.3992 Z-1.1333 I-0.0125 J0.0
G2 Y98.4208 Z-1.1667 I0.0062 J0.0108
G2 X10.6625 Y98.41 Z-1.2 I0.0063 J-0.0108
G2 X10.6437 Y98.3992 Z-1.2333 I-0.0125 J0.0
G2 Y98.4208 Z-1.2667 I0.0062 J0.0108
G2 X10.6625 Y98.41 Z-1.3 I0.0063 J-0.0108
G2 X10.6437 Y98.3992 Z-1.3333 I-0.0125 J0.0
G2 Y98.4208 Z-1.3667 I0.0062 J0.0108
G2 X10.6625 Y98.41 Z-1.4 I0.0063 J-0.0108
G2 X10.6437 Y98.3992 Z-1.4333 I-0.0125 J0.0
G2 Y98.4208 Z-1.4667 I0.0062 J0.0108
G2 X10.6625 Y98.41 Z-1.5 I0.0063 J-0.0108
G2 X10.6437 Y98.3992 Z-1.5333 I-0.0125 J0.0
G2 Y98.4208 Z-1.5667 I0.0062 J0.0108
G2 X10.6625 Y98.41 Z-1.6 I0.0063 J-0.0108
G2 X10.6437 Y98.3992 Z-1.6333 I-0.0125 J0.0
G2 Y98.4208 Z-1.6667 I0.0062 J0.0108
G2 X10.6625 Y98.41 Z-1.7 I0.0063 J-0.0108
G2 X10.6437 Y98.3992 Z-1.7333 I-0.0125 J0.0
G2 Y98.4208 Z-1.7667 I0.0062 J0.0108
G2 X10.6625 Y98.41 Z-1.8 I0.0063 J-0.0108
G2 X10.6437 Y98.3992 Z-1.8333 I-0.0125 J0.0
G2 Y98.4208 Z-1.8667 I0.0062 J0.0108
G2 X10.6625 Y98.41 Z-1.9 I0.0063 J-0.0108
G2 X10.6437 Y98.3992 Z-1.9333 I-0.0125 J0.0
G2 Y98.4208 Z-1.9667 I0.0062 J0.0108
G2 X10.6625 Y98.41 Z-2.0 I0.0063 J-0.0108
G2 X10.6437 Y98.3992 Z-2.0333 I-0.0125 J0.0
G2 Y98.4208 Z-2.0667 I0.0062 J0.0108
G2 X10.6625 Y98.41 Z-2.1 I0.0063 J-0.0108
G2 X10.6437 Y98.3992 Z-2.1333 I-0.0125 J0.0
G2 Y98.4208 Z-2.1667 I0.0062 J0.0108
G2 X10.6625 Y98.41 Z-2.2 I0.0063 J-0.0108
G2 X10.6437 Y98.3992 Z-2.2333 I-0.0125 J0.0
G2 Y98.4208 Z-2.2667 I0.0062 J0.0108
G2 X10.6625 Y98.41 Z-2.3 I0.0063 J-0.0108
G2 X10.6437 Y98.3992 Z-2.3333 I-0.0125 J0.0
G2 Y98.4208 Z-2.3667 I0.0062 J0.0108
G2 X10.6625 Y98.41 Z-2.4 I0.0063 J-0.0108
G2 X10.6437 Y98.3992 Z-2.4333 I-0.0125 J0.0
G2 Y98.4208 Z-2.4667 I0.0062 J0.0108
G2 X10.6625 Y98.41 Z-2.5 I0.0063 J-0.0108
G2 X10.6437 Y98.3992 Z-2.5333 I-0.0125 J0.0
G2 Y98.4208 Z-2.5667 I0.0062 J0.0108
G2 X10.6625 Y98.41 Z-2.6 I0.0063 J-0.0108
G2 X10.6437 Y98.3992 Z-2.6333 I-0.0125 J0.0
G2 Y98.4208 Z-2.6667 I0.0062 J0.0108
G2 X10.6625 Y98.41 Z-2.7 I0.0063 J-0.0108
G2 X10.6437 Y98.3992 Z-2.7333 I-0.0125 J0.0
G2 Y98.4208 Z-2.7667 I0.0062 J0.0108
G2 X10.6625 Y98.41 Z-2.8 I0.0063 J-0.0108
G2 X10.6437 Y98.3992 Z-2.8333 I-0.0125 J0.0
G2 Y98.4208 Z-2.8667 I0.0062 J0.0108
G2 X10.6625 Y98.41 Z-2.9 I0.0063 J-0.0108
G2 X10.6437 Y98.3992 Z-2.9333 I-0.0125 J0.0
G2 Y98.4208 Z-2.9667 I0.0062 J0.0108
G2 X10.6625 Y98.41 Z-3.0 I0.0063 J-0.0108
G2 X10.6437 Y98.3992 Z-3.0333 I-0.0125 J0.0
G2 Y98.4208 Z-3.0667 I0.0062 J0.0108
G2 X10.6625 Y98.41 Z-3.1 I0.0063 J-0.0108
G2 X10.6437 Y98.3992 Z-3.1333 I-0.0125 J0.0
G2 Y98.4208 Z-3.1667 I0.0063 J0.0108
G2 X10.6625 Y98.41 Z-3.2 I0.0062 J-0.0108
G2 X10.6437 Y98.3992 I-0.0125 J0.0
G2 Y98.4208 I0.0063 J0.0108
G2 X10.6625 Y98.41 I0.0062 J-0.0108
G0 Z3.0
G0 X11.2225 Y79.83
G0 Z0.01
G1 F1000.0 Z0.0
G2 F2000.0 X11.2038 Y79.8192 Z-0.0333 I-0.0125 J0.0
G2 Y79.8408 Z-0.0667 I0.0062 J0.0108
G2 X11.2225 Y79.83 Z-0.1 I0.0063 J-0.0108
G2 X11.2038 Y79.8192 Z-0.1333 I-0.0125 J0.0
G2 Y79.8408 Z-0.1667 I0.0062 J0.0108
G2 X11.2225 Y79.83 Z-0.2 I0.0063 J-0.0108
G2 X11.2038 Y79.8192 Z-0.2333 I-0.0125 J0.0
G2 Y79.8408 Z-0.2667 I0.0062 J0.0108
G2 X11.2225 Y79.83 Z-0.3 I0.0063 J-0.0108
G2 X11.2038 Y79.8192 Z-0.3333 I-0.0125 J0.0
G2 Y79.8408 Z-0.3667 I0.0062 J0.0108
G2 X11.2225 Y79.83 Z-0.4 I0.0063 J-0.0108
G2 X11.2038 Y79.8192 Z-0.4333 I-0.0125 J0.0
G2 Y79.8408 Z-0.4667 I0.0062 J0.0108
G2 X11.2225 Y79.83 Z-0.5 I0.0063 J-0.0108
G2 X11.2038 Y79.8192 Z-0.5333 I-0.0125 J0.0
G2 Y79.8408 Z-0.5667 I0.0062 J0.0108
G2 X11.2225 Y79.83 Z-0.6 I0.0063 J-0.0108
G2 X11.2038 Y79.8192 Z-0.6333 I-0.0125 J0.0
G2 Y79.8408 Z-0.6667 I0.0062 J0.0108
G2 X11.2225 Y79.83 Z-0.7 I0.0063 J-0.0108
G2 X11.2038 Y79.8192 Z-0.7333 I-0.0125 J0.0
G2 Y79.8408 Z-0.7667 I0.0062 J0.0108
G2 X11.2225 Y79.83 Z-0.8 I0.0063 J-0.0108
G2 X11.2038 Y79.8192 Z-0.8333 I-0.0125 J0.0
G2 Y79.8408 Z-0.8667 I0.0062 J0.0108
G2 X11.2225 Y79.83 Z-0.9 I0.0063 J-0.0108
G2 X11.2038 Y79.8192 Z-0.9333 I-0.0125 J0.0
G2 Y79.8408 Z-0.9667 I0.0062 J0.0108
G2 X11.2225 Y79.83 Z-1.0 I0.0063 J-0.0108
G2 X11.2038 Y79.8192 Z-1.0333 I-0.0125 J0.0
G2 Y79.8408 Z-1.0667 I0.0062 J0.0108
G2 X11.2225 Y79.83 Z-1.1 I0.0063 J-0.0108
G2 X11.2038 Y79.8192 Z-1.1333 I-0.0125 J0.0
G2 Y79.8408 Z-1.1667 I0.0062 J0.0108
G2 X11.2225 Y79.83 Z-1.2 I0.0063 J-0.0108
G2 X11.2038 Y79.8192 Z-1.2333 I-0.0125 J0.0
G2 Y79.8408 Z-1.2667 I0.0062 J0.0108
G2 X11.2225 Y79.83 Z-1.3 I0.0063 J-0.0108
G2 X11.2038 Y79.8192 Z-1.3333 I-0.0125 J0.0
G2 Y79.8408 Z-1.3667 I0.0062 J0.0108
G2 X11.2225 Y79.83 Z-1.4 I0.0063 J-0.0108
G2 X11.2038 Y79.8192 Z-1.4333 I-0.0125 J0.0
G2 Y79.8408 Z-1.4667 I0.0062 J0.0108
G2 X11.2225 Y79.83 Z-1.5 I0.0063 J-0.0108
G2 X11.2038 Y79.8192 Z-1.5333 I-0.0125 J0.0
G2 Y79.8408 Z-1.5667 I0.0062 J0.0108
G2 X11.2225 Y79.83 Z-1.6 I0.0063 J-0.0108
G2 X11.2038 Y79.8192 Z-1.6333 I-0.0125 J0.0
G2 Y79.8408 Z-1.6667 I0.0062 J0.0108
G2 X11.2225 Y79.83 Z-1.7 I0.0063 J-0.0108
G2 X11.2038 Y79.8192 Z-1.7333 I-0.0125 J0.0
G2 Y79.8408 Z-1.7667 I0.0062 J0.0108
G2 X11.2225 Y79.83 Z-1.8 I0.0063 J-0.0108
G2 X11.2038 Y79.8192 Z-1.8333 I-0.0125 J0.0
G2 Y79.8408 Z-1.8667 I0.0062 J0.0108
G2 X11.2225 Y79.83 Z-1.9 I0.0063 J-0.0108
G2 X11.2038 Y79.8192 Z-1.9333 I-0.0125 J0.0
G2 Y79.8408 Z-1.9667 I0.0062 J0.0108
G2 X11.2225 Y79.83 Z-2.0 I0.0063 J-0.0108
G2 X11.2038 Y79.8192 Z-2.0333 I-0.0125 J0.0
G2 Y79.8408 Z-2.0667 I0.0062 J0.0108
G2 X11.2225 Y79.83 Z-2.1 I0.0063 J-0.0108
G2 X11.2038 Y79.8192 Z-2.1333 I-0.0125 J0.0
G2 Y79.8408 Z-2.1667 I0.0062 J0.0108
G2 X11.2225 Y79.83 Z-2.2 I0.0063 J-0.0108
G2 X11.2038 Y79.8192 Z-2.2333 I-0.0125 J0.0
G2 Y79.8408 Z-2.2667 I0.0062 J0.0108
G2 X11.2225 Y79.83 Z-2.3 I0.0063 J-0.0108
G2 X11.2038 Y79.8192 Z-2.3333 I-0.0125 J0.0
G2 Y79.8408 Z-2.3667 I0.0062 J0.0108
G2 X11.2225 Y79.83 Z-2.4 I0.0063 J-0.0108
G2 X11.2038 Y79.8192 Z-2.4333 I-0.0125 J0.0
G2 Y79.8408 Z-2.4667 I0.0062 J0.0108
G2 X11.2225 Y79.83 Z-2.5 I0.0063 J-0.0108
G2 X11.2038 Y79.8192 Z-2.5333 I-0.0125 J0.0
G2 Y79.8408 Z-2.5667 I0.0062 J0.0108
G2 X11.2225 Y79.83 Z-2.6 I0.0063 J-0.0108
G2 X11.2038 Y79.8192 Z-2.6333 I-0.0125 J0.0
G2 Y79.8408 Z-2.6667 I0.0062 J0.0108
G2 X11.2225 Y79.83 Z-2.7 I0.0063 J-0.0108
G2 X11.2038 Y79.8192 Z-2.7333 I-0.0125 J0.0
G2 Y79.8408 Z-2.7667 I0.0062 J0.0108
G2 X11.2225 Y79.83 Z-2.8 I0.0062 J-0.0108
G2 X11.2038 Y79.8192 Z-2.8333 I-0.0125 J0.0
G2 Y79.8408 Z-2.8667 I0.0062 J0.0108
G2 X11.2225 Y79.83 Z-2.9 I0.0062 J-0.0108
G2 X11.2038 Y79.8192 Z-2.9333 I-0.0125 J0.0
G2 Y79.8408 Z-2.9667 I0.0062 J0.0108
G2 X11.2225 Y79.83 Z-3.0 I0.0062 J-0.0108
G2 X11.2038 Y79.8192 Z-3.0333 I-0.0125 J0.0
G2 Y79.8408 Z-3.0667 I0.0062 J0.0108
G2 X11.2225 Y79.83 Z-3.1 I0.0062 J-0.0108
G2 X11.2038 Y79.8192 Z-3.1333 I-0.0125 J0.0
G2 Y79.8408 Z-3.1667 I0.0063 J0.0108
G2 X11.2225 Y79.83 Z-3.2 I0.0062 J-0.0108
G2 X11.2038 Y79.8192 I-0.0125 J0.0
G2 Y79.8408 I0.0063 J0.0108
G2 X11.2225 Y79.83 I0.0062 J-0.0108
G0 Z3.0
G0 X11.0625 Y57.02
G0 Z0.01
G1 F1000.0 Z0.0
G2 F2000.0 X11.0438 Y57.0092 Z-0.0333 I-0.0125 J0.0
G2 Y57.0308 Z-0.0667 I0.0063 J0.0108
G2 X11.0625 Y57.02 Z-0.1 I0.0062 J-0.0108
G2 X11.0438 Y57.0092 Z-0.1333 I-0.0125 J0.0
G2 Y57.0308 Z-0.1667 I0.0063 J0.0108
G2 X11.0625 Y57.02 Z-0.2 I0.0062 J-0.0108
G2 X11.0438 Y57.0092 Z-0.2333 I-0.0125 J0.0
G2 Y57.0308 Z-0.2667 I0.0063 J0.0108
G2 X11.0625 Y57.02 Z-0.3 I0.0062 J-0.0108
G2 X11.0438 Y57.0092 Z-0.3333 I-0.0125 J0.0
G2 Y57.0308 Z-0.3667 I0.0063 J0.0108
G2 X11.0625 Y57.02 Z-0.4 I0.0062 J-0.0108
G2 X11.0438 Y57.0092 Z-0.4333 I-0.0125 J0.0
G2 Y57.0308 Z-0.4667 I0.0063 J0.0108
G2 X11.0625 Y57.02 Z-0.5 I0.0062 J-0.0108
G2 X11.0438 Y57.0092 Z-0.5333 I-0.0125 J0.0
G2 Y57.0308 Z-0.5667 I0.0063 J0.0108
G2 X11.0625 Y57.02 Z-0.6 I0.0062 J-0.0108
G2 X11.0438 Y57.0092 Z-0.6333 I-0.0125 J0.0
G2 Y57.0308 Z-0.6667 I0.0063 J0.0108
G2 X11.0625 Y57.02 Z-0.7 I0.0062 J-0.0108
G2 X11.0438 Y57.0092 Z-0.7333 I-0.0125 J0.0
G2 Y57.0308 Z-0.7667 I0.0063 J0.0108
G2 X11.0625 Y57.02 Z-0.8 I0.0062 J-0.0108
G2 X11.0438 Y57.0092 Z-0.8333 I-0.0125 J0.0
G2 Y57.0308 Z-0.8667 I0.0063 J0.0108
G2 X11.0625 Y57.02 Z-0.9 I0.0062 J-0.0108
G2 X11.0438 Y57.0092 Z-0.9333 I-0.0125 J0.0
G2 Y57.0308 Z-0.9667 I0.0063 J0.0108
G2 X11.0625 Y57.02 Z-1.0 I0.0062 J-0.0108
G2 X11.0438 Y57.0092 Z-1.0333 I-0.0125 J0.0
G2 Y57.0308 Z-1.0667 I0.0063 J0.0108
G2 X11.0625 Y57.02 Z-1.1 I0.0062 J-0.0108
G2 X11.0438 Y57.0092 Z-1.1333 I-0.0125 J0.0
G2 Y57.0308 Z-1.1667 I0.0063 J0.0108
G2 X11.0625 Y57.02 Z-1.2 I0.0062 J-0.0108
G2 X11.0438 Y57.0092 Z-1.2333 I-0.0125 J0.0
G2 Y57.0308 Z-1.2667 I0.0063 J0.0108
G2 X11.0625 Y57.02 Z-1.3 I0.0062 J-0.0108
G2 X11.0438 Y57.0092 Z-1.3333 I-0.0125 J0.0
G2 Y57.0308 Z-1.3667 I0.0063 J0.0108
G2 X11.0625 Y57.02 Z-1.4 I0.0062 J-0.0108
G2 X11.0438 Y57.0092 Z-1.4333 I-0.0125 J0.0
G2 Y57.0308 Z-1.4667 I0.0063 J0.0108
G2 X11.0625 Y57.02 Z-1.5 I0.0062 J-0.0108
G2 X11.0438 Y57.0092 Z-1.5333 I-0.0125 J0.0
G2 Y57.0308 Z-1.5667 I0.0063 J0.0108
G2 X11.0625 Y57.02 Z-1.6 I0.0062 J-0.0108
G2 X11.0438 Y57.0092 Z-1.6333 I-0.0125 J0.0
G2 Y57.0308 Z-1.6667 I0.0063 J0.0108
G2 X11.0625 Y57.02 Z-1.7 I0.0062 J-0.0108
G2 X11.0438 Y57.0092 Z-1.7333 I-0.0125 J0.0
G2 Y57.0308 Z-1.7667 I0.0063 J0.0108
G2 X11.0625 Y57.02 Z-1.8 I0.0062 J-0.0108
G2 X11.0438 Y57.0092 Z-1.8333 I-0.0125 J0.0
G2 Y57.0308 Z-1.8667 I0.0063 J0.0108
G2 X11.0625 Y57.02 Z-1.9 I0.0062 J-0.0108
G2 X11.0438 Y57.0092 Z-1.9333 I-0.0125 J0.0
G2 Y57.0308 Z-1.9667 I0.0063 J0.0108
G2 X11.0625 Y57.02 Z-2.0 I0.0062 J-0.0108
G2 X11.0438 Y57.0092 Z-2.0333 I-0.0125 J0.0
G2 Y57.0308 Z-2.0667 I0.0063 J0.0108
G2 X11.0625 Y57.02 Z-2.1 I0.0062 J-0.0108
G2 X11.0438 Y57.0092 Z-2.1333 I-0.0125 J0.0
G2 Y57.0308 Z-2.1667 I0.0063 J0.0108
G2 X11.0625 Y57.02 Z-2.2 I0.0062 J-0.0108
G2 X11.0438 Y57.0092 Z-2.2333 I-0.0125 J0.0
G2 Y57.0308 Z-2.2667 I0.0063 J0.0108
G2 X11.0625 Y57.02 Z-2.3 I0.0062 J-0.0108
G2 X11.0438 Y57.0092 Z-2.3333 I-0.0125 J0.0
G2 Y57.0308 Z-2.3667 I0.0063 J0.0108
G2 X11.0625 Y57.02 Z-2.4 I0.0062 J-0.0108
G2 X11.0438 Y57.0092 Z-2.4333 I-0.0125 J0.0
G2 Y57.0308 Z-2.4667 I0.0063 J0.0108
G2 X11.0625 Y57.02 Z-2.5 I0.0062 J-0.0108
G2 X11.0438 Y57.0092 Z-2.5333 I-0.0125 J0.0
G2 Y57.0308 Z-2.5667 I0.0063 J0.0108
G2 X11.0625 Y57.02 Z-2.6 I0.0062 J-0.0108
G2 X11.0438 Y57.0092 Z-2.6333 I-0.0125 J0.0
G2 Y57.0308 Z-2.6667 I0.0063 J0.0108
G2 X11.0625 Y57.02 Z-2.7 I0.0062 J-0.0108
G2 X11.0438 Y57.0092 Z-2.7333 I-0.0125 J0.0
G2 Y57.0308 Z-2.7667 I0.0063 J0.0108
G2 X11.0625 Y57.02 Z-2.8 I0.0062 J-0.0108
G2 X11.0438 Y57.0092 Z-2.8333 I-0.0125 J0.0
G2 Y57.0308 Z-2.8667 I0.0063 J0.0108
G2 X11.0625 Y57.02 Z-2.9 I0.0062 J-0.0108
G2 X11.0438 Y57.0092 Z-2.9333 I-0.0125 J0.0
G2 Y57.0308 Z-2.9667 I0.0063 J0.0108
G2 X11.0625 Y57.02 Z-3.0 I0.0062 J-0.0108
G2 X11.0438 Y57.0092 Z-3.0333 I-0.0125 J0.0
G2 Y57.0308 Z-3.0667 I0.0063 J0.0108
G2 X11.0625 Y57.02 Z-3.1 I0.0062 J-0.0108
G2 X11.0438 Y57.0092 Z-3.1333 I-0.0125 J0.0
G2 Y57.0308 Z-3.1667 I0.0063 J0.0108
G2 X11.0625 Y57.02 Z-3.2 I0.0062 J-0.0108
G2 X11.0438 Y57.0092 I-0.0125 J0.0
G2 Y57.0308 I0.0063 J0.0108
G2 X11.0625 Y57.02 I0.0062 J-0.0108
G0 Z3.0
G0 X10.1425 Y38.56
G0 Z0.01
G1 F1000.0 Z0.0
G2 F2000.0 X10.1238 Y38.5492 Z-0.0333 I-0.0125 J0.0
G2 Y38.5708 Z-0.0667 I0.0063 J0.0108
G2 X10.1425 Y38.56 Z-0.1 I0.0062 J-0.0108
G2 X10.1238 Y38.5492 Z-0.1333 I-0.0125 J0.0
G2 Y38.5708 Z-0.1667 I0.0063 J0.0108
G2 X10.1425 Y38.56 Z-0.2 I0.0062 J-0.0108
G2 X10.1238 Y38.5492 Z-0.2333 I-0.0125 J0.0
G2 Y38.5708 Z-0.2667 I0.0063 J0.0108
G2 X10.1425 Y38.56 Z-0.3 I0.0062 J-0.0108
G2 X10.1238 Y38.5492 Z-0.3333 I-0.0125 J0.0
G2 Y38.5708 Z-0.3667 I0.0063 J0.0108
G2 X10.1425 Y38.56 Z-0.4 I0.0062 J-0.0108
G2 X10.1238 Y38.5492 Z-0.4333 I-0.0125 J0.0
G2 Y38.5708 Z-0.4667 I0.0063 J0.0108
G2 X10.1425 Y38.56 Z-0.5 I0.0062 J-0.0108
G2 X10.1238 Y38.5492 Z-0.5333 I-0.0125 J0.0
G2 Y38.5708 Z-0.5667 I0.0063 J0.0108
G2 X10.1425 Y38.56 Z-0.6 I0.0062 J-0.0108
G2 X10.1238 Y38.5492 Z-0.6333 I-0.0125 J0.0
G2 Y38.5708 Z-0.6667 I0.0063 J0.0108
G2 X10.1425 Y38.56 Z-0.7 I0.0062 J-0.0108
G2 X10.1238 Y38.5492 Z-0.7333 I-0.0125 J0.0
G2 Y38.5708 Z-0.7667 I0.0063 J0.0108
G2 X10.1425 Y38.56 Z-0.8 I0.0062 J-0.0108
G2 X10.1238 Y38.5492 Z-0.8333 I-0.0125 J0.0
G2 Y38.5708 Z-0.8667 I0.0063 J0.0108
G2 X10.1425 Y38.56 Z-0.9 I0.0062 J-0.0108
G2 X10.1238 Y38.5492 Z-0.9333 I-0.0125 J0.0
G2 Y38.5708 Z-0.9667 I0.0063 J0.0108
G2 X10.1425 Y38.56 Z-1.0 I0.0062 J-0.0108
G2 X10.1238 Y38.5492 Z-1.0333 I-0.0125 J0.0
G2 Y38.5708 Z-1.0667 I0.0063 J0.0108
G2 X10.1425 Y38.56 Z-1.1 I0.0062 J-0.0108
G2 X10.1238 Y38.5492 Z-1.1333 I-0.0125 J0.0
G2 Y38.5708 Z-1.1667 I0.0063 J0.0108
G2 X10.1425 Y38.56 Z-1.2 I0.0062 J-0.0108
G2 X10.1238 Y38.5492 Z-1.2333 I-0.0125 J0.0
G2 Y38.5708 Z-1.2667 I0.0063 J0.0108
G2 X10.1425 Y38.56 Z-1.3 I0.0062 J-0.0108
G2 X10.1238 Y38.5492 Z-1.3333 I-0.0125 J0.0
G2 Y38.5708 Z-1.3667 I0.0063 J0.0108
G2 X10.1425 Y38.56 Z-1.4 I0.0062 J-0.0108
G2 X10.1238 Y38.5492 Z-1.4333 I-0.0125 J0.0
G2 Y38.5708 Z-1.4667 I0.0063 J0.0108
G2 X10.1425 Y38.56 Z-1.5 I0.0062 J-0.0108
G2 X10.1238 Y38.5492 Z-1.5333 I-0.0125 J0.0
G2 Y38.5708 Z-1.5667 I0.0063 J0.0108
G2 X10.1425 Y38.56 Z-1.6 I0.0062 J-0.0108
G2 X10.1238 Y38.5492 Z-1.6333 I-0.0125 J0.0
G2 Y38.5708 Z-1.6667 I0.0063 J0.0108
G2 X10.1425 Y38.56 Z-1.7 I0.0062 J-0.0108
G2 X10.1238 Y38.5492 Z-1.7333 I-0.0125 J0.0
G2 Y38.5708 Z-1.7667 I0.0063 J0.0108
G2 X10.1425 Y38.56 Z-1.8 I0.0062 J-0.0108
G2 X10.1238 Y38.5492 Z-1.8333 I-0.0125 J0.0
G2 Y38.5708 Z-1.8667 I0.0063 J0.0108
G2 X10.1425 Y38.56 Z-1.9 I0.0062 J-0.0108
G2 X10.1238 Y38.5492 Z-1.9333 I-0.0125 J0.0
G2 Y38.5708 Z-1.9667 I0.0063 J0.0108
G2 X10.1425 Y38.56 Z-2.0 I0.0062 J-0.0108
G2 X10.1238 Y38.5492 Z-2.0333 I-0.0125 J0.0
G2 Y38.5708 Z-2.0667 I0.0063 J0.0108
G2 X10.1425 Y38.56 Z-2.1 I0.0062 J-0.0108
G2 X10.1238 Y38.5492 Z-2.1333 I-0.0125 J0.0
G2 Y38.5708 Z-2.1667 I0.0063 J0.0108
G2 X10.1425 Y38.56 Z-2.2 I0.0062 J-0.0108
G2 X10.1238 Y38.5492 Z-2.2333 I-0.0125 J0.0
G2 Y38.5708 Z-2.2667 I0.0063 J0.0108
G2 X10.1425 Y38.56 Z-2.3 I0.0062 J-0.0108
G2 X10.1238 Y38.5492 Z-2.3333 I-0.0125 J0.0
G2 Y38.5708 Z-2.3667 I0.0063 J0.0108
G2 X10.1425 Y38.56 Z-2.4 I0.0062 J-0.0108
G2 X10.1238 Y38.5492 Z-2.4333 I-0.0125 J0.0
G2 Y38.5708 Z-2.4667 I0.0063 J0.0108
G2 X10.1425 Y38.56 Z-2.5 I0.0062 J-0.0108
G2 X10.1238 Y38.5492 Z-2.5333 I-0.0125 J0.0
G2 Y38.5708 Z-2.5667 I0.0063 J0.0108
G2 X10.1425 Y38.56 Z-2.6 I0.0062 J-0.0108
G2 X10.1238 Y38.5492 Z-2.6333 I-0.0125 J0.0
G2 Y38.5708 Z-2.6667 I0.0063 J0.0108
G2 X10.1425 Y38.56 Z-2.7 I0.0062 J-0.0108
G2 X10.1238 Y38.5492 Z-2.7333 I-0.0125 J0.0
G2 Y38.5708 Z-2.7667 I0.0063 J0.0108
G2 X10.1425 Y38.56 Z-2.8 I0.0062 J-0.0108
G2 X10.1238 Y38.5492 Z-2.8333 I-0.0125 J0.0
G2 Y38.5708 Z-2.8667 I0.0063 J0.0108
G2 X10.1425 Y38.56 Z-2.9 I0.0062 J-0.0108
G2 X10.1238 Y38.5492 Z-2.9333 I-0.0125 J0.0
G2 Y38.5708 Z-2.9667 I0.0063 J0.0108
G2 X10.1425 Y38.56 Z-3.0 I0.0062 J-0.0108
G2 X10.1238 Y38.5492 Z-3.0333 I-0.0125 J0.0
G2 Y38.5708 Z-3.0667 I0.0063 J0.0108
G2 X10.1425 Y38.56 Z-3.1 I0.0062 J-0.0108
G2 X10.1238 Y38.5492 Z-3.1333 I-0.0125 J0.0
G2 Y38.5708 Z-3.1667 I0.0063 J0.0108
G2 X10.1425 Y38.56 Z-3.2 I0.0062 J-0.0108
G2 X10.1238 Y38.5492 I-0.0125 J0.0
G2 Y38.5708 I0.0063 J0.0108
G2 X10.1425 Y38.56 I0.0062 J-0.0108
G0 Z3.0
G0 X10.2125 Y26.56
G0 Z0.01
G1 F1000.0 Z0.0
G2 F2000.0 X10.1937 Y26.5492 Z-0.0333 I-0.0125 J0.0
G2 Y26.5708 Z-0.0667 I0.0062 J0.0108
G2 X10.2125 Y26.56 Z-0.1 I0.0062 J-0.0108
G2 X10.1937 Y26.5492 Z-0.1333 I-0.0125 J0.0
G2 Y26.5708 Z-0.1667 I0.0062 J0.0108
G2 X10.2125 Y26.56 Z-0.2 I0.0062 J-0.0108
G2 X10.1937 Y26.5492 Z-0.2333 I-0.0125 J0.0
G2 Y26.5708 Z-0.2667 I0.0062 J0.0108
G2 X10.2125 Y26.56 Z-0.3 I0.0062 J-0.0108
G2 X10.1937 Y26.5492 Z-0.3333 I-0.0125 J0.0
G2 Y26.5708 Z-0.3667 I0.0062 J0.0108
G2 X10.2125 Y26.56 Z-0.4 I0.0062 J-0.0108
G2 X10.1937 Y26.5492 Z-0.4333 I-0.0125 J0.0
G2 Y26.5708 Z-0.4667 I0.0062 J0.0108
G2 X10.2125 Y26.56 Z-0.5 I0.0062 J-0.0108
G2 X10.1937 Y26.5492 Z-0.5333 I-0.0125 J0.0
G2 Y26.5708 Z-0.5667 I0.0062 J0.0108
G2 X10.2125 Y26.56 Z-0.6 I0.0062 J-0.0108
G2 X10.1937 Y26.5492 Z-0.6333 I-0.0125 J0.0
G2 Y26.5708 Z-0.6667 I0.0062 J0.0108
G2 X10.2125 Y26.56 Z-0.7 I0.0062 J-0.0108
G2 X10.1937 Y26.5492 Z-0.7333 I-0.0125 J0.0
G2 Y26.5708 Z-0.7667 I0.0062 J0.0108
G2 X10.2125 Y26.56 Z-0.8 I0.0062 J-0.0108
G2 X10.1937 Y26.5492 Z-0.8333 I-0.0125 J0.0
G2 Y26.5708 Z-0.8667 I0.0062 J0.0108
G2 X10.2125 Y26.56 Z-0.9 I0.0062 J-0.0108
G2 X10.1937 Y26.5492 Z-0.9333 I-0.0125 J0.0
G2 Y26.5708 Z-0.9667 I0.0062 J0.0108
G2 X10.2125 Y26.56 Z-1.0 I0.0062 J-0.0108
G2 X10.1937 Y26.5492 Z-1.0333 I-0.0125 J0.0
G2 Y26.5708 Z-1.0667 I0.0062 J0.0108
G2 X10.2125 Y26.56 Z-1.1 I0.0062 J-0.0108
G2 X10.1937 Y26.5492 Z-1.1333 I-0.0125 J0.0
G2 Y26.5708 Z-1.1667 I0.0062 J0.0108
G2 X10.2125 Y26.56 Z-1.2 I0.0063 J-0.0108
G2 X10.1937 Y26.5492 Z-1.2333 I-0.0125 J0.0
G2 Y26.5708 Z-1.2667 I0.0062 J0.0108
G2 X10.2125 Y26.56 Z-1.3 I0.0063 J-0.0108
G2 X10.1937 Y26.5492 Z-1.3333 I-0.0125 J0.0
G2 Y26.5708 Z-1.3667 I0.0062 J0.0108
G2 X10.2125 Y26.56 Z-1.4 I0.0063 J-0.0108
G2 X10.1937 Y26.5492 Z-1.4333 I-0.0125 J0.0
G2 Y26.5708 Z-1.4667 I0.0062 J0.0108
G2 X10.2125 Y26.56 Z-1.5 I0.0063 J-0.0108
G2 X10.1937 Y26.5492 Z-1.5333 I-0.0125 J0.0
G2 Y26.5708 Z-1.5667 I0.0062 J0.0108
G2 X10.2125 Y26.56 Z-1.6 I0.0063 J-0.0108
G2 X10.1937 Y26.5492 Z-1.6333 I-0.0125 J0.0
G2 Y26.5708 Z-1.6667 I0.0062 J0.0108
G2 X10.2125 Y26.56 Z-1.7 I0.0063 J-0.0108
G2 X10.1937 Y26.5492 Z-1.7333 I-0.0125 J0.0
G2 Y26.5708 Z-1.7667 I0.0062 J0.0108
G2 X10.2125 Y26.56 Z-1.8 I0.0063 J-0.0108
G2 X10.1937 Y26.5492 Z-1.8333 I-0.0125 J0.0
G2 Y26.5708 Z-1.8667 I0.0062 J0.0108
G2 X10.2125 Y26.56 Z-1.9 I0.0063 J-0.0108
G2 X10.1937 Y26.5492 Z-1.9333 I-0.0125 J0.0
G2 Y26.5708 Z-1.9667 I0.0062 J0.0108
G2 X10.2125 Y26.56 Z-2.0 I0.0063 J-0.0108
G2 X10.1937 Y26.5492 Z-2.0333 I-0.0125 J0.0
G2 Y26.5708 Z-2.0667 I0.0062 J0.0108
G2 X10.2125 Y26.56 Z-2.1 I0.0063 J-0.0108
G2 X10.1937 Y26.5492 Z-2.1333 I-0.0125 J0.0
G2 Y26.5708 Z-2.1667 I0.0062 J0.0108
G2 X10.2125 Y26.56 Z-2.2 I0.0063 J-0.0108
G2 X10.1937 Y26.5492 Z-2.2333 I-0.0125 J0.0
G2 Y26.5708 Z-2.2667 I0.0062 J0.0108
G2 X10.2125 Y26.56 Z-2.3 I0.0062 J-0.0108
G2 X10.1937 Y26.5492 Z-2.3333 I-0.0125 J0.0
G2 Y26.5708 Z-2.3667 I0.0062 J0.0108
G2 X10.2125 Y26.56 Z-2.4 I0.0062 J-0.0108
G2 X10.1937 Y26.5492 Z-2.4333 I-0.0125 J0.0
G2 Y26.5708 Z-2.4667 I0.0062 J0.0108
G2 X10.2125 Y26.56 Z-2.5 I0.0062 J-0.0108
G2 X10.1937 Y26.5492 Z-2.5333 I-0.0125 J0.0
G2 Y26.5708 Z-2.5667 I0.0062 J0.0108
G2 X10.2125 Y26.56 Z-2.6 I0.0062 J-0.0108
G2 X10.1937 Y26.5492 Z-2.6333 I-0.0125 J0.0
G2 Y26.5708 Z-2.6667 I0.0063 J0.0108
G2 X10.2125 Y26.56 Z-2.7 I0.0062 J-0.0108
G2 X10.1937 Y26.5492 Z-2.7333 I-0.0125 J0.0
G2 Y26.5708 Z-2.7667 I0.0063 J0.0108
G2 X10.2125 Y26.56 Z-2.8 I0.0062 J-0.0108
G2 X10.1937 Y26.5492 Z-2.8333 I-0.0125 J0.0
G2 Y26.5708 Z-2.8667 I0.0063 J0.0108
G2 X10.2125 Y26.56 Z-2.9 I0.0062 J-0.0108
G2 X10.1937 Y26.5492 Z-2.9333 I-0.0125 J0.0
G2 Y26.5708 Z-2.9667 I0.0063 J0.0108
G2 X10.2125 Y26.56 Z-3.0 I0.0062 J-0.0108
G2 X10.1937 Y26.5492 Z-3.0333 I-0.0125 J0.0
G2 Y26.5708 Z-3.0667 I0.0063 J0.0108
G2 X10.2125 Y26.56 Z-3.1 I0.0062 J-0.0108
G2 X10.1937 Y26.5492 Z-3.1333 I-0.0125 J0.0
G2 Y26.5708 Z-3.1667 I0.0063 J0.0108
G2 X10.2125 Y26.56 Z-3.2 I0.0062 J-0.0108
G2 X10.1937 Y26.5492 I-0.0125 J0.0
G2 Y26.5708 I0.0063 J0.0108
G2 X10.2125 Y26.56 I0.0062 J-0.0108
G0 Z3.0
G0 X10.1425 Y14.56
G0 Z0.01
G1 F1000.0 Z0.0
G2 F2000.0 X10.1238 Y14.5492 Z-0.0333 I-0.0125 J0.0
G2 Y14.5708 Z-0.0667 I0.0062 J0.0108
G2 X10.1425 Y14.56 Z-0.1 I0.0062 J-0.0108
G2 X10.1238 Y14.5492 Z-0.1333 I-0.0125 J0.0
G2 Y14.5708 Z-0.1667 I0.0062 J0.0108
G2 X10.1425 Y14.56 Z-0.2 I0.0062 J-0.0108
G2 X10.1238 Y14.5492 Z-0.2333 I-0.0125 J0.0
G2 Y14.5708 Z-0.2667 I0.0062 J0.0108
G2 X10.1425 Y14.56 Z-0.3 I0.0062 J-0.0108
G2 X10.1238 Y14.5492 Z-0.3333 I-0.0125 J0.0
G2 Y14.5708 Z-0.3667 I0.0062 J0.0108
G2 X10.1425 Y14.56 Z-0.4 I0.0062 J-0.0108
G2 X10.1238 Y14.5492 Z-0.4333 I-0.0125 J0.0
G2 Y14.5708 Z-0.4667 I0.0062 J0.0108
G2 X10.1425 Y14.56 Z-0.5 I0.0062 J-0.0108
G2 X10.1238 Y14.5492 Z-0.5333 I-0.0125 J0.0
G2 Y14.5708 Z-0.5667 I0.0062 J0.0108
G2 X10.1425 Y14.56 Z-0.6 I0.0062 J-0.0108
G2 X10.1238 Y14.5492 Z-0.6333 I-0.0125 J0.0
G2 Y14.5708 Z-0.6667 I0.0062 J0.0108
G2 X10.1425 Y14.56 Z-0.7 I0.0062 J-0.0108
G2 X10.1238 Y14.5492 Z-0.7333 I-0.0125 J0.0
G2 Y14.5708 Z-0.7667 I0.0062 J0.0108
G2 X10.1425 Y14.56 Z-0.8 I0.0062 J-0.0108
G2 X10.1238 Y14.5492 Z-0.8333 I-0.0125 J0.0
G2 Y14.5708 Z-0.8667 I0.0062 J0.0108
G2 X10.1425 Y14.56 Z-0.9 I0.0062 J-0.0108
G2 X10.1238 Y14.5492 Z-0.9333 I-0.0125 J0.0
G2 Y14.5708 Z-0.9667 I0.0062 J0.0108
G2 X10.1425 Y14.56 Z-1.0 I0.0062 J-0.0108
G2 X10.1238 Y14.5492 Z-1.0333 I-0.0125 J0.0
G2 Y14.5708 Z-1.0667 I0.0062 J0.0108
G2 X10.1425 Y14.56 Z-1.1 I0.0063 J-0.0108
G2 X10.1238 Y14.5492 Z-1.1333 I-0.0125 J0.0
G2 Y14.5708 Z-1.1667 I0.0062 J0.0108
G2 X10.1425 Y14.56 Z-1.2 I0.0063 J-0.0108
G2 X10.1238 Y14.5492 Z-1.2333 I-0.0125 J0.0
G2 Y14.5708 Z-1.2667 I0.0062 J0.0108
G2 X10.1425 Y14.56 Z-1.3 I0.0063 J-0.0108
G2 X10.1238 Y14.5492 Z-1.3333 I-0.0125 J0.0
G2 Y14.5708 Z-1.3667 I0.0062 J0.0108
G2 X10.1425 Y14.56 Z-1.4 I0.0063 J-0.0108
G2 X10.1238 Y14.5492 Z-1.4333 I-0.0125 J0.0
G2 Y14.5708 Z-1.4667 I0.0062 J0.0108
G2 X10.1425 Y14.56 Z-1.5 I0.0063 J-0.0108
G2 X10.1238 Y14.5492 Z-1.5333 I-0.0125 J0.0
G2 Y14.5708 Z-1.5667 I0.0062 J0.0108
G2 X10.1425 Y14.56 Z-1.6 I0.0063 J-0.0108
G2 X10.1238 Y14.5492 Z-1.6333 I-0.0125 J0.0
G2 Y14.5708 Z-1.6667 I0.0062 J0.0108
G2 X10.1425 Y14.56 Z-1.7 I0.0063 J-0.0108
G2 X10.1238 Y14.5492 Z-1.7333 I-0.0125 J0.0
G2 Y14.5708 Z-1.7667 I0.0062 J0.0108
G2 X10.1425 Y14.56 Z-1.8 I0.0063 J-0.0108
G2 X10.1238 Y14.5492 Z-1.8333 I-0.0125 J0.0
G2 Y14.5708 Z-1.8667 I0.0062 J0.0108
G2 X10.1425 Y14.56 Z-1.9 I0.0063 J-0.0108
G2 X10.1238 Y14.5492 Z-1.9333 I-0.0125 J0.0
G2 Y14.5708 Z-1.9667 I0.0062 J0.0108
G2 X10.1425 Y14.56 Z-2.0 I0.0063 J-0.0108
G2 X10.1238 Y14.5492 Z-2.0333 I-0.0125 J0.0
G2 Y14.5708 Z-2.0667 I0.0062 J0.0108
G2 X10.1425 Y14.56 Z-2.1 I0.0063 J-0.0108
G2 X10.1238 Y14.5492 Z-2.1333 I-0.0125 J0.0
G2 Y14.5708 Z-2.1667 I0.0062 J0.0108
G2 X10.1425 Y14.56 Z-2.2 I0.0063 J-0.0108
G2 X10.1238 Y14.5492 Z-2.2333 I-0.0125 J0.0
G2 Y14.5708 Z-2.2667 I0.0062 J0.0108
G2 X10.1425 Y14.56 Z-2.3 I0.0062 J-0.0108
G2 X10.1238 Y14.5492 Z-2.3333 I-0.0125 J0.0
G2 Y14.5708 Z-2.3667 I0.0062 J0.0108
G2 X10.1425 Y14.56 Z-2.4 I0.0062 J-0.0108
G2 X10.1238 Y14.5492 Z-2.4333 I-0.0125 J0.0
G2 Y14.5708 Z-2.4667 I0.0062 J0.0108
G2 X10.1425 Y14.56 Z-2.5 I0.0062 J-0.0108
G2 X10.1238 Y14.5492 Z-2.5333 I-0.0125 J0.0
G2 Y14.5708 Z-2.5667 I0.0063 J0.0108
G2 X10.1425 Y14.56 Z-2.6 I0.0062 J-0.0108
G2 X10.1238 Y14.5492 Z-2.6333 I-0.0125 J0.0
G2 Y14.5708 Z-2.6667 I0.0063 J0.0108
G2 X10.1425 Y14.56 Z-2.7 I0.0062 J-0.0108
G2 X10.1238 Y14.5492 Z-2.7333 I-0.0125 J0.0
G2 Y14.5708 Z-2.7667 I0.0063 J0.0108
G2 X10.1425 Y14.56 Z-2.8 I0.0062 J-0.0108
G2 X10.1238 Y14.5492 Z-2.8333 I-0.0125 J0.0
G2 Y14.5708 Z-2.8667 I0.0063 J0.0108
G2 X10.1425 Y14.56 Z-2.9 I0.0062 J-0.0108
G2 X10.1238 Y14.5492 Z-2.9333 I-0.0125 J0.0
G2 Y14.5708 Z-2.9667 I0.0063 J0.0108
G2 X10.1425 Y14.56 Z-3.0 I0.0062 J-0.0108
G2 X10.1238 Y14.5492 Z-3.0333 I-0.0125 J0.0
G2 Y14.5708 Z-3.0667 I0.0063 J0.0108
G2 X10.1425 Y14.56 Z-3.1 I0.0062 J-0.0108
G2 X10.1238 Y14.5492 Z-3.1333 I-0.0125 J0.0
G2 Y14.5708 Z-3.1667 I0.0063 J0.0108
G2 X10.1425 Y14.56 Z-3.2 I0.0062 J-0.0108
G2 X10.1238 Y14.5492 I-0.0125 J0.0
G2 Y14.5708 I0.0063 J0.0108
G2 X10.1425 Y14.56 I0.0062 J-0.0108
G0 Z3.0
G0 X7.5125 Y3.0
G0 Z0.01
G1 F1000.0 Z0.0
G2 F2000.0 X7.4938 Y2.9892 Z-0.0333 I-0.0125 J0.0
G2 Y3.0108 Z-0.0667 I0.0062 J0.0108
G2 X7.5125 Y3.0 Z-0.1 I0.0063 J-0.0108
G2 X7.4938 Y2.9892 Z-0.1333 I-0.0125 J0.0
G2 Y3.0108 Z-0.1667 I0.0062 J0.0108
G2 X7.5125 Y3.0 Z-0.2 I0.0063 J-0.0108
G2 X7.4938 Y2.9892 Z-0.2333 I-0.0125 J0.0
G2 Y3.0108 Z-0.2667 I0.0062 J0.0108
G2 X7.5125 Y3.0 Z-0.3 I0.0063 J-0.0108
G2 X7.4938 Y2.9892 Z-0.3333 I-0.0125 J0.0
G2 Y3.0108 Z-0.3667 I0.0063 J0.0108
G2 X7.5125 Y3.0 Z-0.4 I0.0062 J-0.0108
G2 X7.4938 Y2.9892 Z-0.4333 I-0.0125 J0.0
G2 Y3.0108 Z-0.4667 I0.0063 J0.0108
G2 X7.5125 Y3.0 Z-0.5 I0.0062 J-0.0108
G2 X7.4938 Y2.9892 Z-0.5333 I-0.0125 J0.0
G2 Y3.0108 Z-0.5667 I0.0063 J0.0108
G2 X7.5125 Y3.0 Z-0.6 I0.0062 J-0.0108
G2 X7.4938 Y2.9892 Z-0.6333 I-0.0125 J0.0
G2 Y3.0108 Z-0.6667 I0.0062 J0.0108
G2 X7.5125 Y3.0 Z-0.7 I0.0063 J-0.0108
G2 X7.4938 Y2.9892 Z-0.7333 I-0.0125 J0.0
G2 Y3.0108 Z-0.7667 I0.0062 J0.0108
G2 X7.5125 Y3.0 Z-0.8 I0.0063 J-0.0108
G2 X7.4938 Y2.9892 Z-0.8333 I-0.0125 J0.0
G2 Y3.0108 Z-0.8667 I0.0062 J0.0108
G2 X7.5125 Y3.0 Z-0.9 I0.0063 J-0.0108
G2 X7.4938 Y2.9892 Z-0.9333 I-0.0125 J0.0
G2 Y3.0108 Z-0.9667 I0.0062 J0.0108
G2 X7.5125 Y3.0 Z-1.0 I0.0063 J-0.0108
G2 X7.4938 Y2.9892 Z-1.0333 I-0.0125 J0.0
G2 Y3.0108 Z-1.0667 I0.0062 J0.0108
G2 X7.5125 Y3.0 Z-1.1 I0.0063 J-0.0108
G2 X7.4938 Y2.9892 Z-1.1333 I-0.0125 J0.0
G2 Y3.0108 Z-1.1667 I0.0062 J0.0108
G2 X7.5125 Y3.0 Z-1.2 I0.0063 J-0.0108
G2 X7.4938 Y2.9892 Z-1.2333 I-0.0125 J0.0
G2 Y3.0108 Z-1.2667 I0.0062 J0.0108
G2 X7.5125 Y3.0 Z-1.3 I0.0063 J-0.0108
G2 X7.4938 Y2.9892 Z-1.3333 I-0.0125 J0.0
G2 Y3.0108 Z-1.3667 I0.0062 J0.0108
G2 X7.5125 Y3.0 Z-1.4 I0.0063 J-0.0108
G2 X7.4938 Y2.9892 Z-1.4333 I-0.0125 J0.0
G2 Y3.0108 Z-1.4667 I0.0062 J0.0108
G2 X7.5125 Y3.0 Z-1.5 I0.0063 J-0.0108
G2 X7.4938 Y2.9892 Z-1.5333 I-0.0125 J0.0
G2 Y3.0108 Z-1.5667 I0.0062 J0.0108
G2 X7.5125 Y3.0 Z-1.6 I0.0063 J-0.0108
G2 X7.4938 Y2.9892 Z-1.6333 I-0.0125 J0.0
G2 Y3.0108 Z-1.6667 I0.0062 J0.0108
G2 X7.5125 Y3.0 Z-1.7 I0.0063 J-0.0108
G2 X7.4938 Y2.9892 Z-1.7333 I-0.0125 J0.0
G2 Y3.0108 Z-1.7667 I0.0062 J0.0108
G2 X7.5125 Y3.0 Z-1.8 I0.0063 J-0.0108
G2 X7.4938 Y2.9892 Z-1.8333 I-0.0125 J0.0
G2 Y3.0108 Z-1.8667 I0.0062 J0.0108
G2 X7.5125 Y3.0 Z-1.9 I0.0063 J-0.0108
G2 X7.4938 Y2.9892 Z-1.9333 I-0.0125 J0.0
G2 Y3.0108 Z-1.9667 I0.0062 J0.0108
G2 X7.5125 Y3.0 Z-2.0 I0.0063 J-0.0108
G2 X7.4938 Y2.9892 Z-2.0333 I-0.0125 J0.0
G2 Y3.0108 Z-2.0667 I0.0062 J0.0108
G2 X7.5125 Y3.0 Z-2.1 I0.0063 J-0.0108
G2 X7.4938 Y2.9892 Z-2.1333 I-0.0125 J0.0
G2 Y3.0108 Z-2.1667 I0.0062 J0.0108
G2 X7.5125 Y3.0 Z-2.2 I0.0063 J-0.0108
G2 X7.4938 Y2.9892 Z-2.2333 I-0.0125 J0.0
G2 Y3.0108 Z-2.2667 I0.0062 J0.0108
G2 X7.5125 Y3.0 Z-2.3 I0.0063 J-0.0108
G2 X7.4938 Y2.9892 Z-2.3333 I-0.0125 J0.0
G2 Y3.0108 Z-2.3667 I0.0063 J0.0108
G2 X7.5125 Y3.0 Z-2.4 I0.0062 J-0.0108
G2 X7.4938 Y2.9892 Z-2.4333 I-0.0125 J0.0
G2 Y3.0108 Z-2.4667 I0.0063 J0.0108
G2 X7.5125 Y3.0 Z-2.5 I0.0062 J-0.0108
G2 X7.4938 Y2.9892 Z-2.5333 I-0.0125 J0.0
G2 Y3.0108 Z-2.5667 I0.0063 J0.0108
G2 X7.5125 Y3.0 Z-2.6 I0.0062 J-0.0108
G2 X7.4938 Y2.9892 Z-2.6333 I-0.0125 J0.0
G2 Y3.0108 Z-2.6667 I0.0063 J0.0108
G2 X7.5125 Y3.0 Z-2.7 I0.0062 J-0.0108
G2 X7.4938 Y2.9892 Z-2.7333 I-0.0125 J0.0
G2 Y3.0108 Z-2.7667 I0.0063 J0.0108
G2 X7.5125 Y3.0 Z-2.8 I0.0062 J-0.0108
G2 X7.4938 Y2.9892 Z-2.8333 I-0.0125 J0.0
G2 Y3.0108 Z-2.8667 I0.0063 J0.0108
G2 X7.5125 Y3.0 Z-2.9 I0.0062 J-0.0108
G2 X7.4938 Y2.9892 Z-2.9333 I-0.0125 J0.0
G2 Y3.0108 Z-2.9667 I0.0063 J0.0108
G2 X7.5125 Y3.0 Z-3.0 I0.0062 J-0.0108
G2 X7.4938 Y2.9892 Z-3.0333 I-0.0125 J0.0
G2 Y3.0108 Z-3.0667 I0.0063 J0.0108
G2 X7.5125 Y3.0 Z-3.1 I0.0062 J-0.0108
G2 X7.4938 Y2.9892 Z-3.1333 I-0.0125 J0.0
G2 Y3.0108 Z-3.1667 I0.0063 J0.0108
G2 X7.5125 Y3.0 Z-3.2 I0.0062 J-0.0108
G2 X7.4938 Y2.9892 I-0.0125 J0.0
G2 Y3.0108 I0.0063 J0.0108
G2 X7.5125 Y3.0 I0.0062 J-0.0108
G0 Z3.0
G0 X29.9725 Y28.01
G0 Z0.01
G1 F1000.0 Z0.0
G2 F2000.0 X29.9538 Y27.9992 Z-0.0333 I-0.0125 J0.0
G2 Y28.0208 Z-0.0667 I0.0062 J0.0108
G2 X29.9725 Y28.01 Z-0.1 I0.0063 J-0.0108
G2 X29.9538 Y27.9992 Z-0.1333 I-0.0125 J0.0
G2 Y28.0208 Z-0.1667 I0.0062 J0.0108
G2 X29.9725 Y28.01 Z-0.2 I0.0063 J-0.0108
G2 X29.9538 Y27.9992 Z-0.2333 I-0.0125 J0.0
G2 Y28.0208 Z-0.2667 I0.0062 J0.0108
G2 X29.9725 Y28.01 Z-0.3 I0.0063 J-0.0108
G2 X29.9538 Y27.9992 Z-0.3333 I-0.0125 J0.0
G2 Y28.0208 Z-0.3667 I0.0062 J0.0108
G2 X29.9725 Y28.01 Z-0.4 I0.0063 J-0.0108
G2 X29.9538 Y27.9992 Z-0.4333 I-0.0125 J0.0
G2 Y28.0208 Z-0.4667 I0.0062 J0.0108
G2 X29.9725 Y28.01 Z-0.5 I0.0063 J-0.0108
G2 X29.9538 Y27.9992 Z-0.5333 I-0.0125 J0.0
G2 Y28.0208 Z-0.5667 I0.0062 J0.0108
G2 X29.9725 Y28.01 Z-0.6 I0.0063 J-0.0108
G2 X29.9538 Y27.9992 Z-0.6333 I-0.0125 J0.0
G2 Y28.0208 Z-0.6667 I0.0062 J0.0108
G2 X29.9725 Y28.01 Z-0.7 I0.0063 J-0.0108
G2 X29.9538 Y27.9992 Z-0.7333 I-0.0125 J0.0
G2 Y28.0208 Z-0.7667 I0.0062 J0.0108
G2 X29.9725 Y28.01 Z-0.8 I0.0063 J-0.0108
G2 X29.9538 Y27.9992 Z-0.8333 I-0.0125 J0.0
G2 Y28.0208 Z-0.8667 I0.0062 J0.0108
G2 X29.9725 Y28.01 Z-0.9 I0.0063 J-0.0108
G2 X29.9538 Y27.9992 Z-0.9333 I-0.0125 J0.0
G2 Y28.0208 Z-0.9667 I0.0062 J0.0108
G2 X29.9725 Y28.01 Z-1.0 I0.0063 J-0.0108
G2 X29.9538 Y27.9992 Z-1.0333 I-0.0125 J0.0
G2 Y28.0208 Z-1.0667 I0.0062 J0.0108
G2 X29.9725 Y28.01 Z-1.1 I0.0063 J-0.0108
G2 X29.9538 Y27.9992 Z-1.1333 I-0.0125 J0.0
G2 Y28.0208 Z-1.1667 I0.0062 J0.0108
G2 X29.9725 Y28.01 Z-1.2 I0.0063 J-0.0108
G2 X29.9538 Y27.9992 Z-1.2333 I-0.0125 J0.0
G2 Y28.0208 Z-1.2667 I0.0062 J0.0108
G2 X29.9725 Y28.01 Z-1.3 I0.0063 J-0.0108
G2 X29.9538 Y27.9992 Z-1.3333 I-0.0125 J0.0
G2 Y28.0208 Z-1.3667 I0.0062 J0.0108
G2 X29.9725 Y28.01 Z-1.4 I0.0063 J-0.0108
G2 X29.9538 Y27.9992 Z-1.4333 I-0.0125 J0.0
G2 Y28.0208 Z-1.4667 I0.0062 J0.0108
G2 X29.9725 Y28.01 Z-1.5 I0.0063 J-0.0108
G2 X29.9538 Y27.9992 Z-1.5333 I-0.0125 J0.0
G2 Y28.0208 Z-1.5667 I0.0062 J0.0108
G2 X29.9725 Y28.01 Z-1.6 I0.0063 J-0.0108
G2 X29.9538 Y27.9992 Z-1.6333 I-0.0125 J0.0
G2 Y28.0208 Z-1.6667 I0.0062 J0.0108
G2 X29.9725 Y28.01 Z-1.7 I0.0063 J-0.0108
G2 X29.9538 Y27.9992 Z-1.7333 I-0.0125 J0.0
G2 Y28.0208 Z-1.7667 I0.0062 J0.0108
G2 X29.9725 Y28.01 Z-1.8 I0.0063 J-0.0108
G2 X29.9538 Y27.9992 Z-1.8333 I-0.0125 J0.0
G2 Y28.0208 Z-1.8667 I0.0062 J0.0108
G2 X29.9725 Y28.01 Z-1.9 I0.0063 J-0.0108
G2 X29.9538 Y27.9992 Z-1.9333 I-0.0125 J0.0
G2 Y28.0208 Z-1.9667 I0.0062 J0.0108
G2 X29.9725 Y28.01 Z-2.0 I0.0063 J-0.0108
G2 X29.9538 Y27.9992 Z-2.0333 I-0.0125 J0.0
G2 Y28.0208 Z-2.0667 I0.0062 J0.0108
G2 X29.9725 Y28.01 Z-2.1 I0.0063 J-0.0108
G2 X29.9538 Y27.9992 Z-2.1333 I-0.0125 J0.0
G2 Y28.0208 Z-2.1667 I0.0062 J0.0108
G2 X29.9725 Y28.01 Z-2.2 I0.0063 J-0.0108
G2 X29.9538 Y27.9992 Z-2.2333 I-0.0125 J0.0
G2 Y28.0208 Z-2.2667 I0.0062 J0.0108
G2 X29.9725 Y28.01 Z-2.3 I0.0063 J-0.0108
G2 X29.9538 Y27.9992 Z-2.3333 I-0.0125 J0.0
G2 Y28.0208 Z-2.3667 I0.0062 J0.0108
G2 X29.9725 Y28.01 Z-2.4 I0.0063 J-0.0108
G2 X29.9538 Y27.9992 Z-2.4333 I-0.0125 J0.0
G2 Y28.0208 Z-2.4667 I0.0063 J0.0108
G2 X29.9725 Y28.01 Z-2.5 I0.0062 J-0.0108
G2 X29.9538 Y27.9992 Z-2.5333 I-0.0125 J0.0
G2 Y28.0208 Z-2.5667 I0.0063 J0.0108
G2 X29.9725 Y28.01 Z-2.6 I0.0062 J-0.0108
G2 X29.9538 Y27.9992 Z-2.6333 I-0.0125 J0.0
G2 Y28.0208 Z-2.6667 I0.0063 J0.0108
G2 X29.9725 Y28.01 Z-2.7 I0.0062 J-0.0108
G2 X29.9538 Y27.9992 Z-2.7333 I-0.0125 J0.0
G2 Y28.0208 Z-2.7667 I0.0063 J0.0108
G2 X29.9725 Y28.01 Z-2.8 I0.0062 J-0.0108
G2 X29.9538 Y27.9992 Z-2.8333 I-0.0125 J0.0
G2 Y28.0208 Z-2.8667 I0.0063 J0.0108
G2 X29.9725 Y28.01 Z-2.9 I0.0062 J-0.0108
G2 X29.9538 Y27.9992 Z-2.9333 I-0.0125 J0.0
G2 Y28.0208 Z-2.9667 I0.0063 J0.0108
G2 X29.9725 Y28.01 Z-3.0 I0.0062 J-0.0108
G2 X29.9538 Y27.9992 Z-3.0333 I-0.0125 J0.0
G2 Y28.0208 Z-3.0667 I0.0063 J0.0108
G2 X29.9725 Y28.01 Z-3.1 I0.0062 J-0.0108
G2 X29.9538 Y27.9992 Z-3.1333 I-0.0125 J0.0
G2 Y28.0208 Z-3.1667 I0.0063 J0.0108
G2 X29.9725 Y28.01 Z-3.2 I0.0062 J-0.0108
G2 X29.9538 Y27.9992 I-0.0125 J0.0
G2 Y28.0208 I0.0063 J0.0108
G2 X29.9725 Y28.01 I0.0062 J-0.0108
G0 Z3.0
G0 X49.2325 Y26.25
G0 Z0.01
G1 F1000.0 Z0.0
G2 F2000.0 X49.2137 Y26.2392 Z-0.0333 I-0.0125 J0.0
G2 Y26.2608 Z-0.0667 I0.0063 J0.0108
G2 X49.2325 Y26.25 Z-0.1 I0.0063 J-0.0108
G2 X49.2137 Y26.2392 Z-0.1333 I-0.0125 J0.0
G2 Y26.2608 Z-0.1667 I0.0063 J0.0108
G2 X49.2325 Y26.25 Z-0.2 I0.0063 J-0.0108
G2 X49.2137 Y26.2392 Z-0.2333 I-0.0125 J0.0
G2 Y26.2608 Z-0.2667 I0.0063 J0.0108
G2 X49.2325 Y26.25 Z-0.3 I0.0063 J-0.0108
G2 X49.2137 Y26.2392 Z-0.3333 I-0.0125 J0.0
G2 Y26.2608 Z-0.3667 I0.0063 J0.0108
G2 X49.2325 Y26.25 Z-0.4 I0.0063 J-0.0108
G2 X49.2137 Y26.2392 Z-0.4333 I-0.0125 J0.0
G2 Y26.2608 Z-0.4667 I0.0063 J0.0108
G2 X49.2325 Y26.25 Z-0.5 I0.0063 J-0.0108
G2 X49.2137 Y26.2392 Z-0.5333 I-0.0125 J0.0
G2 Y26.2608 Z-0.5667 I0.0063 J0.0108
G2 X49.2325 Y26.25 Z-0.6 I0.0063 J-0.0108
G2 X49.2137 Y26.2392 Z-0.6333 I-0.0125 J0.0
G2 Y26.2608 Z-0.6667 I0.0063 J0.0108
G2 X49.2325 Y26.25 Z-0.7 I0.0063 J-0.0108
G2 X49.2137 Y26.2392 Z-0.7333 I-0.0125 J0.0
G2 Y26.2608 Z-0.7667 I0.0063 J0.0108
G2 X49.2325 Y26.25 Z-0.8 I0.0063 J-0.0108
G2 X49.2137 Y26.2392 Z-0.8333 I-0.0125 J0.0
G2 Y26.2608 Z-0.8667 I0.0063 J0.0108
G2 X49.2325 Y26.25 Z-0.9 I0.0063 J-0.0108
G2 X49.2137 Y26.2392 Z-0.9333 I-0.0125 J0.0
G2 Y26.2608 Z-0.9667 I0.0063 J0.0108
G2 X49.2325 Y26.25 Z-1.0 I0.0063 J-0.0108
G2 X49.2137 Y26.2392 Z-1.0333 I-0.0125 J0.0
G2 Y26.2608 Z-1.0667 I0.0063 J0.0108
G2 X49.2325 Y26.25 Z-1.1 I0.0063 J-0.0108
G2 X49.2137 Y26.2392 Z-1.1333 I-0.0125 J0.0
G2 Y26.2608 Z-1.1667 I0.0063 J0.0108
G2 X49.2325 Y26.25 Z-1.2 I0.0063 J-0.0108
G2 X49.2137 Y26.2392 Z-1.2333 I-0.0125 J0.0
G2 Y26.2608 Z-1.2667 I0.0063 J0.0108
G2 X49.2325 Y26.25 Z-1.3 I0.0063 J-0.0108
G2 X49.2137 Y26.2392 Z-1.3333 I-0.0125 J0.0
G2 Y26.2608 Z-1.3667 I0.0063 J0.0108
G2 X49.2325 Y26.25 Z-1.4 I0.0063 J-0.0108
G2 X49.2137 Y26.2392 Z-1.4333 I-0.0125 J0.0
G2 Y26.2608 Z-1.4667 I0.0063 J0.0108
G2 X49.2325 Y26.25 Z-1.5 I0.0063 J-0.0108
G2 X49.2137 Y26.2392 Z-1.5333 I-0.0125 J0.0
G2 Y26.2608 Z-1.5667 I0.0063 J0.0108
G2 X49.2325 Y26.25 Z-1.6 I0.0063 J-0.0108
G2 X49.2137 Y26.2392 Z-1.6333 I-0.0125 J0.0
G2 Y26.2608 Z-1.6667 I0.0063 J0.0108
G2 X49.2325 Y26.25 Z-1.7 I0.0063 J-0.0108
G2 X49.2137 Y26.2392 Z-1.7333 I-0.0125 J0.0
G2 Y26.2608 Z-1.7667 I0.0063 J0.0108
G2 X49.2325 Y26.25 Z-1.8 I0.0063 J-0.0108
G2 X49.2137 Y26.2392 Z-1.8333 I-0.0125 J0.0
G2 Y26.2608 Z-1.8667 I0.0063 J0.0108
G2 X49.2325 Y26.25 Z-1.9 I0.0063 J-0.0108
G2 X49.2137 Y26.2392 Z-1.9333 I-0.0125 J0.0
G2 Y26.2608 Z-1.9667 I0.0063 J0.0108
G2 X49.2325 Y26.25 Z-2.0 I0.0063 J-0.0108
G2 X49.2137 Y26.2392 Z-2.0333 I-0.0125 J0.0
G2 Y26.2608 Z-2.0667 I0.0063 J0.0108
G2 X49.2325 Y26.25 Z-2.1 I0.0063 J-0.0108
G2 X49.2137 Y26.2392 Z-2.1333 I-0.0125 J0.0
G2 Y26.2608 Z-2.1667 I0.0063 J0.0108
G2 X49.2325 Y26.25 Z-2.2 I0.0063 J-0.0108
G2 X49.2137 Y26.2392 Z-2.2333 I-0.0125 J0.0
G2 Y26.2608 Z-2.2667 I0.0063 J0.0108
G2 X49.2325 Y26.25 Z-2.3 I0.0063 J-0.0108
G2 X49.2137 Y26.2392 Z-2.3333 I-0.0125 J0.0
G2 Y26.2608 Z-2.3667 I0.0063 J0.0108
G2 X49.2325 Y26.25 Z-2.4 I0.0063 J-0.0108
G2 X49.2137 Y26.2392 Z-2.4333 I-0.0125 J0.0
G2 Y26.2608 Z-2.4667 I0.0063 J0.0108
G2 X49.2325 Y26.25 Z-2.5 I0.0063 J-0.0108
G2 X49.2137 Y26.2392 Z-2.5333 I-0.0125 J0.0
G2 Y26.2608 Z-2.5667 I0.0063 J0.0108
G2 X49.2325 Y26.25 Z-2.6 I0.0063 J-0.0108
G2 X49.2137 Y26.2392 Z-2.6333 I-0.0125 J0.0
G2 Y26.2608 Z-2.6667 I0.0063 J0.0108
G2 X49.2325 Y26.25 Z-2.7 I0.0063 J-0.0108
G2 X49.2137 Y26.2392 Z-2.7333 I-0.0125 J0.0
G2 Y26.2608 Z-2.7667 I0.0063 J0.0108
G2 X49.2325 Y26.25 Z-2.8 I0.0063 J-0.0108
G2 X49.2137 Y26.2392 Z-2.8333 I-0.0125 J0.0
G2 Y26.2608 Z-2.8667 I0.0063 J0.0108
G2 X49.2325 Y26.25 Z-2.9 I0.0063 J-0.0108
G2 X49.2137 Y26.2392 Z-2.9333 I-0.0125 J0.0
G2 Y26.2608 Z-2.9667 I0.0063 J0.0108
G2 X49.2325 Y26.25 Z-3.0 I0.0062 J-0.0108
G2 X49.2137 Y26.2392 Z-3.0333 I-0.0125 J0.0
G2 Y26.2608 Z-3.0667 I0.0063 J0.0108
G2 X49.2325 Y26.25 Z-3.1 I0.0062 J-0.0108
G2 X49.2137 Y26.2392 Z-3.1333 I-0.0125 J0.0
G2 Y26.2608 Z-3.1667 I0.0063 J0.0108
G2 X49.2325 Y26.25 Z-3.2 I0.0062 J-0.0108
G2 X49.2137 Y26.2392 I-0.0125 J0.0
G2 Y26.2608 I0.0063 J0.0108
G2 X49.2325 Y26.25 I0.0062 J-0.0108
G0 Z3.0
G0 X49.1625 Y14.25
G0 Z0.01
G1 F1000.0 Z0.0
G2 F2000.0 X49.1438 Y14.2392 Z-0.0333 I-0.0125 J0.0
G2 Y14.2608 Z-0.0667 I0.0063 J0.0108
G2 X49.1625 Y14.25 Z-0.1 I0.0063 J-0.0108
G2 X49.1438 Y14.2392 Z-0.1333 I-0.0125 J0.0
G2 Y14.2608 Z-0.1667 I0.0063 J0.0108
G2 X49.1625 Y14.25 Z-0.2 I0.0063 J-0.0108
G2 X49.1438 Y14.2392 Z-0.2333 I-0.0125 J0.0
G2 Y14.2608 Z-0.2667 I0.0063 J0.0108
G2 X49.1625 Y14.25 Z-0.3 I0.0063 J-0.0108
G2 X49.1438 Y14.2392 Z-0.3333 I-0.0125 J0.0
G2 Y14.2608 Z-0.3667 I0.0063 J0.0108
G2 X49.1625 Y14.25 Z-0.4 I0.0063 J-0.0108
G2 X49.1438 Y14.2392 Z-0.4333 I-0.0125 J0.0
G2 Y14.2608 Z-0.4667 I0.0063 J0.0108
G2 X49.1625 Y14.25 Z-0.5 I0.0063 J-0.0108
G2 X49.1438 Y14.2392 Z-0.5333 I-0.0125 J0.0
G2 Y14.2608 Z-0.5667 I0.0063 J0.0108
G2 X49.1625 Y14.25 Z-0.6 I0.0063 J-0.0108
G2 X49.1438 Y14.2392 Z-0.6333 I-0.0125 J0.0
G2 Y14.2608 Z-0.6667 I0.0063 J0.0108
G2 X49.1625 Y14.25 Z-0.7 I0.0063 J-0.0108
G2 X49.1438 Y14.2392 Z-0.7333 I-0.0125 J0.0
G2 Y14.2608 Z-0.7667 I0.0063 J0.0108
G2 X49.1625 Y14.25 Z-0.8 I0.0063 J-0.0108
G2 X49.1438 Y14.2392 Z-0.8333 I-0.0125 J0.0
G2 Y14.2608 Z-0.8667 I0.0063 J0.0108
G2 X49.1625 Y14.25 Z-0.9 I0.0063 J-0.0108
G2 X49.1438 Y14.2392 Z-0.9333 I-0.0125 J0.0
G2 Y14.2608 Z-0.9667 I0.0063 J0.0108
G2 X49.1625 Y14.25 Z-1.0 I0.0063 J-0.0108
G2 X49.1438 Y14.2392 Z-1.0333 I-0.0125 J0.0
G2 Y14.2608 Z-1.0667 I0.0063 J0.0108
G2 X49.1625 Y14.25 Z-1.1 I0.0063 J-0.0108
G2 X49.1438 Y14.2392 Z-1.1333 I-0.0125 J0.0
G2 Y14.2608 Z-1.1667 I0.0063 J0.0108
G2 X49.1625 Y14.25 Z-1.2 I0.0063 J-0.0108
G2 X49.1438 Y14.2392 Z-1.2333 I-0.0125 J0.0
G2 Y14.2608 Z-1.2667 I0.0063 J0.0108
G2 X49.1625 Y14.25 Z-1.3 I0.0063 J-0.0108
G2 X49.1438 Y14.2392 Z-1.3333 I-0.0125 J0.0
G2 Y14.2608 Z-1.3667 I0.0063 J0.0108
G2 X49.1625 Y14.25 Z-1.4 I0.0063 J-0.0108
G2 X49.1438 Y14.2392 Z-1.4333 I-0.0125 J0.0
G2 Y14.2608 Z-1.4667 I0.0063 J0.0108
G2 X49.1625 Y14.25 Z-1.5 I0.0063 J-0.0108
G2 X49.1438 Y14.2392 Z-1.5333 I-0.0125 J0.0
G2 Y14.2608 Z-1.5667 I0.0063 J0.0108
G2 X49.1625 Y14.25 Z-1.6 I0.0063 J-0.0108
G2 X49.1438 Y14.2392 Z-1.6333 I-0.0125 J0.0
G2 Y14.2608 Z-1.6667 I0.0063 J0.0108
G2 X49.1625 Y14.25 Z-1.7 I0.0063 J-0.0108
G2 X49.1438 Y14.2392 Z-1.7333 I-0.0125 J0.0
G2 Y14.2608 Z-1.7667 I0.0063 J0.0108
G2 X49.1625 Y14.25 Z-1.8 I0.0063 J-0.0108
G2 X49.1438 Y14.2392 Z-1.8333 I-0.0125 J0.0
G2 Y14.2608 Z-1.8667 I0.0063 J0.0108
G2 X49.1625 Y14.25 Z-1.9 I0.0063 J-0.0108
G2 X49.1438 Y14.2392 Z-1.9333 I-0.0125 J0.0
G2 Y14.2608 Z-1.9667 I0.0063 J0.0108
G2 X49.1625 Y14.25 Z-2.0 I0.0063 J-0.0108
G2 X49.1438 Y14.2392 Z-2.0333 I-0.0125 J0.0
G2 Y14.2608 Z-2.0667 I0.0063 J0.0108
G2 X49.1625 Y14.25 Z-2.1 I0.0063 J-0.0108
G2 X49.1438 Y14.2392 Z-2.1333 I-0.0125 J0.0
G2 Y14.2608 Z-2.1667 I0.0063 J0.0108
G2 X49.1625 Y14.25 Z-2.2 I0.0063 J-0.0108
G2 X49.1438 Y14.2392 Z-2.2333 I-0.0125 J0.0
G2 Y14.2608 Z-2.2667 I0.0063 J0.0108
G2 X49.1625 Y14.25 Z-2.3 I0.0063 J-0.0108
G2 X49.1438 Y14.2392 Z-2.3333 I-0.0125 J0.0
G2 Y14.2608 Z-2.3667 I0.0063 J0.0108
G2 X49.1625 Y14.25 Z-2.4 I0.0063 J-0.0108
G2 X49.1438 Y14.2392 Z-2.4333 I-0.0125 J0.0
G2 Y14.2608 Z-2.4667 I0.0063 J0.0108
G2 X49.1625 Y14.25 Z-2.5 I0.0063 J-0.0108
G2 X49.1438 Y14.2392 Z-2.5333 I-0.0125 J0.0
G2 Y14.2608 Z-2.5667 I0.0063 J0.0108
G2 X49.1625 Y14.25 Z-2.6 I0.0063 J-0.0108
G2 X49.1438 Y14.2392 Z-2.6333 I-0.0125 J0.0
G2 Y14.2608 Z-2.6667 I0.0063 J0.0108
G2 X49.1625 Y14.25 Z-2.7 I0.0063 J-0.0108
G2 X49.1438 Y14.2392 Z-2.7333 I-0.0125 J0.0
G2 Y14.2608 Z-2.7667 I0.0063 J0.0108
G2 X49.1625 Y14.25 Z-2.8 I0.0063 J-0.0108
G2 X49.1438 Y14.2392 Z-2.8333 I-0.0125 J0.0
G2 Y14.2608 Z-2.8667 I0.0063 J0.0108
G2 X49.1625 Y14.25 Z-2.9 I0.0063 J-0.0108
G2 X49.1438 Y14.2392 Z-2.9333 I-0.0125 J0.0
G2 Y14.2608 Z-2.9667 I0.0063 J0.0108
G2 X49.1625 Y14.25 Z-3.0 I0.0062 J-0.0108
G2 X49.1438 Y14.2392 Z-3.0333 I-0.0125 J0.0
G2 Y14.2608 Z-3.0667 I0.0063 J0.0108
G2 X49.1625 Y14.25 Z-3.1 I0.0062 J-0.0108
G2 X49.1438 Y14.2392 Z-3.1333 I-0.0125 J0.0
G2 Y14.2608 Z-3.1667 I0.0063 J0.0108
G2 X49.1625 Y14.25 Z-3.2 I0.0062 J-0.0108
G2 X49.1438 Y14.2392 I-0.0125 J0.0
G2 Y14.2608 I0.0063 J0.0108
G2 X49.1625 Y14.25 I0.0062 J-0.0108
G0 Z3.0
G0 X53.2325 Y3.0
G0 Z0.01
G1 F1000.0 Z0.0
G2 F2000.0 X53.2137 Y2.9892 Z-0.0333 I-0.0125 J0.0
G2 Y3.0108 Z-0.0667 I0.0063 J0.0108
G2 X53.2325 Y3.0 Z-0.1 I0.0063 J-0.0108
G2 X53.2137 Y2.9892 Z-0.1333 I-0.0125 J0.0
G2 Y3.0108 Z-0.1667 I0.0063 J0.0108
G2 X53.2325 Y3.0 Z-0.2 I0.0063 J-0.0108
G2 X53.2137 Y2.9892 Z-0.2333 I-0.0125 J0.0
G2 Y3.0108 Z-0.2667 I0.0063 J0.0108
G2 X53.2325 Y3.0 Z-0.3 I0.0063 J-0.0108
G2 X53.2137 Y2.9892 Z-0.3333 I-0.0125 J0.0
G2 Y3.0108 Z-0.3667 I0.0063 J0.0108
G2 X53.2325 Y3.0 Z-0.4 I0.0063 J-0.0108
G2 X53.2137 Y2.9892 Z-0.4333 I-0.0125 J0.0
G2 Y3.0108 Z-0.4667 I0.0063 J0.0108
G2 X53.2325 Y3.0 Z-0.5 I0.0063 J-0.0108
G2 X53.2137 Y2.9892 Z-0.5333 I-0.0125 J0.0
G2 Y3.0108 Z-0.5667 I0.0063 J0.0108
G2 X53.2325 Y3.0 Z-0.6 I0.0063 J-0.0108
G2 X53.2137 Y2.9892 Z-0.6333 I-0.0125 J0.0
G2 Y3.0108 Z-0.6667 I0.0063 J0.0108
G2 X53.2325 Y3.0 Z-0.7 I0.0063 J-0.0108
G2 X53.2137 Y2.9892 Z-0.7333 I-0.0125 J0.0
G2 Y3.0108 Z-0.7667 I0.0063 J0.0108
G2 X53.2325 Y3.0 Z-0.8 I0.0063 J-0.0108
G2 X53.2137 Y2.9892 Z-0.8333 I-0.0125 J0.0
G2 Y3.0108 Z-0.8667 I0.0063 J0.0108
G2 X53.2325 Y3.0 Z-0.9 I0.0063 J-0.0108
G2 X53.2137 Y2.9892 Z-0.9333 I-0.0125 J0.0
G2 Y3.0108 Z-0.9667 I0.0063 J0.0108
G2 X53.2325 Y3.0 Z-1.0 I0.0063 J-0.0108
G2 X53.2137 Y2.9892 Z-1.0333 I-0.0125 J0.0
G2 Y3.0108 Z-1.0667 I0.0063 J0.0108
G2 X53.2325 Y3.0 Z-1.1 I0.0063 J-0.0108
G2 X53.2137 Y2.9892 Z-1.1333 I-0.0125 J0.0
G2 Y3.0108 Z-1.1667 I0.0063 J0.0108
G2 X53.2325 Y3.0 Z-1.2 I0.0063 J-0.0108
G2 X53.2137 Y2.9892 Z-1.2333 I-0.0125 J0.0
G2 Y3.0108 Z-1.2667 I0.0063 J0.0108
G2 X53.2325 Y3.0 Z-1.3 I0.0063 J-0.0108
G2 X53.2137 Y2.9892 Z-1.3333 I-0.0125 J0.0
G2 Y3.0108 Z-1.3667 I0.0063 J0.0108
G2 X53.2325 Y3.0 Z-1.4 I0.0063 J-0.0108
G2 X53.2137 Y2.9892 Z-1.4333 I-0.0125 J0.0
G2 Y3.0108 Z-1.4667 I0.0063 J0.0108
G2 X53.2325 Y3.0 Z-1.5 I0.0063 J-0.0108
G2 X53.2137 Y2.9892 Z-1.5333 I-0.0125 J0.0
G2 Y3.0108 Z-1.5667 I0.0063 J0.0108
G2 X53.2325 Y3.0 Z-1.6 I0.0063 J-0.0108
G2 X53.2137 Y2.9892 Z-1.6333 I-0.0125 J0.0
G2 Y3.0108 Z-1.6667 I0.0063 J0.0108
G2 X53.2325 Y3.0 Z-1.7 I0.0063 J-0.0108
G2 X53.2137 Y2.9892 Z-1.7333 I-0.0125 J0.0
G2 Y3.0108 Z-1.7667 I0.0063 J0.0108
G2 X53.2325 Y3.0 Z-1.8 I0.0063 J-0.0108
G2 X53.2137 Y2.9892 Z-1.8333 I-0.0125 J0.0
G2 Y3.0108 Z-1.8667 I0.0063 J0.0108
G2 X53.2325 Y3.0 Z-1.9 I0.0063 J-0.0108
G2 X53.2137 Y2.9892 Z-1.9333 I-0.0125 J0.0
G2 Y3.0108 Z-1.9667 I0.0063 J0.0108
G2 X53.2325 Y3.0 Z-2.0 I0.0063 J-0.0108
G2 X53.2137 Y2.9892 Z-2.0333 I-0.0125 J0.0
G2 Y3.0108 Z-2.0667 I0.0063 J0.0108
G2 X53.2325 Y3.0 Z-2.1 I0.0063 J-0.0108
G2 X53.2137 Y2.9892 Z-2.1333 I-0.0125 J0.0
G2 Y3.0108 Z-2.1667 I0.0063 J0.0108
G2 X53.2325 Y3.0 Z-2.2 I0.0063 J-0.0108
G2 X53.2137 Y2.9892 Z-2.2333 I-0.0125 J0.0
G2 Y3.0108 Z-2.2667 I0.0063 J0.0108
G2 X53.2325 Y3.0 Z-2.3 I0.0063 J-0.0108
G2 X53.2137 Y2.9892 Z-2.3333 I-0.0125 J0.0
G2 Y3.0108 Z-2.3667 I0.0063 J0.0108
G2 X53.2325 Y3.0 Z-2.4 I0.0063 J-0.0108
G2 X53.2137 Y2.9892 Z-2.4333 I-0.0125 J0.0
G2 Y3.0108 Z-2.4667 I0.0063 J0.0108
G2 X53.2325 Y3.0 Z-2.5 I0.0063 J-0.0108
G2 X53.2137 Y2.9892 Z-2.5333 I-0.0125 J0.0
G2 Y3.0108 Z-2.5667 I0.0063 J0.0108
G2 X53.2325 Y3.0 Z-2.6 I0.0063 J-0.0108
G2 X53.2137 Y2.9892 Z-2.6333 I-0.0125 J0.0
G2 Y3.0108 Z-2.6667 I0.0063 J0.0108
G2 X53.2325 Y3.0 Z-2.7 I0.0063 J-0.0108
G2 X53.2137 Y2.9892 Z-2.7333 I-0.0125 J0.0
G2 Y3.0108 Z-2.7667 I0.0063 J0.0108
G2 X53.2325 Y3.0 Z-2.8 I0.0063 J-0.0108
G2 X53.2137 Y2.9892 Z-2.8333 I-0.0125 J0.0
G2 Y3.0108 Z-2.8667 I0.0063 J0.0108
G2 X53.2325 Y3.0 Z-2.9 I0.0063 J-0.0108
G2 X53.2137 Y2.9892 Z-2.9333 I-0.0125 J0.0
G2 Y3.0108 Z-2.9667 I0.0063 J0.0108
G2 X53.2325 Y3.0 Z-3.0 I0.0062 J-0.0108
G2 X53.2137 Y2.9892 Z-3.0333 I-0.0125 J0.0
G2 Y3.0108 Z-3.0667 I0.0063 J0.0108
G2 X53.2325 Y3.0 Z-3.1 I0.0062 J-0.0108
G2 X53.2137 Y2.9892 Z-3.1333 I-0.0125 J0.0
G2 Y3.0108 Z-3.1667 I0.0063 J0.0108
G2 X53.2325 Y3.0 Z-3.2 I0.0062 J-0.0108
G2 X53.2137 Y2.9892 I-0.0125 J0.0
G2 Y3.0108 I0.0063 J0.0108
G2 X53.2325 Y3.0 I0.0062 J-0.0108
G0 Z3.0
G0 X49.1625 Y38.25
G0 Z0.01
G1 F1000.0 Z0.0
G2 F2000.0 X49.1438 Y38.2392 Z-0.0333 I-0.0125 J0.0
G2 Y38.2608 Z-0.0667 I0.0063 J0.0108
G2 X49.1625 Y38.25 Z-0.1 I0.0063 J-0.0108
G2 X49.1438 Y38.2392 Z-0.1333 I-0.0125 J0.0
G2 Y38.2608 Z-0.1667 I0.0063 J0.0108
G2 X49.1625 Y38.25 Z-0.2 I0.0063 J-0.0108
G2 X49.1438 Y38.2392 Z-0.2333 I-0.0125 J0.0
G2 Y38.2608 Z-0.2667 I0.0063 J0.0108
G2 X49.1625 Y38.25 Z-0.3 I0.0063 J-0.0108
G2 X49.1438 Y38.2392 Z-0.3333 I-0.0125 J0.0
G2 Y38.2608 Z-0.3667 I0.0063 J0.0108
G2 X49.1625 Y38.25 Z-0.4 I0.0063 J-0.0108
G2 X49.1438 Y38.2392 Z-0.4333 I-0.0125 J0.0
G2 Y38.2608 Z-0.4667 I0.0063 J0.0108
G2 X49.1625 Y38.25 Z-0.5 I0.0063 J-0.0108
G2 X49.1438 Y38.2392 Z-0.5333 I-0.0125 J0.0
G2 Y38.2608 Z-0.5667 I0.0063 J0.0108
G2 X49.1625 Y38.25 Z-0.6 I0.0063 J-0.0108
G2 X49.1438 Y38.2392 Z-0.6333 I-0.0125 J0.0
G2 Y38.2608 Z-0.6667 I0.0063 J0.0108
G2 X49.1625 Y38.25 Z-0.7 I0.0063 J-0.0108
G2 X49.1438 Y38.2392 Z-0.7333 I-0.0125 J0.0
G2 Y38.2608 Z-0.7667 I0.0063 J0.0108
G2 X49.1625 Y38.25 Z-0.8 I0.0063 J-0.0108
G2 X49.1438 Y38.2392 Z-0.8333 I-0.0125 J0.0
G2 Y38.2608 Z-0.8667 I0.0063 J0.0108
G2 X49.1625 Y38.25 Z-0.9 I0.0063 J-0.0108
G2 X49.1438 Y38.2392 Z-0.9333 I-0.0125 J0.0
G2 Y38.2608 Z-0.9667 I0.0063 J0.0108
G2 X49.1625 Y38.25 Z-1.0 I0.0063 J-0.0108
G2 X49.1438 Y38.2392 Z-1.0333 I-0.0125 J0.0
G2 Y38.2608 Z-1.0667 I0.0063 J0.0108
G2 X49.1625 Y38.25 Z-1.1 I0.0063 J-0.0108
G2 X49.1438 Y38.2392 Z-1.1333 I-0.0125 J0.0
G2 Y38.2608 Z-1.1667 I0.0063 J0.0108
G2 X49.1625 Y38.25 Z-1.2 I0.0063 J-0.0108
G2 X49.1438 Y38.2392 Z-1.2333 I-0.0125 J0.0
G2 Y38.2608 Z-1.2667 I0.0063 J0.0108
G2 X49.1625 Y38.25 Z-1.3 I0.0063 J-0.0108
G2 X49.1438 Y38.2392 Z-1.3333 I-0.0125 J0.0
G2 Y38.2608 Z-1.3667 I0.0063 J0.0108
G2 X49.1625 Y38.25 Z-1.4 I0.0063 J-0.0108
G2 X49.1438 Y38.2392 Z-1.4333 I-0.0125 J0.0
G2 Y38.2608 Z-1.4667 I0.0063 J0.0108
G2 X49.1625 Y38.25 Z-1.5 I0.0063 J-0.0108
G2 X49.1438 Y38.2392 Z-1.5333 I-0.0125 J0.0
G2 Y38.2608 Z-1.5667 I0.0063 J0.0108
G2 X49.1625 Y38.25 Z-1.6 I0.0063 J-0.0108
G2 X49.1438 Y38.2392 Z-1.6333 I-0.0125 J0.0
G2 Y38.2608 Z-1.6667 I0.0063 J0.0108
G2 X49.1625 Y38.25 Z-1.7 I0.0063 J-0.0108
G2 X49.1438 Y38.2392 Z-1.7333 I-0.0125 J0.0
G2 Y38.2608 Z-1.7667 I0.0063 J0.0108
G2 X49.1625 Y38.25 Z-1.8 I0.0063 J-0.0108
G2 X49.1438 Y38.2392 Z-1.8333 I-0.0125 J0.0
G2 Y38.2608 Z-1.8667 I0.0063 J0.0108
G2 X49.1625 Y38.25 Z-1.9 I0.0063 J-0.0108
G2 X49.1438 Y38.2392 Z-1.9333 I-0.0125 J0.0
G2 Y38.2608 Z-1.9667 I0.0063 J0.0108
G2 X49.1625 Y38.25 Z-2.0 I0.0063 J-0.0108
G2 X49.1438 Y38.2392 Z-2.0333 I-0.0125 J0.0
G2 Y38.2608 Z-2.0667 I0.0063 J0.0108
G2 X49.1625 Y38.25 Z-2.1 I0.0063 J-0.0108
G2 X49.1438 Y38.2392 Z-2.1333 I-0.0125 J0.0
G2 Y38.2608 Z-2.1667 I0.0063 J0.0108
G2 X49.1625 Y38.25 Z-2.2 I0.0063 J-0.0108
G2 X49.1438 Y38.2392 Z-2.2333 I-0.0125 J0.0
G2 Y38.2608 Z-2.2667 I0.0063 J0.0108
G2 X49.1625 Y38.25 Z-2.3 I0.0063 J-0.0108
G2 X49.1438 Y38.2392 Z-2.3333 I-0.0125 J0.0
G2 Y38.2608 Z-2.3667 I0.0063 J0.0108
G2 X49.1625 Y38.25 Z-2.4 I0.0063 J-0.0108
G2 X49.1438 Y38.2392 Z-2.4333 I-0.0125 J0.0
G2 Y38.2608 Z-2.4667 I0.0063 J0.0108
G2 X49.1625 Y38.25 Z-2.5 I0.0063 J-0.0108
G2 X49.1438 Y38.2392 Z-2.5333 I-0.0125 J0.0
G2 Y38.2608 Z-2.5667 I0.0063 J0.0108
G2 X49.1625 Y38.25 Z-2.6 I0.0063 J-0.0108
G2 X49.1438 Y38.2392 Z-2.6333 I-0.0125 J0.0
G2 Y38.2608 Z-2.6667 I0.0063 J0.0108
G2 X49.1625 Y38.25 Z-2.7 I0.0063 J-0.0108
G2 X49.1438 Y38.2392 Z-2.7333 I-0.0125 J0.0
G2 Y38.2608 Z-2.7667 I0.0063 J0.0108
G2 X49.1625 Y38.25 Z-2.8 I0.0063 J-0.0108
G2 X49.1438 Y38.2392 Z-2.8333 I-0.0125 J0.0
G2 Y38.2608 Z-2.8667 I0.0063 J0.0108
G2 X49.1625 Y38.25 Z-2.9 I0.0063 J-0.0108
G2 X49.1438 Y38.2392 Z-2.9333 I-0.0125 J0.0
G2 Y38.2608 Z-2.9667 I0.0063 J0.0108
G2 X49.1625 Y38.25 Z-3.0 I0.0062 J-0.0108
G2 X49.1438 Y38.2392 Z-3.0333 I-0.0125 J0.0
G2 Y38.2608 Z-3.0667 I0.0063 J0.0108
G2 X49.1625 Y38.25 Z-3.1 I0.0062 J-0.0108
G2 X49.1438 Y38.2392 Z-3.1333 I-0.0125 J0.0
G2 Y38.2608 Z-3.1667 I0.0063 J0.0108
G2 X49.1625 Y38.25 Z-3.2 I0.0062 J-0.0108
G2 X49.1438 Y38.2392 I-0.0125 J0.0
G2 Y38.2608 I0.0063 J0.0108
G2 X49.1625 Y38.25 I0.0062 J-0.0108
G0 Z3.0
G0 X49.6825 Y56.84
G0 Z0.01
G1 F1000.0 Z0.0
G2 F2000.0 X49.6638 Y56.8292 Z-0.0333 I-0.0125 J0.0
G2 Y56.8508 Z-0.0667 I0.0063 J0.0108
G2 X49.6825 Y56.84 Z-0.1 I0.0063 J-0.0108
G2 X49.6638 Y56.8292 Z-0.1333 I-0.0125 J0.0
G2 Y56.8508 Z-0.1667 I0.0063 J0.0108
G2 X49.6825 Y56.84 Z-0.2 I0.0063 J-0.0108
G2 X49.6638 Y56.8292 Z-0.2333 I-0.0125 J0.0
G2 Y56.8508 Z-0.2667 I0.0063 J0.0108
G2 X49.6825 Y56.84 Z-0.3 I0.0063 J-0.0108
G2 X49.6638 Y56.8292 Z-0.3333 I-0.0125 J0.0
G2 Y56.8508 Z-0.3667 I0.0063 J0.0108
G2 X49.6825 Y56.84 Z-0.4 I0.0063 J-0.0108
G2 X49.6638 Y56.8292 Z-0.4333 I-0.0125 J0.0
G2 Y56.8508 Z-0.4667 I0.0063 J0.0108
G2 X49.6825 Y56.84 Z-0.5 I0.0063 J-0.0108
G2 X49.6638 Y56.8292 Z-0.5333 I-0.0125 J0.0
G2 Y56.8508 Z-0.5667 I0.0063 J0.0108
G2 X49.6825 Y56.84 Z-0.6 I0.0063 J-0.0108
G2 X49.6638 Y56.8292 Z-0.6333 I-0.0125 J0.0
G2 Y56.8508 Z-0.6667 I0.0063 J0.0108
G2 X49.6825 Y56.84 Z-0.7 I0.0063 J-0.0108
G2 X49.6638 Y56.8292 Z-0.7333 I-0.0125 J0.0
G2 Y56.8508 Z-0.7667 I0.0063 J0.0108
G2 X49.6825 Y56.84 Z-0.8 I0.0063 J-0.0108
G2 X49.6638 Y56.8292 Z-0.8333 I-0.0125 J0.0
G2 Y56.8508 Z-0.8667 I0.0063 J0.0108
G2 X49.6825 Y56.84 Z-0.9 I0.0063 J-0.0108
G2 X49.6638 Y56.8292 Z-0.9333 I-0.0125 J0.0
G2 Y56.8508 Z-0.9667 I0.0063 J0.0108
G2 X49.6825 Y56.84 Z-1.0 I0.0063 J-0.0108
G2 X49.6638 Y56.8292 Z-1.0333 I-0.0125 J0.0
G2 Y56.8508 Z-1.0667 I0.0063 J0.0108
G2 X49.6825 Y56.84 Z-1.1 I0.0063 J-0.0108
G2 X49.6638 Y56.8292 Z-1.1333 I-0.0125 J0.0
G2 Y56.8508 Z-1.1667 I0.0063 J0.0108
G2 X49.6825 Y56.84 Z-1.2 I0.0063 J-0.0108
G2 X49.6638 Y56.8292 Z-1.2333 I-0.0125 J0.0
G2 Y56.8508 Z-1.2667 I0.0063 J0.0108
G2 X49.6825 Y56.84 Z-1.3 I0.0063 J-0.0108
G2 X49.6638 Y56.8292 Z-1.3333 I-0.0125 J0.0
G2 Y56.8508 Z-1.3667 I0.0063 J0.0108
G2 X49.6825 Y56.84 Z-1.4 I0.0063 J-0.0108
G2 X49.6638 Y56.8292 Z-1.4333 I-0.0125 J0.0
G2 Y56.8508 Z-1.4667 I0.0063 J0.0108
G2 X49.6825 Y56.84 Z-1.5 I0.0063 J-0.0108
G2 X49.6638 Y56.8292 Z-1.5333 I-0.0125 J0.0
G2 Y56.8508 Z-1.5667 I0.0063 J0.0108
G2 X49.6825 Y56.84 Z-1.6 I0.0063 J-0.0108
G2 X49.6638 Y56.8292 Z-1.6333 I-0.0125 J0.0
G2 Y56.8508 Z-1.6667 I0.0063 J0.0108
G2 X49.6825 Y56.84 Z-1.7 I0.0063 J-0.0108
G2 X49.6638 Y56.8292 Z-1.7333 I-0.0125 J0.0
G2 Y56.8508 Z-1.7667 I0.0063 J0.0108
G2 X49.6825 Y56.84 Z-1.8 I0.0063 J-0.0108
G2 X49.6638 Y56.8292 Z-1.8333 I-0.0125 J0.0
G2 Y56.8508 Z-1.8667 I0.0063 J0.0108
G2 X49.6825 Y56.84 Z-1.9 I0.0063 J-0.0108
G2 X49.6638 Y56.8292 Z-1.9333 I-0.0125 J0.0
G2 Y56.8508 Z-1.9667 I0.0063 J0.0108
G2 X49.6825 Y56.84 Z-2.0 I0.0063 J-0.0108
G2 X49.6638 Y56.8292 Z-2.0333 I-0.0125 J0.0
G2 Y56.8508 Z-2.0667 I0.0063 J0.0108
G2 X49.6825 Y56.84 Z-2.1 I0.0063 J-0.0108
G2 X49.6638 Y56.8292 Z-2.1333 I-0.0125 J0.0
G2 Y56.8508 Z-2.1667 I0.0063 J0.0108
G2 X49.6825 Y56.84 Z-2.2 I0.0063 J-0.0108
G2 X49.6638 Y56.8292 Z-2.2333 I-0.0125 J0.0
G2 Y56.8508 Z-2.2667 I0.0063 J0.0108
G2 X49.6825 Y56.84 Z-2.3 I0.0063 J-0.0108
G2 X49.6638 Y56.8292 Z-2.3333 I-0.0125 J0.0
G2 Y56.8508 Z-2.3667 I0.0063 J0.0108
G2 X49.6825 Y56.84 Z-2.4 I0.0063 J-0.0108
G2 X49.6638 Y56.8292 Z-2.4333 I-0.0125 J0.0
G2 Y56.8508 Z-2.4667 I0.0063 J0.0108
G2 X49.6825 Y56.84 Z-2.5 I0.0063 J-0.0108
G2 X49.6638 Y56.8292 Z-2.5333 I-0.0125 J0.0
G2 Y56.8508 Z-2.5667 I0.0063 J0.0108
G2 X49.6825 Y56.84 Z-2.6 I0.0063 J-0.0108
G2 X49.6638 Y56.8292 Z-2.6333 I-0.0125 J0.0
G2 Y56.8508 Z-2.6667 I0.0063 J0.0108
G2 X49.6825 Y56.84 Z-2.7 I0.0063 J-0.0108
G2 X49.6638 Y56.8292 Z-2.7333 I-0.0125 J0.0
G2 Y56.8508 Z-2.7667 I0.0063 J0.0108
G2 X49.6825 Y56.84 Z-2.8 I0.0063 J-0.0108
G2 X49.6638 Y56.8292 Z-2.8333 I-0.0125 J0.0
G2 Y56.8508 Z-2.8667 I0.0063 J0.0108
G2 X49.6825 Y56.84 Z-2.9 I0.0063 J-0.0108
G2 X49.6638 Y56.8292 Z-2.9333 I-0.0125 J0.0
G2 Y56.8508 Z-2.9667 I0.0063 J0.0108
G2 X49.6825 Y56.84 Z-3.0 I0.0062 J-0.0108
G2 X49.6638 Y56.8292 Z-3.0333 I-0.0125 J0.0
G2 Y56.8508 Z-3.0667 I0.0063 J0.0108
G2 X49.6825 Y56.84 Z-3.1 I0.0062 J-0.0108
G2 X49.6638 Y56.8292 Z-3.1333 I-0.0125 J0.0
G2 Y56.8508 Z-3.1667 I0.0063 J0.0108
G2 X49.6825 Y56.84 Z-3.2 I0.0062 J-0.0108
G2 X49.6638 Y56.8292 I-0.0125 J0.0
G2 Y56.8508 I0.0063 J0.0108
G2 X49.6825 Y56.84 I0.0062 J-0.0108
G0 Z3.0
G0 Y79.95
G0 Z0.01
G1 F1000.0 Z0.0
G2 F2000.0 X49.6638 Y79.9392 Z-0.0333 I-0.0125 J0.0
G2 Y79.9608 Z-0.0667 I0.0062 J0.0108
G2 X49.6825 Y79.95 Z-0.1 I0.0063 J-0.0108
G2 X49.6638 Y79.9392 Z-0.1333 I-0.0125 J0.0
G2 Y79.9608 Z-0.1667 I0.0062 J0.0108
G2 X49.6825 Y79.95 Z-0.2 I0.0063 J-0.0108
G2 X49.6638 Y79.9392 Z-0.2333 I-0.0125 J0.0
G2 Y79.9608 Z-0.2667 I0.0062 J0.0108
G2 X49.6825 Y79.95 Z-0.3 I0.0063 J-0.0108
G2 X49.6638 Y79.9392 Z-0.3333 I-0.0125 J0.0
G2 Y79.9608 Z-0.3667 I0.0062 J0.0108
G2 X49.6825 Y79.95 Z-0.4 I0.0063 J-0.0108
G2 X49.6638 Y79.9392 Z-0.4333 I-0.0125 J0.0
G2 Y79.9608 Z-0.4667 I0.0062 J0.0108
G2 X49.6825 Y79.95 Z-0.5 I0.0063 J-0.0108
G2 X49.6638 Y79.9392 Z-0.5333 I-0.0125 J0.0
G2 Y79.9608 Z-0.5667 I0.0062 J0.0108
G2 X49.6825 Y79.95 Z-0.6 I0.0063 J-0.0108
G2 X49.6638 Y79.9392 Z-0.6333 I-0.0125 J0.0
G2 Y79.9608 Z-0.6667 I0.0062 J0.0108
G2 X49.6825 Y79.95 Z-0.7 I0.0063 J-0.0108
G2 X49.6638 Y79.9392 Z-0.7333 I-0.0125 J0.0
G2 Y79.9608 Z-0.7667 I0.0062 J0.0108
G2 X49.6825 Y79.95 Z-0.8 I0.0063 J-0.0108
G2 X49.6638 Y79.9392 Z-0.8333 I-0.0125 J0.0
G2 Y79.9608 Z-0.8667 I0.0062 J0.0108
G2 X49.6825 Y79.95 Z-0.9 I0.0063 J-0.0108
G2 X49.6638 Y79.9392 Z-0.9333 I-0.0125 J0.0
G2 Y79.9608 Z-0.9667 I0.0062 J0.0108
G2 X49.6825 Y79.95 Z-1.0 I0.0063 J-0.0108
G2 X49.6638 Y79.9392 Z-1.0333 I-0.0125 J0.0
G2 Y79.9608 Z-1.0667 I0.0062 J0.0108
G2 X49.6825 Y79.95 Z-1.1 I0.0063 J-0.0108
G2 X49.6638 Y79.9392 Z-1.1333 I-0.0125 J0.0
G2 Y79.9608 Z-1.1667 I0.0062 J0.0108
G2 X49.6825 Y79.95 Z-1.2 I0.0063 J-0.0108
G2 X49.6638 Y79.9392 Z-1.2333 I-0.0125 J0.0
G2 Y79.9608 Z-1.2667 I0.0062 J0.0108
G2 X49.6825 Y79.95 Z-1.3 I0.0063 J-0.0108
G2 X49.6638 Y79.9392 Z-1.3333 I-0.0125 J0.0
G2 Y79.9608 Z-1.3667 I0.0062 J0.0108
G2 X49.6825 Y79.95 Z-1.4 I0.0063 J-0.0108
G2 X49.6638 Y79.9392 Z-1.4333 I-0.0125 J0.0
G2 Y79.9608 Z-1.4667 I0.0062 J0.0108
G2 X49.6825 Y79.95 Z-1.5 I0.0063 J-0.0108
G2 X49.6638 Y79.9392 Z-1.5333 I-0.0125 J0.0
G2 Y79.9608 Z-1.5667 I0.0062 J0.0108
G2 X49.6825 Y79.95 Z-1.6 I0.0063 J-0.0108
G2 X49.6638 Y79.9392 Z-1.6333 I-0.0125 J0.0
G2 Y79.9608 Z-1.6667 I0.0062 J0.0108
G2 X49.6825 Y79.95 Z-1.7 I0.0063 J-0.0108
G2 X49.6638 Y79.9392 Z-1.7333 I-0.0125 J0.0
G2 Y79.9608 Z-1.7667 I0.0062 J0.0108
G2 X49.6825 Y79.95 Z-1.8 I0.0063 J-0.0108
G2 X49.6638 Y79.9392 Z-1.8333 I-0.0125 J0.0
G2 Y79.9608 Z-1.8667 I0.0062 J0.0108
G2 X49.6825 Y79.95 Z-1.9 I0.0063 J-0.0108
G2 X49.6638 Y79.9392 Z-1.9333 I-0.0125 J0.0
G2 Y79.9608 Z-1.9667 I0.0062 J0.0108
G2 X49.6825 Y79.95 Z-2.0 I0.0063 J-0.0108
G2 X49.6638 Y79.9392 Z-2.0333 I-0.0125 J0.0
G2 Y79.9608 Z-2.0667 I0.0062 J0.0108
G2 X49.6825 Y79.95 Z-2.1 I0.0063 J-0.0108
G2 X49.6638 Y79.9392 Z-2.1333 I-0.0125 J0.0
G2 Y79.9608 Z-2.1667 I0.0062 J0.0108
G2 X49.6825 Y79.95 Z-2.2 I0.0063 J-0.0108
G2 X49.6638 Y79.9392 Z-2.2333 I-0.0125 J0.0
G2 Y79.9608 Z-2.2667 I0.0062 J0.0108
G2 X49.6825 Y79.95 Z-2.3 I0.0063 J-0.0108
G2 X49.6638 Y79.9392 Z-2.3333 I-0.0125 J0.0
G2 Y79.9608 Z-2.3667 I0.0062 J0.0108
G2 X49.6825 Y79.95 Z-2.4 I0.0063 J-0.0108
G2 X49.6638 Y79.9392 Z-2.4333 I-0.0125 J0.0
G2 Y79.9608 Z-2.4667 I0.0062 J0.0108
G2 X49.6825 Y79.95 Z-2.5 I0.0063 J-0.0108
G2 X49.6638 Y79.9392 Z-2.5333 I-0.0125 J0.0
G2 Y79.9608 Z-2.5667 I0.0062 J0.0108
G2 X49.6825 Y79.95 Z-2.6 I0.0063 J-0.0108
G2 X49.6638 Y79.9392 Z-2.6333 I-0.0125 J0.0
G2 Y79.9608 Z-2.6667 I0.0062 J0.0108
G2 X49.6825 Y79.95 Z-2.7 I0.0063 J-0.0108
G2 X49.6638 Y79.9392 Z-2.7333 I-0.0125 J0.0
G2 Y79.9608 Z-2.7667 I0.0062 J0.0108
G2 X49.6825 Y79.95 Z-2.8 I0.0063 J-0.0108
G2 X49.6638 Y79.9392 Z-2.8333 I-0.0125 J0.0
G2 Y79.9608 Z-2.8667 I0.0062 J0.0108
G2 X49.6825 Y79.95 Z-2.9 I0.0063 J-0.0108
G2 X49.6638 Y79.9392 Z-2.9333 I-0.0125 J0.0
G2 Y79.9608 Z-2.9667 I0.0063 J0.0108
G2 X49.6825 Y79.95 Z-3.0 I0.0063 J-0.0108
G2 X49.6638 Y79.9392 Z-3.0333 I-0.0125 J0.0
G2 Y79.9608 Z-3.0667 I0.0063 J0.0108
G2 X49.6825 Y79.95 Z-3.1 I0.0063 J-0.0108
G2 X49.6638 Y79.9392 Z-3.1333 I-0.0125 J0.0
G2 Y79.9608 Z-3.1667 I0.0063 J0.0108
G2 X49.6825 Y79.95 Z-3.2 I0.0063 J-0.0108
G2 X49.6638 Y79.9392 I-0.0125 J0.0
G2 Y79.9608 I0.0063 J0.0108
G2 X49.6825 Y79.95 I0.0062 J-0.0108
G0 Z3.0
G0 X50.1425 Y98.71
G0 Z0.01
G1 F1000.0 Z0.0
G2 F2000.0 X50.1238 Y98.6992 Z-0.0333 I-0.0125 J0.0
G2 Y98.7208 Z-0.0667 I0.0062 J0.0108
G2 X50.1425 Y98.71 Z-0.1 I0.0063 J-0.0108
G2 X50.1238 Y98.6992 Z-0.1333 I-0.0125 J0.0
G2 Y98.7208 Z-0.1667 I0.0062 J0.0108
G2 X50.1425 Y98.71 Z-0.2 I0.0063 J-0.0108
G2 X50.1238 Y98.6992 Z-0.2333 I-0.0125 J0.0
G2 Y98.7208 Z-0.2667 I0.0062 J0.0108
G2 X50.1425 Y98.71 Z-0.3 I0.0063 J-0.0108
G2 X50.1238 Y98.6992 Z-0.3333 I-0.0125 J0.0
G2 Y98.7208 Z-0.3667 I0.0062 J0.0108
G2 X50.1425 Y98.71 Z-0.4 I0.0063 J-0.0108
G2 X50.1238 Y98.6992 Z-0.4333 I-0.0125 J0.0
G2 Y98.7208 Z-0.4667 I0.0062 J0.0108
G2 X50.1425 Y98.71 Z-0.5 I0.0063 J-0.0108
G2 X50.1238 Y98.6992 Z-0.5333 I-0.0125 J0.0
G2 Y98.7208 Z-0.5667 I0.0062 J0.0108
G2 X50.1425 Y98.71 Z-0.6 I0.0063 J-0.0108
G2 X50.1238 Y98.6992 Z-0.6333 I-0.0125 J0.0
G2 Y98.7208 Z-0.6667 I0.0062 J0.0108
G2 X50.1425 Y98.71 Z-0.7 I0.0063 J-0.0108
G2 X50.1238 Y98.6992 Z-0.7333 I-0.0125 J0.0
G2 Y98.7208 Z-0.7667 I0.0062 J0.0108
G2 X50.1425 Y98.71 Z-0.8 I0.0063 J-0.0108
G2 X50.1238 Y98.6992 Z-0.8333 I-0.0125 J0.0
G2 Y98.7208 Z-0.8667 I0.0062 J0.0108
G2 X50.1425 Y98.71 Z-0.9 I0.0063 J-0.0108
G2 X50.1238 Y98.6992 Z-0.9333 I-0.0125 J0.0
G2 Y98.7208 Z-0.9667 I0.0062 J0.0108
G2 X50.1425 Y98.71 Z-1.0 I0.0063 J-0.0108
G2 X50.1238 Y98.6992 Z-1.0333 I-0.0125 J0.0
G2 Y98.7208 Z-1.0667 I0.0062 J0.0108
G2 X50.1425 Y98.71 Z-1.1 I0.0063 J-0.0108
G2 X50.1238 Y98.6992 Z-1.1333 I-0.0125 J0.0
G2 Y98.7208 Z-1.1667 I0.0062 J0.0108
G2 X50.1425 Y98.71 Z-1.2 I0.0063 J-0.0108
G2 X50.1238 Y98.6992 Z-1.2333 I-0.0125 J0.0
G2 Y98.7208 Z-1.2667 I0.0062 J0.0108
G2 X50.1425 Y98.71 Z-1.3 I0.0063 J-0.0108
G2 X50.1238 Y98.6992 Z-1.3333 I-0.0125 J0.0
G2 Y98.7208 Z-1.3667 I0.0062 J0.0108
G2 X50.1425 Y98.71 Z-1.4 I0.0063 J-0.0108
G2 X50.1238 Y98.6992 Z-1.4333 I-0.0125 J0.0
G2 Y98.7208 Z-1.4667 I0.0062 J0.0108
G2 X50.1425 Y98.71 Z-1.5 I0.0063 J-0.0108
G2 X50.1238 Y98.6992 Z-1.5333 I-0.0125 J0.0
G2 Y98.7208 Z-1.5667 I0.0062 J0.0108
G2 X50.1425 Y98.71 Z-1.6 I0.0063 J-0.0108
G2 X50.1238 Y98.6992 Z-1.6333 I-0.0125 J0.0
G2 Y98.7208 Z-1.6667 I0.0062 J0.0108
G2 X50.1425 Y98.71 Z-1.7 I0.0063 J-0.0108
G2 X50.1238 Y98.6992 Z-1.7333 I-0.0125 J0.0
G2 Y98.7208 Z-1.7667 I0.0062 J0.0108
G2 X50.1425 Y98.71 Z-1.8 I0.0063 J-0.0108
G2 X50.1238 Y98.6992 Z-1.8333 I-0.0125 J0.0
G2 Y98.7208 Z-1.8667 I0.0062 J0.0108
G2 X50.1425 Y98.71 Z-1.9 I0.0063 J-0.0108
G2 X50.1238 Y98.6992 Z-1.9333 I-0.0125 J0.0
G2 Y98.7208 Z-1.9667 I0.0062 J0.0108
G2 X50.1425 Y98.71 Z-2.0 I0.0063 J-0.0108
G2 X50.1238 Y98.6992 Z-2.0333 I-0.0125 J0.0
G2 Y98.7208 Z-2.0667 I0.0062 J0.0108
G2 X50.1425 Y98.71 Z-2.1 I0.0063 J-0.0108
G2 X50.1238 Y98.6992 Z-2.1333 I-0.0125 J0.0
G2 Y98.7208 Z-2.1667 I0.0062 J0.0108
G2 X50.1425 Y98.71 Z-2.2 I0.0063 J-0.0108
G2 X50.1238 Y98.6992 Z-2.2333 I-0.0125 J0.0
G2 Y98.7208 Z-2.2667 I0.0062 J0.0108
G2 X50.1425 Y98.71 Z-2.3 I0.0063 J-0.0108
G2 X50.1238 Y98.6992 Z-2.3333 I-0.0125 J0.0
G2 Y98.7208 Z-2.3667 I0.0062 J0.0108
G2 X50.1425 Y98.71 Z-2.4 I0.0063 J-0.0108
G2 X50.1238 Y98.6992 Z-2.4333 I-0.0125 J0.0
G2 Y98.7208 Z-2.4667 I0.0062 J0.0108
G2 X50.1425 Y98.71 Z-2.5 I0.0063 J-0.0108
G2 X50.1238 Y98.6992 Z-2.5333 I-0.0125 J0.0
G2 Y98.7208 Z-2.5667 I0.0062 J0.0108
G2 X50.1425 Y98.71 Z-2.6 I0.0063 J-0.0108
G2 X50.1238 Y98.6992 Z-2.6333 I-0.0125 J0.0
G2 Y98.7208 Z-2.6667 I0.0062 J0.0108
G2 X50.1425 Y98.71 Z-2.7 I0.0063 J-0.0108
G2 X50.1238 Y98.6992 Z-2.7333 I-0.0125 J0.0
G2 Y98.7208 Z-2.7667 I0.0062 J0.0108
G2 X50.1425 Y98.71 Z-2.8 I0.0063 J-0.0108
G2 X50.1238 Y98.6992 Z-2.8333 I-0.0125 J0.0
G2 Y98.7208 Z-2.8667 I0.0062 J0.0108
G2 X50.1425 Y98.71 Z-2.9 I0.0063 J-0.0108
G2 X50.1238 Y98.6992 Z-2.9333 I-0.0125 J0.0
G2 Y98.7208 Z-2.9667 I0.0063 J0.0108
G2 X50.1425 Y98.71 Z-3.0 I0.0063 J-0.0108
G2 X50.1238 Y98.6992 Z-3.0333 I-0.0125 J0.0
G2 Y98.7208 Z-3.0667 I0.0063 J0.0108
G2 X50.1425 Y98.71 Z-3.1 I0.0063 J-0.0108
G2 X50.1238 Y98.6992 Z-3.1333 I-0.0125 J0.0
G2 Y98.7208 Z-3.1667 I0.0063 J0.0108
G2 X50.1425 Y98.71 Z-3.2 I0.0063 J-0.0108
G2 X50.1238 Y98.6992 I-0.0125 J0.0
G2 Y98.7208 I0.0063 J0.0108
G2 X50.1425 Y98.71 I0.0062 J-0.0108
G0 Z3.0
G0 X49.9825 Y112.09
G0 Z0.01
G1 F1000.0 Z0.0
G2 F2000.0 X49.9638 Y112.0792 Z-0.0333 I-0.0125 J0.0
G2 Y112.1008 Z-0.0667 I0.0062 J0.0108
G2 X49.9825 Y112.09 Z-0.1 I0.0063 J-0.0108
G2 X49.9638 Y112.0792 Z-0.1333 I-0.0125 J0.0
G2 Y112.1008 Z-0.1667 I0.0062 J0.0108
G2 X49.9825 Y112.09 Z-0.2 I0.0063 J-0.0108
G2 X49.9638 Y112.0792 Z-0.2333 I-0.0125 J0.0
G2 Y112.1008 Z-0.2667 I0.0062 J0.0108
G2 X49.9825 Y112.09 Z-0.3 I0.0063 J-0.0108
G2 X49.9638 Y112.0792 Z-0.3333 I-0.0125 J0.0
G2 Y112.1008 Z-0.3667 I0.0062 J0.0108
G2 X49.9825 Y112.09 Z-0.4 I0.0063 J-0.0108
G2 X49.9638 Y112.0792 Z-0.4333 I-0.0125 J0.0
G2 Y112.1008 Z-0.4667 I0.0062 J0.0108
G2 X49.9825 Y112.09 Z-0.5 I0.0063 J-0.0108
G2 X49.9638 Y112.0792 Z-0.5333 I-0.0125 J0.0
G2 Y112.1008 Z-0.5667 I0.0062 J0.0108
G2 X49.9825 Y112.09 Z-0.6 I0.0063 J-0.0108
G2 X49.9638 Y112.0792 Z-0.6333 I-0.0125 J0.0
G2 Y112.1008 Z-0.6667 I0.0062 J0.0108
G2 X49.9825 Y112.09 Z-0.7 I0.0063 J-0.0108
G2 X49.9638 Y112.0792 Z-0.7333 I-0.0125 J0.0
G2 Y112.1008 Z-0.7667 I0.0062 J0.0108
G2 X49.9825 Y112.09 Z-0.8 I0.0063 J-0.0108
G2 X49.9638 Y112.0792 Z-0.8333 I-0.0125 J0.0
G2 Y112.1008 Z-0.8667 I0.0062 J0.0108
G2 X49.9825 Y112.09 Z-0.9 I0.0063 J-0.0108
G2 X49.9638 Y112.0792 Z-0.9333 I-0.0125 J0.0
G2 Y112.1008 Z-0.9667 I0.0062 J0.0108
G2 X49.9825 Y112.09 Z-1.0 I0.0063 J-0.0108
G2 X49.9638 Y112.0792 Z-1.0333 I-0.0125 J0.0
G2 Y112.1008 Z-1.0667 I0.0062 J0.0108
G2 X49.9825 Y112.09 Z-1.1 I0.0063 J-0.0108
G2 X49.9638 Y112.0792 Z-1.1333 I-0.0125 J0.0
G2 Y112.1008 Z-1.1667 I0.0062 J0.0108
G2 X49.9825 Y112.09 Z-1.2 I0.0063 J-0.0108
G2 X49.9638 Y112.0792 Z-1.2333 I-0.0125 J0.0
G2 Y112.1008 Z-1.2667 I0.0062 J0.0108
G2 X49.9825 Y112.09 Z-1.3 I0.0063 J-0.0108
G2 X49.9638 Y112.0792 Z-1.3333 I-0.0125 J0.0
G2 Y112.1008 Z-1.3667 I0.0062 J0.0108
G2 X49.9825 Y112.09 Z-1.4 I0.0063 J-0.0108
G2 X49.9638 Y112.0792 Z-1.4333 I-0.0125 J0.0
G2 Y112.1008 Z-1.4667 I0.0062 J0.0108
G2 X49.9825 Y112.09 Z-1.5 I0.0063 J-0.0108
G2 X49.9638 Y112.0792 Z-1.5333 I-0.0125 J0.0
G2 Y112.1008 Z-1.5667 I0.0062 J0.0108
G2 X49.9825 Y112.09 Z-1.6 I0.0063 J-0.0108
G2 X49.9638 Y112.0792 Z-1.6333 I-0.0125 J0.0
G2 Y112.1008 Z-1.6667 I0.0062 J0.0108
G2 X49.9825 Y112.09 Z-1.7 I0.0063 J-0.0108
G2 X49.9638 Y112.0792 Z-1.7333 I-0.0125 J0.0
G2 Y112.1008 Z-1.7667 I0.0062 J0.0108
G2 X49.9825 Y112.09 Z-1.8 I0.0063 J-0.0108
G2 X49.9638 Y112.0792 Z-1.8333 I-0.0125 J0.0
G2 Y112.1008 Z-1.8667 I0.0062 J0.0108
G2 X49.9825 Y112.09 Z-1.9 I0.0063 J-0.0108
G2 X49.9638 Y112.0792 Z-1.9333 I-0.0125 J0.0
G2 Y112.1008 Z-1.9667 I0.0062 J0.0108
G2 X49.9825 Y112.09 Z-2.0 I0.0063 J-0.0108
G2 X49.9638 Y112.0792 Z-2.0333 I-0.0125 J0.0
G2 Y112.1008 Z-2.0667 I0.0062 J0.0108
G2 X49.9825 Y112.09 Z-2.1 I0.0063 J-0.0108
G2 X49.9638 Y112.0792 Z-2.1333 I-0.0125 J0.0
G2 Y112.1008 Z-2.1667 I0.0062 J0.0108
G2 X49.9825 Y112.09 Z-2.2 I0.0063 J-0.0108
G2 X49.9638 Y112.0792 Z-2.2333 I-0.0125 J0.0
G2 Y112.1008 Z-2.2667 I0.0062 J0.0108
G2 X49.9825 Y112.09 Z-2.3 I0.0063 J-0.0108
G2 X49.9638 Y112.0792 Z-2.3333 I-0.0125 J0.0
G2 Y112.1008 Z-2.3667 I0.0062 J0.0108
G2 X49.9825 Y112.09 Z-2.4 I0.0063 J-0.0108
G2 X49.9638 Y112.0792 Z-2.4333 I-0.0125 J0.0
G2 Y112.1008 Z-2.4667 I0.0062 J0.0108
G2 X49.9825 Y112.09 Z-2.5 I0.0063 J-0.0108
G2 X49.9638 Y112.0792 Z-2.5333 I-0.0125 J0.0
G2 Y112.1008 Z-2.5667 I0.0062 J0.0108
G2 X49.9825 Y112.09 Z-2.6 I0.0063 J-0.0108
G2 X49.9638 Y112.0792 Z-2.6333 I-0.0125 J0.0
G2 Y112.1008 Z-2.6667 I0.0062 J0.0108
G2 X49.9825 Y112.09 Z-2.7 I0.0063 J-0.0108
G2 X49.9638 Y112.0792 Z-2.7333 I-0.0125 J0.0
G2 Y112.1008 Z-2.7667 I0.0062 J0.0108
G2 X49.9825 Y112.09 Z-2.8 I0.0063 J-0.0108
G2 X49.9638 Y112.0792 Z-2.8333 I-0.0125 J0.0
G2 Y112.1008 Z-2.8667 I0.0062 J0.0108
G2 X49.9825 Y112.09 Z-2.9 I0.0063 J-0.0108
G2 X49.9638 Y112.0792 Z-2.9333 I-0.0125 J0.0
G2 Y112.1008 Z-2.9667 I0.0063 J0.0108
G2 X49.9825 Y112.09 Z-3.0 I0.0063 J-0.0108
G2 X49.9638 Y112.0792 Z-3.0333 I-0.0125 J0.0
G2 Y112.1008 Z-3.0667 I0.0063 J0.0108
G2 X49.9825 Y112.09 Z-3.1 I0.0063 J-0.0108
G2 X49.9638 Y112.0792 Z-3.1333 I-0.0125 J0.0
G2 Y112.1008 Z-3.1667 I0.0063 J0.0108
G2 X49.9825 Y112.09 Z-3.2 I0.0063 J-0.0108
G2 X49.9638 Y112.0792 I-0.0125 J0.0
G2 Y112.1008 I0.0063 J0.0108
G2 X49.9825 Y112.09 I0.0062 J-0.0108
G0 Z3.0
G0 X53.2325 Y125.5
G0 Z0.01
G1 F1000.0 Z0.0
G2 F2000.0 X53.2137 Y125.4892 Z-0.0333 I-0.0125 J0.0
G2 Y125.5108 Z-0.0667 I0.0062 J0.0108
G2 X53.2325 Y125.5 Z-0.1 I0.0063 J-0.0108
G2 X53.2137 Y125.4892 Z-0.1333 I-0.0125 J0.0
G2 Y125.5108 Z-0.1667 I0.0062 J0.0108
G2 X53.2325 Y125.5 Z-0.2 I0.0063 J-0.0108
G2 X53.2137 Y125.4892 Z-0.2333 I-0.0125 J0.0
G2 Y125.5108 Z-0.2667 I0.0062 J0.0108
G2 X53.2325 Y125.5 Z-0.3 I0.0063 J-0.0108
G2 X53.2137 Y125.4892 Z-0.3333 I-0.0125 J0.0
G2 Y125.5108 Z-0.3667 I0.0062 J0.0108
G2 X53.2325 Y125.5 Z-0.4 I0.0063 J-0.0108
G2 X53.2137 Y125.4892 Z-0.4333 I-0.0125 J0.0
G2 Y125.5108 Z-0.4667 I0.0062 J0.0108
G2 X53.2325 Y125.5 Z-0.5 I0.0063 J-0.0108
G2 X53.2137 Y125.4892 Z-0.5333 I-0.0125 J0.0
G2 Y125.5108 Z-0.5667 I0.0062 J0.0108
G2 X53.2325 Y125.5 Z-0.6 I0.0063 J-0.0108
G2 X53.2137 Y125.4892 Z-0.6333 I-0.0125 J0.0
G2 Y125.5108 Z-0.6667 I0.0062 J0.0108
G2 X53.2325 Y125.5 Z-0.7 I0.0063 J-0.0108
G2 X53.2137 Y125.4892 Z-0.7333 I-0.0125 J0.0
G2 Y125.5108 Z-0.7667 I0.0062 J0.0108
G2 X53.2325 Y125.5 Z-0.8 I0.0063 J-0.0108
G2 X53.2137 Y125.4892 Z-0.8333 I-0.0125 J0.0
G2 Y125.5108 Z-0.8667 I0.0062 J0.0108
G2 X53.2325 Y125.5 Z-0.9 I0.0063 J-0.0108
G2 X53.2137 Y125.4892 Z-0.9333 I-0.0125 J0.0
G2 Y125.5108 Z-0.9667 I0.0062 J0.0108
G2 X53.2325 Y125.5 Z-1.0 I0.0063 J-0.0108
G2 X53.2137 Y125.4892 Z-1.0333 I-0.0125 J0.0
G2 Y125.5108 Z-1.0667 I0.0062 J0.0108
G2 X53.2325 Y125.5 Z-1.1 I0.0063 J-0.0108
G2 X53.2137 Y125.4892 Z-1.1333 I-0.0125 J0.0
G2 Y125.5108 Z-1.1667 I0.0062 J0.0108
G2 X53.2325 Y125.5 Z-1.2 I0.0063 J-0.0108
G2 X53.2137 Y125.4892 Z-1.2333 I-0.0125 J0.0
G2 Y125.5108 Z-1.2667 I0.0062 J0.0108
G2 X53.2325 Y125.5 Z-1.3 I0.0063 J-0.0108
G2 X53.2137 Y125.4892 Z-1.3333 I-0.0125 J0.0
G2 Y125.5108 Z-1.3667 I0.0062 J0.0108
G2 X53.2325 Y125.5 Z-1.4 I0.0063 J-0.0108
G2 X53.2137 Y125.4892 Z-1.4333 I-0.0125 J0.0
G2 Y125.5108 Z-1.4667 I0.0062 J0.0108
G2 X53.2325 Y125.5 Z-1.5 I0.0063 J-0.0108
G2 X53.2137 Y125.4892 Z-1.5333 I-0.0125 J0.0
G2 Y125.5108 Z-1.5667 I0.0062 J0.0108
G2 X53.2325 Y125.5 Z-1.6 I0.0063 J-0.0108
G2 X53.2137 Y125.4892 Z-1.6333 I-0.0125 J0.0
G2 Y125.5108 Z-1.6667 I0.0062 J0.0108
G2 X53.2325 Y125.5 Z-1.7 I0.0063 J-0.0108
G2 X53.2137 Y125.4892 Z-1.7333 I-0.0125 J0.0
G2 Y125.5108 Z-1.7667 I0.0062 J0.0108
G2 X53.2325 Y125.5 Z-1.8 I0.0063 J-0.0108
G2 X53.2137 Y125.4892 Z-1.8333 I-0.0125 J0.0
G2 Y125.5108 Z-1.8667 I0.0062 J0.0108
G2 X53.2325 Y125.5 Z-1.9 I0.0063 J-0.0108
G2 X53.2137 Y125.4892 Z-1.9333 I-0.0125 J0.0
G2 Y125.5108 Z-1.9667 I0.0062 J0.0108
G2 X53.2325 Y125.5 Z-2.0 I0.0063 J-0.0108
G2 X53.2137 Y125.4892 Z-2.0333 I-0.0125 J0.0
G2 Y125.5108 Z-2.0667 I0.0062 J0.0108
G2 X53.2325 Y125.5 Z-2.1 I0.0063 J-0.0108
G2 X53.2137 Y125.4892 Z-2.1333 I-0.0125 J0.0
G2 Y125.5108 Z-2.1667 I0.0062 J0.0108
G2 X53.2325 Y125.5 Z-2.2 I0.0063 J-0.0108
G2 X53.2137 Y125.4892 Z-2.2333 I-0.0125 J0.0
G2 Y125.5108 Z-2.2667 I0.0062 J0.0108
G2 X53.2325 Y125.5 Z-2.3 I0.0063 J-0.0108
G2 X53.2137 Y125.4892 Z-2.3333 I-0.0125 J0.0
G2 Y125.5108 Z-2.3667 I0.0062 J0.0108
G2 X53.2325 Y125.5 Z-2.4 I0.0063 J-0.0108
G2 X53.2137 Y125.4892 Z-2.4333 I-0.0125 J0.0
G2 Y125.5108 Z-2.4667 I0.0062 J0.0108
G2 X53.2325 Y125.5 Z-2.5 I0.0063 J-0.0108
G2 X53.2137 Y125.4892 Z-2.5333 I-0.0125 J0.0
G2 Y125.5108 Z-2.5667 I0.0062 J0.0108
G2 X53.2325 Y125.5 Z-2.6 I0.0063 J-0.0108
G2 X53.2137 Y125.4892 Z-2.6333 I-0.0125 J0.0
G2 Y125.5108 Z-2.6667 I0.0062 J0.0108
G2 X53.2325 Y125.5 Z-2.7 I0.0063 J-0.0108
G2 X53.2137 Y125.4892 Z-2.7333 I-0.0125 J0.0
G2 Y125.5108 Z-2.7667 I0.0062 J0.0108
G2 X53.2325 Y125.5 Z-2.8 I0.0063 J-0.0108
G2 X53.2137 Y125.4892 Z-2.8333 I-0.0125 J0.0
G2 Y125.5108 Z-2.8667 I0.0062 J0.0108
G2 X53.2325 Y125.5 Z-2.9 I0.0063 J-0.0108
G2 X53.2137 Y125.4892 Z-2.9333 I-0.0125 J0.0
G2 Y125.5108 Z-2.9667 I0.0063 J0.0108
G2 X53.2325 Y125.5 Z-3.0 I0.0063 J-0.0108
G2 X53.2137 Y125.4892 Z-3.0333 I-0.0125 J0.0
G2 Y125.5108 Z-3.0667 I0.0063 J0.0108
G2 X53.2325 Y125.5 Z-3.1 I0.0063 J-0.0108
G2 X53.2137 Y125.4892 Z-3.1333 I-0.0125 J0.0
