( Made using CamBam - http://www.cambam.co.uk )
( single_vcf_panel 1/31/2015 12:44:12 PM )
( T3 : 3.175 )
( T10 : 0.0 )
G21 G90 G61 G40
G0 Z3.0
( T10 : 0.0 )
T10 M6
( Engrave1 )
G17
M3 S1000
G0 X10.615 Y93.5383
G0 Z0.648
G1 F1000.0 Z-0.002
G2 F2000.0 X9.4654 Y93.7545 I0.0047 J3.1893
G2 X8.4634 Y94.3926 I1.0905 J2.8181
G2 X7.7462 Y95.4262 I2.2511 J2.3276
G2 X7.472 Y96.8448 I3.2005 J1.3545
G2 X7.6988 Y98.0313 I3.3195 J-0.0195
G2 X8.3632 Y99.0965 I3.0249 J-1.147
G2 X9.4548 Y99.8559 I2.436 J-2.3375
G2 X10.9472 Y100.1512 I1.4253 J-3.2845
G1 X11.2162
G1 X10.9472
G3 X10.1852 Y100.0837 I-0.0189 J-4.1234
G3 X9.4548 Y99.8559 I0.5724 J-3.1191
G3 X8.3632 Y99.0965 I1.3444 J-3.0968
G3 X7.6988 Y98.0313 I2.3604 J-2.2122
G3 X7.472 Y96.8448 I3.0927 J-1.206
G3 X7.7462 Y95.4262 I3.4745 J-0.0641
G3 X8.4634 Y94.3926 I2.9684 J1.2941
G3 X9.4654 Y93.7545 I2.0925 J2.18
G3 X10.615 Y93.5383 I1.1542 J2.9727
G1 X11.2162
G1 X10.615
G0 Z3.0
G0 X14.5543 Y94.1026
G0 Z0.648
G1 F1000.0 Z-0.002
G3 F2000.0 X14.6669 Y93.8155 I4.9029 J1.7581
G3 X14.8127 Y93.5436 I1.3248 J0.5352
G3 X14.8975 Y93.4589 I0.4636 J0.3793
G3 X15.0078 Y93.4118 I0.1254 J0.141
G3 X15.1141 Y93.4613 I-0.0226 J0.1874
G3 X15.1976 Y93.5436 I-0.4608 J0.5509
G3 X15.3516 Y93.8126 I-0.8694 J0.6763
G3 X15.4613 Y94.1026 I-3.4866 J1.4844
G1 X17.4283 Y100.1512
G1 X15.4613 Y94.1026
G2 X15.3516 Y93.8126 I-3.5919 J1.1928
G2 X15.1976 Y93.5436 I-1.0236 J0.4073
G2 X15.1141 Y93.4613 I-0.5456 J0.47
G2 X15.0078 Y93.4118 I-0.1289 J0.1379
G2 X14.8975 Y93.4589 I0.0151 J0.1881
G2 X14.8127 Y93.5436 I0.3801 J0.4654
G2 X14.6669 Y93.8155 I1.1803 J0.8077
G2 X14.5543 Y94.1026 I4.7639 J2.0349
G1 X12.5134 Y100.1512
G1 X14.5543 Y94.1026
G0 Z3.0
G0 X14.2735 Y82.1582
G0 Z0.648
G1 F1000.0 Z-0.002
G1 F2000.0 X13.5721
G3 X12.7987 Y82.0533 I-0.0391 J-2.6155
G3 X12.1324 Y81.6467 I0.4199 J-1.437
G3 X11.7538 Y80.9427 I1.2259 J-1.1131
G3 X11.6578 Y80.149 I2.9095 J-0.7545
G1 Y75.5453
G1 Y80.149
G2 X11.7538 Y80.9427 I3.0054 J0.0391
G2 X12.1324 Y81.6467 I1.6046 J-0.4091
G2 X12.7987 Y82.0533 I1.0861 J-1.0303
G2 X13.5721 Y82.1582 I0.7343 J-2.5105
G1 X14.2735
G0 Z3.0
G0 Y78.8307
G0 Z0.648
G1 F1000.0 Z-0.002
G1 F2000.0 X11.6578
G1 X14.2735
G0 Z3.0
G0 X12.3359 Y54.1453
G0 Z0.648
G1 F1000.0 Z-0.002
G3 F2000.0 X13.6226 Y54.4723 I-0.1719 J3.3721
G3 X14.6404 Y55.2264 I-1.4876 J3.0717
G3 X15.3048 Y56.2916 I-2.5051 J2.3024
G3 X15.5421 Y57.5678 I-3.2338 J1.2615
G3 X15.2837 Y58.8914 I-3.4174 J0.0199
G3 X14.5718 Y59.983 I-3.2104 J-1.3158
G3 X13.4908 Y60.7266 I-2.4031 J-2.3362
G3 X12.1197 Y61.0061 I-1.3367 J-3.0548
G3 X10.7486 Y60.7266 I-0.0343 J-3.3343
G3 X9.6675 Y59.983 I1.322 J-3.0797
G3 X8.9556 Y58.8914 I2.4985 J-2.4074
G3 X8.6972 Y57.5678 I3.1591 J-1.3038
G3 X8.8501 Y56.5289 I3.5388 J-0.0097
G3 X9.2878 Y55.6166 I3.418 J1.0787
G3 X9.9681 Y54.8836 I2.9056 J2.0144
G3 X10.8593 Y54.3721 I2.1906 J2.7845
G2 X9.9681 Y54.8836 I1.2994 J3.296
G2 X9.2878 Y55.6166 I2.2251 J2.7472
G2 X8.8501 Y56.5289 I2.98 J1.9909
G2 X8.6972 Y57.5678 I3.3854 J1.029
G2 X8.9556 Y58.8914 I3.4174 J0.0199
G2 X9.6675 Y59.983 I3.2104 J-1.3158
G2 X10.7486 Y60.7266 I2.4031 J-2.3362
G2 X12.1197 Y61.0061 I1.3367 J-3.0548
G2 X13.4908 Y60.7266 I0.0343 J-3.3343
G2 X14.5718 Y59.983 I-1.322 J-3.0797
G2 X15.2837 Y58.8914 I-2.4985 J-2.4074
G2 X15.5421 Y57.5678 I-3.1591 J-1.3038
G2 X15.3048 Y56.2916 I-3.4712 J-0.0147
G2 X14.6404 Y55.2264 I-3.1697 J1.2373
G2 X13.6226 Y54.4723 I-2.5055 J2.3177
G2 X12.3359 Y54.1453 I-1.4587 J3.0452
G0 Z3.0
G0 Y55.7748
G0 Z0.648
G1 F1000.0 Z-0.002
G1 F2000.0 Y52.7109
G1 Y55.7748
G0 Z3.0
G0 X11.3869 Y41.8491
G0 Z0.648
G1 F1000.0 Z-0.002
G1 F2000.0 Y34.5015
G1 Y41.8491
G0 Z3.0
G0 X13.9254 Y40.7507
G0 Z0.648
G1 F1000.0 Z-0.002
G2 F2000.0 X14.2228 Y41.2515 I2.1012 J-0.9092
G2 X14.8791 Y41.7905 I1.5254 J-1.188
G2 X15.8459 Y41.9956 I0.9129 J-1.9221
G2 X16.8361 Y41.7964 I0.0593 J-2.266
G2 X17.5216 Y41.2808 I-0.8616 J-1.8591
G2 X17.9142 Y40.5835 I-1.4763 J-1.2903
G2 X18.0431 Y39.8218 I-2.2352 J-0.77
G2 X17.9259 Y39.0894 I-2.4929 J0.0233
G2 X17.5802 Y38.4038 I-2.0523 J0.605
G2 X16.9709 Y37.8823 I-1.5434 J1.1867
G2 X16.0861 Y37.6714 I-0.8377 J1.5525
G1 X15.2482
G1 X16.0861
G3 X16.9709 Y37.8823 I0.0471 J1.7633
G3 X17.5802 Y38.4038 I-0.934 J1.7082
G3 X17.9259 Y39.0894 I-1.7064 J1.2904
G3 X18.0431 Y39.8218 I-2.3752 J0.7556
G3 X17.9142 Y40.5835 I-2.3643 J-0.0083
G3 X17.5216 Y41.2808 I-1.869 J-0.5931
G3 X16.8361 Y41.7964 I-1.5471 J-1.3434
G3 X15.8459 Y41.9956 I-0.9309 J-2.0666
G3 X14.8791 Y41.7905 I-0.0539 J-2.1272
G3 X14.2228 Y41.2515 I0.8692 J-1.7271
G3 X13.8361 Y40.5073 I1.8041 J-1.4101
G3 X13.713 Y39.6636 I2.7977 J-0.8388
G1 Y34.5073
G1 Y39.6636
G2 X13.8361 Y40.5073 I2.9205 J0.0049
G2 X13.9254 Y40.7507 I2.1905 J-0.6658
G0 Z3.0
G0 X11.3869 Y38.3218
G0 Z0.648
G1 F1000.0 Z-0.002
G1 F2000.0 X6.6115
G1 X11.3869
G0 Z3.0
G0 X6.6115 Y41.8491
G0 Z0.648
G1 F1000.0 Z-0.002
G1 F2000.0 Y34.5015
G1 Y41.8491
G0 Z3.0
G0 X8.4778 Y30.0284
G0 Z0.648
G1 F1000.0 Z-0.002
G2 F2000.0 X8.886 Y30.0556 I0.355 J-2.2482
G2 X9.7942 Y29.9091 I0.0459 J-2.6043
G2 X10.4622 Y29.5107 I-0.6466 J-1.8432
G2 X10.8665 Y28.9248 I-1.0285 J-1.1421
G2 X11.0013 Y28.2041 I-1.7743 J-0.7047
G2 X10.8899 Y27.542 I-2.049 J0.0041
G2 X10.5501 Y26.9619 I-1.5105 J0.4954
G2 X9.9348 Y26.54 I-1.2808 J1.2083
G2 X9.0208 Y26.3818 I-0.8543 J2.2164
G1 X8.2649
G1 X9.0208
G2 X10.1165 Y26.2353 I0.0738 J-3.6192
G2 X10.8489 Y25.8369 I-0.5823 J-1.9428
G2 X11.2532 Y25.2334 I-0.9514 J-1.0745
G2 X11.3821 Y24.4482 I-2.1445 J-0.7552
G2 X11.3388 Y23.9637 I-2.5266 J-0.0183
G2 X11.177 Y23.5048 I-1.5349 J0.2832
G2 X10.6614 Y22.9306 I-1.4133 J0.7505
G2 X9.9817 Y22.6435 I-1.0535 J1.546
G2 X9.2845 Y22.5673 I-0.7161 J3.3258
G1 X8.2649
G1 X9.2845
G3 X9.9817 Y22.6435 I-0.019 J3.4031
G3 X10.6614 Y22.9306 I-0.3738 J1.833
G3 X11.177 Y23.5048 I-0.8978 J1.3248
G3 X11.3388 Y23.9637 I-1.3735 J0.7421
G3 X11.3821 Y24.4482 I-2.4837 J0.4663
G3 X11.2532 Y25.2334 I-2.2738 J0.0298
G3 X10.8489 Y25.8369 I-1.3558 J-0.4711
G3 X10.1165 Y26.2353 I-1.3147 J-1.5443
G3 X9.0208 Y26.3818 I-1.0219 J-3.4725
G1 X8.2649
G1 X9.0208
G3 X9.9348 Y26.54 I0.0598 J2.3744
G3 X10.5501 Y26.9619 I-0.6656 J1.6302
G3 X10.8899 Y27.542 I-1.1705 J1.0753
G3 X11.0013 Y28.2041 I-1.9377 J0.6662
G3 X10.8665 Y28.9248 I-1.909 J0.016
G3 X10.4622 Y29.5107 I-1.4328 J-0.5562
G3 X9.7942 Y29.9091 I-1.3147 J-1.4448
G3 X8.886 Y30.0556 I-0.8623 J-2.4578
G3 X7.9134 Y29.8623 I-0.0532 J-2.2756
G3 X7.2454 Y29.3701 I0.8678 J-1.8771
G3 X6.8587 Y28.6904 I1.4214 J-1.2586
G3 X6.7415 Y27.9404 I2.386 J-0.757
G1 Y22.5673
G1 Y27.9404
G2 X6.8587 Y28.6904 I2.5033 J-0.007
G2 X7.2454 Y29.3701 I1.8083 J-0.579
G2 X7.9134 Y29.8623 I1.5356 J-1.3847
G2 X8.4778 Y30.0284 I0.9194 J-2.082
G0 Z3.0
G0 X13.1868 Y27.7236
G0 Z0.648
G1 F1000.0 Z-0.002
G2 F2000.0 X13.3098 Y28.5673 I2.9205 J0.0049
G2 X13.6966 Y29.3115 I2.1905 J-0.6658
G2 X14.3528 Y29.8505 I1.5254 J-1.188
G2 X15.3196 Y30.0556 I0.9129 J-1.9221
G2 X16.3098 Y29.8564 I0.0593 J-2.266
G2 X16.9954 Y29.3408 I-0.8616 J-1.8591
G2 X17.388 Y28.6435 I-1.4763 J-1.2903
G2 X17.5169 Y27.8818 I-2.2352 J-0.77
G2 X17.3997 Y27.1494 I-2.4929 J0.0233
G2 X17.054 Y26.4638 I-2.0523 J0.605
G2 X16.4446 Y25.9423 I-1.5434 J1.1867
G2 X15.5598 Y25.7314 I-0.8377 J1.5525
G1 X14.722
G1 X15.5598
G3 X16.4446 Y25.9423 I0.0471 J1.7633
G3 X17.054 Y26.4638 I-0.934 J1.7082
G3 X17.3997 Y27.1494 I-1.7064 J1.2904
G3 X17.5169 Y27.8818 I-2.3752 J0.7556
G3 X17.388 Y28.6435 I-2.3643 J-0.0083
G3 X16.9954 Y29.3408 I-1.869 J-0.5931
G3 X16.3098 Y29.8564 I-1.5471 J-1.3434
G3 X15.3196 Y30.0556 I-0.9309 J-2.0666
G3 X14.3528 Y29.8505 I-0.0539 J-2.1272
G3 X13.6966 Y29.3115 I0.8692 J-1.7271
G3 X13.3098 Y28.5673 I1.8041 J-1.4101
G3 X13.1868 Y27.7236 I2.7977 J-0.8388
G1 Y22.5673
G1 Y27.7236
G0 Z3.0
G0 X12.3029 Y15.8036
G0 Z0.648
G1 F1000.0 Z-0.002
G2 F2000.0 X12.4259 Y16.6473 I2.9205 J0.0049
G2 X12.8127 Y17.3915 I2.1905 J-0.6658
G2 X13.4689 Y17.9305 I1.5254 J-1.188
G2 X14.4357 Y18.1356 I0.9129 J-1.9221
G2 X15.4259 Y17.9364 I0.0593 J-2.266
G2 X16.1115 Y17.4208 I-0.8616 J-1.8591
G2 X16.5041 Y16.7235 I-1.4763 J-1.2903
G2 X16.633 Y15.9618 I-2.2352 J-0.77
G2 X16.5158 Y15.2294 I-2.4929 J0.0233
G2 X16.1701 Y14.5438 I-2.0523 J0.605
G2 X15.5607 Y14.0223 I-1.5434 J1.1867
G2 X14.6759 Y13.8114 I-0.8377 J1.5525
G1 X13.838
G1 X14.6759
G3 X15.5607 Y14.0223 I0.0471 J1.7633
G3 X16.1701 Y14.5438 I-0.934 J1.7082
G3 X16.5158 Y15.2294 I-1.7064 J1.2904
G3 X16.633 Y15.9618 I-2.3752 J0.7556
G3 X16.5041 Y16.7235 I-2.3643 J-0.0083
G3 X16.1115 Y17.4208 I-1.869 J-0.5931
G3 X15.4259 Y17.9364 I-1.5471 J-1.3434
G3 X14.4357 Y18.1356 I-0.9309 J-2.0666
G3 X13.4689 Y17.9305 I-0.0539 J-2.1272
G3 X12.8127 Y17.3915 I0.8692 J-1.7271
G3 X12.4259 Y16.6473 I1.8041 J-1.4101
G3 X12.3029 Y15.8036 I2.7977 J-0.8388
G1 Y10.6473
G1 Y15.8036
G0 Z3.0
G0 X10.1056 Y10.6415
G0 Z0.648
G1 F1000.0 Z-0.002
G2 F2000.0 X9.3029 Y10.7587 I-0.0024 J2.7918
G2 X8.6056 Y11.1571 I0.5816 J1.8271
G2 X8.1076 Y11.8778 I1.4123 J1.5085
G2 X7.9603 Y12.4135 I2.1306 J0.874
G2 X7.9201 Y12.9677 I3.5434 J0.5356
G1 Y17.9891
G1 Y12.9677
G3 X8.1076 Y11.8778 I2.8392 J-0.0726
G3 X8.6056 Y11.1571 I1.9104 J0.7877
G3 X9.3029 Y10.7587 I1.2789 J1.4287
G3 X10.1056 Y10.6415 I0.8004 J2.6745
G1 X10.7502
G1 X10.1056
G0 Z3.0
G0 X31.6624 Y108.4606
G0 Z0.648
G1 F1000.0 Z-0.002
G1 F2000.0 Y111.5934
G1 Y108.4606
G0 Z3.0
G0 X33.4866
G0 Z0.648
G1 F1000.0 Z-0.002
G1 F2000.0 Y110.3473
G2 X33.5647 Y110.8317 I1.5702 J-0.0048
G2 X33.8108 Y111.2692 I1.2293 J-0.4035
G2 X34.2132 Y111.5817 I0.9813 J-0.8482
G2 X34.7757 Y111.7028 I0.5366 J-1.1257
G2 X35.3303 Y111.5817 I0.0257 J-1.2131
G2 X35.7327 Y111.2692 I-0.5431 J-1.1145
G2 X35.9749 Y110.8317 I-1.0221 J-0.8516
G2 X36.0608 Y110.3473 I-1.355 J-0.4902
G1 Y108.4606
G1 Y110.3473
G3 X35.9749 Y110.8317 I-1.4409 J-0.0058
G3 X35.7327 Y111.2692 I-1.2642 J-0.4141
G3 X35.3303 Y111.5817 I-0.9454 J-0.802
G3 X34.7757 Y111.7028 I-0.5289 J-1.0919
G3 X34.2132 Y111.5817 I-0.0259 J-1.2467
G3 X33.8108 Y111.2692 I0.5789 J-1.1606
G3 X33.5647 Y110.8317 I0.9833 J-0.8411
G3 X33.4866 Y110.3473 I1.4925 J-0.4892
G1 Y108.4606
G0 Z3.0
G0 X31.6923 Y112.7385
G0 Z0.648
G1 F1000.0 Z-0.002
G3 F2000.0 X31.7171 Y112.7574 I-0.024 J0.0571
G3 X31.7366 Y112.8043 I-0.0545 J0.0502
G3 X31.6624 Y112.8785 I-0.0649 J0.0093
G3 X31.5921 Y112.8043 I-0.0072 J-0.0636
G3 X31.6077 Y112.7574 I0.0844 J0.0021
G3 X31.6624 Y112.734 I0.0487 J0.0382
G3 X31.6923 Y112.7385 I0.0059 J0.0616
G3 X31.7171 Y112.7574 I-0.024 J0.0571
G3 X31.7366 Y112.8043 I-0.0545 J0.0502
G3 X31.6624 Y112.8785 I-0.0649 J0.0093
G3 X31.5921 Y112.8043 I-0.0072 J-0.0636
G3 X31.6077 Y112.7574 I0.0844 J0.0021
G3 X31.6624 Y112.734 I0.0487 J0.0382
G3 X31.6923 Y112.7385 I0.0059 J0.0616
G2 X31.6624 Y112.734 I-0.024 J0.0571
G2 X31.6077 Y112.7574 I-0.0059 J0.0616
G2 X31.5921 Y112.8043 I0.0688 J0.049
G2 X31.6624 Y112.8785 I0.0631 J0.0106
G2 X31.7366 Y112.8043 I0.0093 J-0.0649
G2 X31.7171 Y112.7574 I-0.0741 J0.0034
G2 X31.6923 Y112.7385 I-0.0487 J0.0382
G2 X31.6624 Y112.734 I-0.024 J0.0571
G2 X31.6077 Y112.7574 I-0.0059 J0.0616
G2 X31.5921 Y112.8043 I0.0688 J0.049
G2 X31.6624 Y112.8785 I0.0631 J0.0106
G2 X31.7366 Y112.8043 I0.0093 J-0.0649
G2 X31.7171 Y112.7574 I-0.0741 J0.0034
G2 X31.6923 Y112.7385 I-0.0487 J0.0382
G0 Z3.0
G0 X25.4307 Y120.8067
G0 Z0.648
G1 F1000.0 Z-0.002
G1 F2000.0 X24.6642
G1 Y126.599
G1 X28.5718
G1 Y125.9155
G1 X25.4307
G1 Y124.1217
G1 X28.1491
G1 Y123.4381
G1 X25.4307
G1 Y120.8067
G0 Z3.0
G0 X23.3957 Y121.9047
G0 Z0.648
G1 F1000.0 Z-0.002
G2 F2000.0 X23.3657 Y121.8505 I-2.7484 J1.4829
G2 X22.8111 Y121.2018 I-1.9679 J1.1209
G2 X22.0892 Y120.8227 I-1.3671 J1.7264
G2 X21.282 Y120.7079 I-0.7828 J2.6087
G2 X20.4923 Y120.7885 I-0.0305 J3.6073
G2 X19.7569 Y121.0872 I0.473 J2.2197
G2 X19.2271 Y121.5731 I1.2255 J1.8679
G2 X18.8639 Y122.1935 I2.1286 J1.6626
G2 X18.5597 Y123.7463 I3.6598 J1.5233
G2 X18.6376 Y124.555 I4.0071 J0.022
G2 X18.9034 Y125.3228 I2.954 J-0.5929
G2 X19.8873 Y126.3461 I2.1219 J-1.0554
G2 X21.2939 Y126.6978 I1.3778 J-2.5221
G2 X22.0612 Y126.5968 I0.0244 J-2.7806
G2 X22.7558 Y126.2553 I-0.5783 J-2.053
G2 X23.2724 Y125.7018 I-1.2728 J-1.7058
G2 X23.5816 Y125.0107 I-2.194 J-1.3963
G1 X22.8269 Y124.8329
G3 X22.6053 Y125.3381 I-2.3076 J-0.7112
G3 X22.2421 Y125.7535 I-1.24 J-0.7176
G3 X21.7839 Y125.9772 I-0.8192 J-1.0967
G3 X21.2781 Y126.0419 I-0.4884 J-1.8093
G3 X20.6938 Y125.97 I-0.0193 J-2.252
G3 X20.1599 Y125.7219 I0.4192 J-1.6005
G3 X19.5317 Y124.8605 I0.985 J-1.3782
G3 X19.3499 Y123.7503 I3.2601 J-1.1037
G3 X19.3974 Y123.0945 I4.303 J-0.018
G3 X19.5633 Y122.4582 I3.0352 J0.4516
G3 X19.8298 Y121.9906 I1.6861 J0.6512
G3 X20.235 Y121.6364 I1.181 J0.942
G3 X21.2188 Y121.3638 I0.9746 J1.6056
G3 X21.7975 Y121.4513 I0.0169 J1.8451
G3 X22.3093 Y121.7352 I-0.4832 J1.4745
G3 X22.7045 Y122.2354 I-1.031 J1.2205
G3 X22.9138 Y122.8375 I-2.1612 J1.089
G1 X23.6804 Y122.6439
G2 X23.3957 Y121.9047 I-3.0331 J0.7437
G0 Z3.0
G0 X17.2046 Y124.3288
G0 Z0.648
G1 F1000.0 Z-0.002
G1 F2000.0 X15.8255 Y120.8067
G1 X15.0392
G1 X12.795 Y126.599
G1 X13.6247
G1 X15.1301 Y122.3911
G2 X15.4344 Y121.4428 I-12.5868 J-4.5612
G2 X15.7465 Y122.3911 I11.6237 J-3.3006
G1 X17.3111 Y126.599
G1 X18.0935
G1 X17.2046 Y124.3288
( mounting )
G0 Z3.0
( T3 : 3.175 )
T3 M6
M3 S1000
G0 X11.81 Y115.08
G0 Z3.0
G0 X11.8225 Y115.08
G0 Z0.25
G1 F1000.0 Z0.0
G2 F2000.0 X11.8038 Y115.0692 Z-0.0333 I-0.0125 J0.0
G2 Y115.0908 Z-0.0667 I0.0062 J0.0108
G2 X11.8225 Y115.08 Z-0.1 I0.0063 J-0.0108
G2 X11.8038 Y115.0692 Z-0.1333 I-0.0125 J0.0
G2 Y115.0908 Z-0.1667 I0.0062 J0.0108
G2 X11.8225 Y115.08 Z-0.2 I0.0063 J-0.0108
G2 X11.8038 Y115.0692 Z-0.2333 I-0.0125 J0.0
G2 Y115.0908 Z-0.2667 I0.0062 J0.0108
G2 X11.8225 Y115.08 Z-0.3 I0.0063 J-0.0108
G2 X11.8038 Y115.0692 Z-0.3333 I-0.0125 J0.0
G2 Y115.0908 Z-0.3667 I0.0062 J0.0108
G2 X11.8225 Y115.08 Z-0.4 I0.0063 J-0.0108
G2 X11.8038 Y115.0692 Z-0.4333 I-0.0125 J0.0
G2 Y115.0908 Z-0.4667 I0.0062 J0.0108
G2 X11.8225 Y115.08 Z-0.5 I0.0063 J-0.0108
G2 X11.8038 Y115.0692 Z-0.5333 I-0.0125 J0.0
G2 Y115.0908 Z-0.5667 I0.0062 J0.0108
G2 X11.8225 Y115.08 Z-0.6 I0.0063 J-0.0108
G2 X11.8038 Y115.0692 Z-0.6333 I-0.0125 J0.0
G2 Y115.0908 Z-0.6667 I0.0062 J0.0108
G2 X11.8225 Y115.08 Z-0.7 I0.0063 J-0.0108
G2 X11.8038 Y115.0692 Z-0.7333 I-0.0125 J0.0
G2 Y115.0908 Z-0.7667 I0.0062 J0.0108
G2 X11.8225 Y115.08 Z-0.8 I0.0063 J-0.0108
G2 X11.8038 Y115.0692 Z-0.8333 I-0.0125 J0.0
G2 Y115.0908 Z-0.8667 I0.0062 J0.0108
G2 X11.8225 Y115.08 Z-0.9 I0.0063 J-0.0108
G2 X11.8038 Y115.0692 Z-0.9333 I-0.0125 J0.0
G2 Y115.0908 Z-0.9667 I0.0062 J0.0108
G2 X11.8225 Y115.08 Z-1.0 I0.0063 J-0.0108
G2 X11.8038 Y115.0692 Z-1.0333 I-0.0125 J0.0
G2 Y115.0908 Z-1.0667 I0.0062 J0.0108
G2 X11.8225 Y115.08 Z-1.1 I0.0063 J-0.0108
G2 X11.8038 Y115.0692 Z-1.1333 I-0.0125 J0.0
G2 Y115.0908 Z-1.1667 I0.0062 J0.0108
G2 X11.8225 Y115.08 Z-1.2 I0.0063 J-0.0108
G2 X11.8038 Y115.0692 Z-1.2333 I-0.0125 J0.0
G2 Y115.0908 Z-1.2667 I0.0062 J0.0108
G2 X11.8225 Y115.08 Z-1.3 I0.0063 J-0.0108
G2 X11.8038 Y115.0692 Z-1.3333 I-0.0125 J0.0
G2 Y115.0908 Z-1.3667 I0.0062 J0.0108
G2 X11.8225 Y115.08 Z-1.4 I0.0063 J-0.0108
G2 X11.8038 Y115.0692 Z-1.4333 I-0.0125 J0.0
G2 Y115.0908 Z-1.4667 I0.0062 J0.0108
G2 X11.8225 Y115.08 Z-1.5 I0.0063 J-0.0108
G2 X11.8038 Y115.0692 Z-1.5333 I-0.0125 J0.0
G2 Y115.0908 Z-1.5667 I0.0062 J0.0108
G2 X11.8225 Y115.08 Z-1.6 I0.0063 J-0.0108
G2 X11.8038 Y115.0692 Z-1.6333 I-0.0125 J0.0
G2 Y115.0908 Z-1.6667 I0.0062 J0.0108
G2 X11.8225 Y115.08 Z-1.7 I0.0063 J-0.0108
G2 X11.8038 Y115.0692 Z-1.7333 I-0.0125 J0.0
G2 Y115.0908 Z-1.7667 I0.0062 J0.0108
G2 X11.8225 Y115.08 Z-1.8 I0.0063 J-0.0108
G2 X11.8038 Y115.0692 Z-1.8333 I-0.0125 J0.0
G2 Y115.0908 Z-1.8667 I0.0062 J0.0108
G2 X11.8225 Y115.08 Z-1.9 I0.0063 J-0.0108
G2 X11.8038 Y115.0692 Z-1.9333 I-0.0125 J0.0
G2 Y115.0908 Z-1.9667 I0.0062 J0.0108
G2 X11.8225 Y115.08 Z-2.0 I0.0063 J-0.0108
G2 X11.8038 Y115.0692 Z-2.0333 I-0.0125 J0.0
G2 Y115.0908 Z-2.0667 I0.0062 J0.0108
G2 X11.8225 Y115.08 Z-2.1 I0.0063 J-0.0108
G2 X11.8038 Y115.0692 Z-2.1333 I-0.0125 J0.0
G2 Y115.0908 Z-2.1667 I0.0062 J0.0108
G2 X11.8225 Y115.08 Z-2.2 I0.0063 J-0.0108
G2 X11.8038 Y115.0692 Z-2.2333 I-0.0125 J0.0
G2 Y115.0908 Z-2.2667 I0.0062 J0.0108
G2 X11.8225 Y115.08 Z-2.3 I0.0063 J-0.0108
G2 X11.8038 Y115.0692 Z-2.3333 I-0.0125 J0.0
G2 Y115.0908 Z-2.3667 I0.0062 J0.0108
G2 X11.8225 Y115.08 Z-2.4 I0.0063 J-0.0108
G2 X11.8038 Y115.0692 Z-2.4333 I-0.0125 J0.0
G2 Y115.0908 Z-2.4667 I0.0062 J0.0108
G2 X11.8225 Y115.08 Z-2.5 I0.0063 J-0.0108
G2 X11.8038 Y115.0692 Z-2.5333 I-0.0125 J0.0
G2 Y115.0908 Z-2.5667 I0.0062 J0.0108
G2 X11.8225 Y115.08 Z-2.6 I0.0063 J-0.0108
G2 X11.8038 Y115.0692 Z-2.6333 I-0.0125 J0.0
G2 Y115.0908 Z-2.6667 I0.0062 J0.0108
G2 X11.8225 Y115.08 Z-2.7 I0.0063 J-0.0108
G2 X11.8038 Y115.0692 Z-2.7333 I-0.0125 J0.0
G2 Y115.0908 Z-2.7667 I0.0062 J0.0108
G2 X11.8225 Y115.08 Z-2.8 I0.0063 J-0.0108
G2 X11.8038 Y115.0692 Z-2.8333 I-0.0125 J0.0
G2 Y115.0908 Z-2.8667 I0.0062 J0.0108
G2 X11.8225 Y115.08 Z-2.9 I0.0063 J-0.0108
G2 X11.8038 Y115.0692 Z-2.9333 I-0.0125 J0.0
G2 Y115.0908 Z-2.9667 I0.0062 J0.0108
G2 X11.8225 Y115.08 Z-3.0 I0.0063 J-0.0108
G2 X11.8038 Y115.0692 Z-3.0333 I-0.0125 J0.0
G2 Y115.0908 Z-3.0667 I0.0062 J0.0108
G2 X11.8225 Y115.08 Z-3.1 I0.0063 J-0.0108
G2 X11.8038 Y115.0692 Z-3.1333 I-0.0125 J0.0
G2 Y115.0908 Z-3.1667 I0.0063 J0.0108
G2 X11.8225 Y115.08 Z-3.2 I0.0062 J-0.0108
G2 X11.8038 Y115.0692 I-0.0125 J0.0
G2 Y115.0908 I0.0063 J0.0108
G2 X11.8225 Y115.08 I0.0062 J-0.0108
G0 Z3.0
G0 X7.5125 Y125.5
G0 Z0.25
G1 F1000.0 Z0.0
G2 F2000.0 X7.4938 Y125.4892 Z-0.0333 I-0.0125 J0.0
G2 Y125.5108 Z-0.0667 I0.0062 J0.0108
G2 X7.5125 Y125.5 Z-0.1 I0.0063 J-0.0108
G2 X7.4938 Y125.4892 Z-0.1333 I-0.0125 J0.0
G2 Y125.5108 Z-0.1667 I0.0062 J0.0108
G2 X7.5125 Y125.5 Z-0.2 I0.0063 J-0.0108
G2 X7.4938 Y125.4892 Z-0.2333 I-0.0125 J0.0
G2 Y125.5108 Z-0.2667 I0.0062 J0.0108
G2 X7.5125 Y125.5 Z-0.3 I0.0063 J-0.0108
G2 X7.4938 Y125.4892 Z-0.3333 I-0.0125 J0.0
G2 Y125.5108 Z-0.3667 I0.0062 J0.0108
G2 X7.5125 Y125.5 Z-0.4 I0.0063 J-0.0108
G2 X7.4938 Y125.4892 Z-0.4333 I-0.0125 J0.0
G2 Y125.5108 Z-0.4667 I0.0062 J0.0108
G2 X7.5125 Y125.5 Z-0.5 I0.0063 J-0.0108
G2 X7.4938 Y125.4892 Z-0.5333 I-0.0125 J0.0
G2 Y125.5108 Z-0.5667 I0.0062 J0.0108
G2 X7.5125 Y125.5 Z-0.6 I0.0063 J-0.0108
G2 X7.4938 Y125.4892 Z-0.6333 I-0.0125 J0.0
G2 Y125.5108 Z-0.6667 I0.0062 J0.0108
G2 X7.5125 Y125.5 Z-0.7 I0.0063 J-0.0108
G2 X7.4938 Y125.4892 Z-0.7333 I-0.0125 J0.0
G2 Y125.5108 Z-0.7667 I0.0062 J0.0108
G2 X7.5125 Y125.5 Z-0.8 I0.0063 J-0.0108
G2 X7.4938 Y125.4892 Z-0.8333 I-0.0125 J0.0
G2 Y125.5108 Z-0.8667 I0.0062 J0.0108
G2 X7.5125 Y125.5 Z-0.9 I0.0063 J-0.0108
G2 X7.4938 Y125.4892 Z-0.9333 I-0.0125 J0.0
G2 Y125.5108 Z-0.9667 I0.0062 J0.0108
G2 X7.5125 Y125.5 Z-1.0 I0.0063 J-0.0108
G2 X7.4938 Y125.4892 Z-1.0333 I-0.0125 J0.0
G2 Y125.5108 Z-1.0667 I0.0062 J0.0108
G2 X7.5125 Y125.5 Z-1.1 I0.0063 J-0.0108
G2 X7.4938 Y125.4892 Z-1.1333 I-0.0125 J0.0
G2 Y125.5108 Z-1.1667 I0.0062 J0.0108
G2 X7.5125 Y125.5 Z-1.2 I0.0063 J-0.0108
G2 X7.4938 Y125.4892 Z-1.2333 I-0.0125 J0.0
G2 Y125.5108 Z-1.2667 I0.0062 J0.0108
G2 X7.5125 Y125.5 Z-1.3 I0.0063 J-0.0108
G2 X7.4938 Y125.4892 Z-1.3333 I-0.0125 J0.0
G2 Y125.5108 Z-1.3667 I0.0062 J0.0108
G2 X7.5125 Y125.5 Z-1.4 I0.0063 J-0.0108
G2 X7.4938 Y125.4892 Z-1.4333 I-0.0125 J0.0
G2 Y125.5108 Z-1.4667 I0.0062 J0.0108
G2 X7.5125 Y125.5 Z-1.5 I0.0063 J-0.0108
G2 X7.4938 Y125.4892 Z-1.5333 I-0.0125 J0.0
G2 Y125.5108 Z-1.5667 I0.0062 J0.0108
G2 X7.5125 Y125.5 Z-1.6 I0.0063 J-0.0108
G2 X7.4938 Y125.4892 Z-1.6333 I-0.0125 J0.0
G2 Y125.5108 Z-1.6667 I0.0062 J0.0108
G2 X7.5125 Y125.5 Z-1.7 I0.0063 J-0.0108
G2 X7.4938 Y125.4892 Z-1.7333 I-0.0125 J0.0
G2 Y125.5108 Z-1.7667 I0.0062 J0.0108
G2 X7.5125 Y125.5 Z-1.8 I0.0063 J-0.0108
G2 X7.4938 Y125.4892 Z-1.8333 I-0.0125 J0.0
G2 Y125.5108 Z-1.8667 I0.0062 J0.0108
G2 X7.5125 Y125.5 Z-1.9 I0.0063 J-0.0108
G2 X7.4938 Y125.4892 Z-1.9333 I-0.0125 J0.0
G2 Y125.5108 Z-1.9667 I0.0062 J0.0108
G2 X7.5125 Y125.5 Z-2.0 I0.0063 J-0.0108
G2 X7.4938 Y125.4892 Z-2.0333 I-0.0125 J0.0
G2 Y125.5108 Z-2.0667 I0.0062 J0.0108
G2 X7.5125 Y125.5 Z-2.1 I0.0063 J-0.0108
G2 X7.4938 Y125.4892 Z-2.1333 I-0.0125 J0.0
G2 Y125.5108 Z-2.1667 I0.0062 J0.0108
G2 X7.5125 Y125.5 Z-2.2 I0.0063 J-0.0108
G2 X7.4938 Y125.4892 Z-2.2333 I-0.0125 J0.0
G2 Y125.5108 Z-2.2667 I0.0062 J0.0108
G2 X7.5125 Y125.5 Z-2.3 I0.0063 J-0.0108
G2 X7.4938 Y125.4892 Z-2.3333 I-0.0125 J0.0
G2 Y125.5108 Z-2.3667 I0.0062 J0.0108
G2 X7.5125 Y125.5 Z-2.4 I0.0063 J-0.0108
G2 X7.4938 Y125.4892 Z-2.4333 I-0.0125 J0.0
G2 Y125.5108 Z-2.4667 I0.0062 J0.0108
G2 X7.5125 Y125.5 Z-2.5 I0.0063 J-0.0108
G2 X7.4938 Y125.4892 Z-2.5333 I-0.0125 J0.0
G2 Y125.5108 Z-2.5667 I0.0062 J0.0108
G2 X7.5125 Y125.5 Z-2.6 I0.0063 J-0.0108
G2 X7.4938 Y125.4892 Z-2.6333 I-0.0125 J0.0
G2 Y125.5108 Z-2.6667 I0.0062 J0.0108
G2 X7.5125 Y125.5 Z-2.7 I0.0063 J-0.0108
G2 X7.4938 Y125.4892 Z-2.7333 I-0.0125 J0.0
G2 Y125.5108 Z-2.7667 I0.0062 J0.0108
G2 X7.5125 Y125.5 Z-2.8 I0.0063 J-0.0108
G2 X7.4938 Y125.4892 Z-2.8333 I-0.0125 J0.0
G2 Y125.5108 Z-2.8667 I0.0062 J0.0108
G2 X7.5125 Y125.5 Z-2.9 I0.0063 J-0.0108
G2 X7.4938 Y125.4892 Z-2.9333 I-0.0125 J0.0
G2 Y125.5108 Z-2.9667 I0.0062 J0.0108
G2 X7.5125 Y125.5 Z-3.0 I0.0063 J-0.0108
G2 X7.4938 Y125.4892 Z-3.0333 I-0.0125 J0.0
G2 Y125.5108 Z-3.0667 I0.0062 J0.0108
G2 X7.5125 Y125.5 Z-3.1 I0.0062 J-0.0108
G2 X7.4938 Y125.4892 Z-3.1333 I-0.0125 J0.0
G2 Y125.5108 Z-3.1667 I0.0063 J0.0108
G2 X7.5125 Y125.5 Z-3.2 I0.0062 J-0.0108
G2 X7.4938 Y125.4892 I-0.0125 J0.0
G2 Y125.5108 I0.0063 J0.0108
G2 X7.5125 Y125.5 I0.0062 J-0.0108
G0 Z3.0
G0 X34.2325
G0 Z0.25
G1 F1000.0 Z0.0
G2 F2000.0 X34.2137 Y125.4892 Z-0.0333 I-0.0125 J0.0
G2 Y125.5108 Z-0.0667 I0.0062 J0.0108
G2 X34.2325 Y125.5 Z-0.1 I0.0063 J-0.0108
G2 X34.2137 Y125.4892 Z-0.1333 I-0.0125 J0.0
G2 Y125.5108 Z-0.1667 I0.0062 J0.0108
G2 X34.2325 Y125.5 Z-0.2 I0.0063 J-0.0108
G2 X34.2137 Y125.4892 Z-0.2333 I-0.0125 J0.0
G2 Y125.5108 Z-0.2667 I0.0062 J0.0108
G2 X34.2325 Y125.5 Z-0.3 I0.0063 J-0.0108
G2 X34.2137 Y125.4892 Z-0.3333 I-0.0125 J0.0
G2 Y125.5108 Z-0.3667 I0.0062 J0.0108
G2 X34.2325 Y125.5 Z-0.4 I0.0063 J-0.0108
G2 X34.2137 Y125.4892 Z-0.4333 I-0.0125 J0.0
G2 Y125.5108 Z-0.4667 I0.0062 J0.0108
G2 X34.2325 Y125.5 Z-0.5 I0.0063 J-0.0108
G2 X34.2137 Y125.4892 Z-0.5333 I-0.0125 J0.0
G2 Y125.5108 Z-0.5667 I0.0062 J0.0108
G2 X34.2325 Y125.5 Z-0.6 I0.0063 J-0.0108
G2 X34.2137 Y125.4892 Z-0.6333 I-0.0125 J0.0
G2 Y125.5108 Z-0.6667 I0.0062 J0.0108
G2 X34.2325 Y125.5 Z-0.7 I0.0063 J-0.0108
G2 X34.2137 Y125.4892 Z-0.7333 I-0.0125 J0.0
G2 Y125.5108 Z-0.7667 I0.0062 J0.0108
G2 X34.2325 Y125.5 Z-0.8 I0.0063 J-0.0108
G2 X34.2137 Y125.4892 Z-0.8333 I-0.0125 J0.0
G2 Y125.5108 Z-0.8667 I0.0062 J0.0108
G2 X34.2325 Y125.5 Z-0.9 I0.0063 J-0.0108
G2 X34.2137 Y125.4892 Z-0.9333 I-0.0125 J0.0
G2 Y125.5108 Z-0.9667 I0.0062 J0.0108
G2 X34.2325 Y125.5 Z-1.0 I0.0063 J-0.0108
G2 X34.2137 Y125.4892 Z-1.0333 I-0.0125 J0.0
G2 Y125.5108 Z-1.0667 I0.0062 J0.0108
G2 X34.2325 Y125.5 Z-1.1 I0.0063 J-0.0108
G2 X34.2137 Y125.4892 Z-1.1333 I-0.0125 J0.0
G2 Y125.5108 Z-1.1667 I0.0062 J0.0108
G2 X34.2325 Y125.5 Z-1.2 I0.0063 J-0.0108
G2 X34.2137 Y125.4892 Z-1.2333 I-0.0125 J0.0
G2 Y125.5108 Z-1.2667 I0.0062 J0.0108
G2 X34.2325 Y125.5 Z-1.3 I0.0063 J-0.0108
G2 X34.2137 Y125.4892 Z-1.3333 I-0.0125 J0.0
G2 Y125.5108 Z-1.3667 I0.0062 J0.0108
G2 X34.2325 Y125.5 Z-1.4 I0.0063 J-0.0108
G2 X34.2137 Y125.4892 Z-1.4333 I-0.0125 J0.0
G2 Y125.5108 Z-1.4667 I0.0062 J0.0108
G2 X34.2325 Y125.5 Z-1.5 I0.0063 J-0.0108
G2 X34.2137 Y125.4892 Z-1.5333 I-0.0125 J0.0
G2 Y125.5108 Z-1.5667 I0.0062 J0.0108
G2 X34.2325 Y125.5 Z-1.6 I0.0063 J-0.0108
G2 X34.2137 Y125.4892 Z-1.6333 I-0.0125 J0.0
G2 Y125.5108 Z-1.6667 I0.0062 J0.0108
G2 X34.2325 Y125.5 Z-1.7 I0.0063 J-0.0108
G2 X34.2137 Y125.4892 Z-1.7333 I-0.0125 J0.0
G2 Y125.5108 Z-1.7667 I0.0062 J0.0108
G2 X34.2325 Y125.5 Z-1.8 I0.0063 J-0.0108
G2 X34.2137 Y125.4892 Z-1.8333 I-0.0125 J0.0
G2 Y125.5108 Z-1.8667 I0.0062 J0.0108
G2 X34.2325 Y125.5 Z-1.9 I0.0063 J-0.0108
G2 X34.2137 Y125.4892 Z-1.9333 I-0.0125 J0.0
G2 Y125.5108 Z-1.9667 I0.0062 J0.0108
G2 X34.2325 Y125.5 Z-2.0 I0.0063 J-0.0108
G2 X34.2137 Y125.4892 Z-2.0333 I-0.0125 J0.0
G2 Y125.5108 Z-2.0667 I0.0062 J0.0108
G2 X34.2325 Y125.5 Z-2.1 I0.0063 J-0.0108
G2 X34.2137 Y125.4892 Z-2.1333 I-0.0125 J0.0
G2 Y125.5108 Z-2.1667 I0.0062 J0.0108
G2 X34.2325 Y125.5 Z-2.2 I0.0063 J-0.0108
G2 X34.2137 Y125.4892 Z-2.2333 I-0.0125 J0.0
G2 Y125.5108 Z-2.2667 I0.0062 J0.0108
G2 X34.2325 Y125.5 Z-2.3 I0.0063 J-0.0108
G2 X34.2137 Y125.4892 Z-2.3333 I-0.0125 J0.0
G2 Y125.5108 Z-2.3667 I0.0062 J0.0108
G2 X34.2325 Y125.5 Z-2.4 I0.0063 J-0.0108
G2 X34.2137 Y125.4892 Z-2.4333 I-0.0125 J0.0
G2 Y125.5108 Z-2.4667 I0.0062 J0.0108
G2 X34.2325 Y125.5 Z-2.5 I0.0063 J-0.0108
G2 X34.2137 Y125.4892 Z-2.5333 I-0.0125 J0.0
G2 Y125.5108 Z-2.5667 I0.0062 J0.0108
G2 X34.2325 Y125.5 Z-2.6 I0.0063 J-0.0108
G2 X34.2137 Y125.4892 Z-2.6333 I-0.0125 J0.0
G2 Y125.5108 Z-2.6667 I0.0062 J0.0108
G2 X34.2325 Y125.5 Z-2.7 I0.0063 J-0.0108
G2 X34.2137 Y125.4892 Z-2.7333 I-0.0125 J0.0
G2 Y125.5108 Z-2.7667 I0.0062 J0.0108
G2 X34.2325 Y125.5 Z-2.8 I0.0063 J-0.0108
G2 X34.2137 Y125.4892 Z-2.8333 I-0.0125 J0.0
G2 Y125.5108 Z-2.8667 I0.0062 J0.0108
G2 X34.2325 Y125.5 Z-2.9 I0.0063 J-0.0108
G2 X34.2137 Y125.4892 Z-2.9333 I-0.0125 J0.0
G2 Y125.5108 Z-2.9667 I0.0063 J0.0108
G2 X34.2325 Y125.5 Z-3.0 I0.0063 J-0.0108
G2 X34.2137 Y125.4892 Z-3.0333 I-0.0125 J0.0
G2 Y125.5108 Z-3.0667 I0.0063 J0.0108
G2 X34.2325 Y125.5 Z-3.1 I0.0063 J-0.0108
G2 X34.2137 Y125.4892 Z-3.1333 I-0.0125 J0.0
G2 Y125.5108 Z-3.1667 I0.0063 J0.0108
G2 X34.2325 Y125.5 Z-3.2 I0.0063 J-0.0108
G2 X34.2137 Y125.4892 I-0.0125 J0.0
G2 Y125.5108 I0.0063 J0.0108
G2 X34.2325 Y125.5 I0.0062 J-0.0108
G0 Z3.0
G0 X11.9725 Y28.01
G0 Z0.25
G1 F1000.0 Z0.0
G2 F2000.0 X11.9538 Y27.9992 Z-0.0333 I-0.0125 J0.0
G2 Y28.0208 Z-0.0667 I0.0062 J0.0108
G2 X11.9725 Y28.01 Z-0.1 I0.0062 J-0.0108
G2 X11.9538 Y27.9992 Z-0.1333 I-0.0125 J0.0
G2 Y28.0208 Z-0.1667 I0.0062 J0.0108
G2 X11.9725 Y28.01 Z-0.2 I0.0062 J-0.0108
G2 X11.9538 Y27.9992 Z-0.2333 I-0.0125 J0.0
G2 Y28.0208 Z-0.2667 I0.0062 J0.0108
G2 X11.9725 Y28.01 Z-0.3 I0.0062 J-0.0108
G2 X11.9538 Y27.9992 Z-0.3333 I-0.0125 J0.0
G2 Y28.0208 Z-0.3667 I0.0062 J0.0108
G2 X11.9725 Y28.01 Z-0.4 I0.0062 J-0.0108
G2 X11.9538 Y27.9992 Z-0.4333 I-0.0125 J0.0
G2 Y28.0208 Z-0.4667 I0.0062 J0.0108
G2 X11.9725 Y28.01 Z-0.5 I0.0062 J-0.0108
G2 X11.9538 Y27.9992 Z-0.5333 I-0.0125 J0.0
G2 Y28.0208 Z-0.5667 I0.0062 J0.0108
G2 X11.9725 Y28.01 Z-0.6 I0.0062 J-0.0108
G2 X11.9538 Y27.9992 Z-0.6333 I-0.0125 J0.0
G2 Y28.0208 Z-0.6667 I0.0062 J0.0108
G2 X11.9725 Y28.01 Z-0.7 I0.0062 J-0.0108
G2 X11.9538 Y27.9992 Z-0.7333 I-0.0125 J0.0
G2 Y28.0208 Z-0.7667 I0.0062 J0.0108
G2 X11.9725 Y28.01 Z-0.8 I0.0062 J-0.0108
G2 X11.9538 Y27.9992 Z-0.8333 I-0.0125 J0.0
G2 Y28.0208 Z-0.8667 I0.0062 J0.0108
G2 X11.9725 Y28.01 Z-0.9 I0.0062 J-0.0108
G2 X11.9538 Y27.9992 Z-0.9333 I-0.0125 J0.0
G2 Y28.0208 Z-0.9667 I0.0062 J0.0108
G2 X11.9725 Y28.01 Z-1.0 I0.0062 J-0.0108
G2 X11.9538 Y27.9992 Z-1.0333 I-0.0125 J0.0
G2 Y28.0208 Z-1.0667 I0.0062 J0.0108
G2 X11.9725 Y28.01 Z-1.1 I0.0062 J-0.0108
G2 X11.9538 Y27.9992 Z-1.1333 I-0.0125 J0.0
G2 Y28.0208 Z-1.1667 I0.0062 J0.0108
G2 X11.9725 Y28.01 Z-1.2 I0.0063 J-0.0108
G2 X11.9538 Y27.9992 Z-1.2333 I-0.0125 J0.0
G2 Y28.0208 Z-1.2667 I0.0062 J0.0108
G2 X11.9725 Y28.01 Z-1.3 I0.0063 J-0.0108
G2 X11.9538 Y27.9992 Z-1.3333 I-0.0125 J0.0
G2 Y28.0208 Z-1.3667 I0.0062 J0.0108
G2 X11.9725 Y28.01 Z-1.4 I0.0063 J-0.0108
G2 X11.9538 Y27.9992 Z-1.4333 I-0.0125 J0.0
G2 Y28.0208 Z-1.4667 I0.0062 J0.0108
G2 X11.9725 Y28.01 Z-1.5 I0.0063 J-0.0108
G2 X11.9538 Y27.9992 Z-1.5333 I-0.0125 J0.0
G2 Y28.0208 Z-1.5667 I0.0062 J0.0108
G2 X11.9725 Y28.01 Z-1.6 I0.0063 J-0.0108
G2 X11.9538 Y27.9992 Z-1.6333 I-0.0125 J0.0
G2 Y28.0208 Z-1.6667 I0.0062 J0.0108
G2 X11.9725 Y28.01 Z-1.7 I0.0063 J-0.0108
G2 X11.9538 Y27.9992 Z-1.7333 I-0.0125 J0.0
G2 Y28.0208 Z-1.7667 I0.0062 J0.0108
G2 X11.9725 Y28.01 Z-1.8 I0.0063 J-0.0108
G2 X11.9538 Y27.9992 Z-1.8333 I-0.0125 J0.0
G2 Y28.0208 Z-1.8667 I0.0062 J0.0108
G2 X11.9725 Y28.01 Z-1.9 I0.0063 J-0.0108
G2 X11.9538 Y27.9992 Z-1.9333 I-0.0125 J0.0
G2 Y28.0208 Z-1.9667 I0.0062 J0.0108
G2 X11.9725 Y28.01 Z-2.0 I0.0063 J-0.0108
G2 X11.9538 Y27.9992 Z-2.0333 I-0.0125 J0.0
G2 Y28.0208 Z-2.0667 I0.0062 J0.0108
G2 X11.9725 Y28.01 Z-2.1 I0.0063 J-0.0108
G2 X11.9538 Y27.9992 Z-2.1333 I-0.0125 J0.0
G2 Y28.0208 Z-2.1667 I0.0062 J0.0108
G2 X11.9725 Y28.01 Z-2.2 I0.0063 J-0.0108
G2 X11.9538 Y27.9992 Z-2.2333 I-0.0125 J0.0
G2 Y28.0208 Z-2.2667 I0.0062 J0.0108
G2 X11.9725 Y28.01 Z-2.3 I0.0062 J-0.0108
G2 X11.9538 Y27.9992 Z-2.3333 I-0.0125 J0.0
G2 Y28.0208 Z-2.3667 I0.0062 J0.0108
G2 X11.9725 Y28.01 Z-2.4 I0.0062 J-0.0108
G2 X11.9538 Y27.9992 Z-2.4333 I-0.0125 J0.0
G2 Y28.0208 Z-2.4667 I0.0062 J0.0108
G2 X11.9725 Y28.01 Z-2.5 I0.0062 J-0.0108
G2 X11.9538 Y27.9992 Z-2.5333 I-0.0125 J0.0
G2 Y28.0208 Z-2.5667 I0.0062 J0.0108
G2 X11.9725 Y28.01 Z-2.6 I0.0062 J-0.0108
G2 X11.9538 Y27.9992 Z-2.6333 I-0.0125 J0.0
G2 Y28.0208 Z-2.6667 I0.0063 J0.0108
G2 X11.9725 Y28.01 Z-2.7 I0.0062 J-0.0108
G2 X11.9538 Y27.9992 Z-2.7333 I-0.0125 J0.0
G2 Y28.0208 Z-2.7667 I0.0063 J0.0108
G2 X11.9725 Y28.01 Z-2.8 I0.0062 J-0.0108
G2 X11.9538 Y27.9992 Z-2.8333 I-0.0125 J0.0
G2 Y28.0208 Z-2.8667 I0.0063 J0.0108
G2 X11.9725 Y28.01 Z-2.9 I0.0062 J-0.0108
G2 X11.9538 Y27.9992 Z-2.9333 I-0.0125 J0.0
G2 Y28.0208 Z-2.9667 I0.0063 J0.0108
G2 X11.9725 Y28.01 Z-3.0 I0.0062 J-0.0108
G2 X11.9538 Y27.9992 Z-3.0333 I-0.0125 J0.0
G2 Y28.0208 Z-3.0667 I0.0063 J0.0108
G2 X11.9725 Y28.01 Z-3.1 I0.0062 J-0.0108
G2 X11.9538 Y27.9992 Z-3.1333 I-0.0125 J0.0
G2 Y28.0208 Z-3.1667 I0.0063 J0.0108
G2 X11.9725 Y28.01 Z-3.2 I0.0062 J-0.0108
G2 X11.9538 Y27.9992 I-0.0125 J0.0
G2 Y28.0208 I0.0063 J0.0108
G2 X11.9725 Y28.01 I0.0062 J-0.0108
G0 Z3.0
G0 X7.5125 Y3.0
G0 Z0.25
G1 F1000.0 Z0.0
G2 F2000.0 X7.4938 Y2.9892 Z-0.0333 I-0.0125 J0.0
G2 Y3.0108 Z-0.0667 I0.0062 J0.0108
G2 X7.5125 Y3.0 Z-0.1 I0.0063 J-0.0108
G2 X7.4938 Y2.9892 Z-0.1333 I-0.0125 J0.0
G2 Y3.0108 Z-0.1667 I0.0062 J0.0108
G2 X7.5125 Y3.0 Z-0.2 I0.0063 J-0.0108
G2 X7.4938 Y2.9892 Z-0.2333 I-0.0125 J0.0
G2 Y3.0108 Z-0.2667 I0.0062 J0.0108
G2 X7.5125 Y3.0 Z-0.3 I0.0063 J-0.0108
G2 X7.4938 Y2.9892 Z-0.3333 I-0.0125 J0.0
G2 Y3.0108 Z-0.3667 I0.0063 J0.0108
G2 X7.5125 Y3.0 Z-0.4 I0.0062 J-0.0108
G2 X7.4938 Y2.9892 Z-0.4333 I-0.0125 J0.0
G2 Y3.0108 Z-0.4667 I0.0063 J0.0108
G2 X7.5125 Y3.0 Z-0.5 I0.0062 J-0.0108
G2 X7.4938 Y2.9892 Z-0.5333 I-0.0125 J0.0
G2 Y3.0108 Z-0.5667 I0.0063 J0.0108
G2 X7.5125 Y3.0 Z-0.6 I0.0062 J-0.0108
G2 X7.4938 Y2.9892 Z-0.6333 I-0.0125 J0.0
G2 Y3.0108 Z-0.6667 I0.0062 J0.0108
G2 X7.5125 Y3.0 Z-0.7 I0.0063 J-0.0108
G2 X7.4938 Y2.9892 Z-0.7333 I-0.0125 J0.0
G2 Y3.0108 Z-0.7667 I0.0062 J0.0108
G2 X7.5125 Y3.0 Z-0.8 I0.0063 J-0.0108
G2 X7.4938 Y2.9892 Z-0.8333 I-0.0125 J0.0
G2 Y3.0108 Z-0.8667 I0.0062 J0.0108
G2 X7.5125 Y3.0 Z-0.9 I0.0063 J-0.0108
G2 X7.4938 Y2.9892 Z-0.9333 I-0.0125 J0.0
G2 Y3.0108 Z-0.9667 I0.0062 J0.0108
G2 X7.5125 Y3.0 Z-1.0 I0.0063 J-0.0108
G2 X7.4938 Y2.9892 Z-1.0333 I-0.0125 J0.0
G2 Y3.0108 Z-1.0667 I0.0062 J0.0108
G2 X7.5125 Y3.0 Z-1.1 I0.0063 J-0.0108
G2 X7.4938 Y2.9892 Z-1.1333 I-0.0125 J0.0
G2 Y3.0108 Z-1.1667 I0.0062 J0.0108
G2 X7.5125 Y3.0 Z-1.2 I0.0063 J-0.0108
G2 X7.4938 Y2.9892 Z-1.2333 I-0.0125 J0.0
G2 Y3.0108 Z-1.2667 I0.0062 J0.0108
G2 X7.5125 Y3.0 Z-1.3 I0.0063 J-0.0108
G2 X7.4938 Y2.9892 Z-1.3333 I-0.0125 J0.0
G2 Y3.0108 Z-1.3667 I0.0062 J0.0108
G2 X7.5125 Y3.0 Z-1.4 I0.0063 J-0.0108
G2 X7.4938 Y2.9892 Z-1.4333 I-0.0125 J0.0
G2 Y3.0108 Z-1.4667 I0.0062 J0.0108
G2 X7.5125 Y3.0 Z-1.5 I0.0063 J-0.0108
G2 X7.4938 Y2.9892 Z-1.5333 I-0.0125 J0.0
G2 Y3.0108 Z-1.5667 I0.0062 J0.0108
G2 X7.5125 Y3.0 Z-1.6 I0.0063 J-0.0108
G2 X7.4938 Y2.9892 Z-1.6333 I-0.0125 J0.0
G2 Y3.0108 Z-1.6667 I0.0062 J0.0108
G2 X7.5125 Y3.0 Z-1.7 I0.0063 J-0.0108
G2 X7.4938 Y2.9892 Z-1.7333 I-0.0125 J0.0
G2 Y3.0108 Z-1.7667 I0.0062 J0.0108
G2 X7.5125 Y3.0 Z-1.8 I0.0063 J-0.0108
G2 X7.4938 Y2.9892 Z-1.8333 I-0.0125 J0.0
G2 Y3.0108 Z-1.8667 I0.0062 J0.0108
G2 X7.5125 Y3.0 Z-1.9 I0.0063 J-0.0108
G2 X7.4938 Y2.9892 Z-1.9333 I-0.0125 J0.0
G2 Y3.0108 Z-1.9667 I0.0062 J0.0108
G2 X7.5125 Y3.0 Z-2.0 I0.0063 J-0.0108
G2 X7.4938 Y2.9892 Z-2.0333 I-0.0125 J0.0
G2 Y3.0108 Z-2.0667 I0.0062 J0.0108
G2 X7.5125 Y3.0 Z-2.1 I0.0063 J-0.0108
G2 X7.4938 Y2.9892 Z-2.1333 I-0.0125 J0.0
G2 Y3.0108 Z-2.1667 I0.0062 J0.0108
G2 X7.5125 Y3.0 Z-2.2 I0.0063 J-0.0108
G2 X7.4938 Y2.9892 Z-2.2333 I-0.0125 J0.0
G2 Y3.0108 Z-2.2667 I0.0062 J0.0108
G2 X7.5125 Y3.0 Z-2.3 I0.0063 J-0.0108
G2 X7.4938 Y2.9892 Z-2.3333 I-0.0125 J0.0
G2 Y3.0108 Z-2.3667 I0.0063 J0.0108
G2 X7.5125 Y3.0 Z-2.4 I0.0062 J-0.0108
G2 X7.4938 Y2.9892 Z-2.4333 I-0.0125 J0.0
G2 Y3.0108 Z-2.4667 I0.0063 J0.0108
G2 X7.5125 Y3.0 Z-2.5 I0.0062 J-0.0108
G2 X7.4938 Y2.9892 Z-2.5333 I-0.0125 J0.0
G2 Y3.0108 Z-2.5667 I0.0063 J0.0108
G2 X7.5125 Y3.0 Z-2.6 I0.0062 J-0.0108
G2 X7.4938 Y2.9892 Z-2.6333 I-0.0125 J0.0
G2 Y3.0108 Z-2.6667 I0.0063 J0.0108
G2 X7.5125 Y3.0 Z-2.7 I0.0062 J-0.0108
G2 X7.4938 Y2.9892 Z-2.7333 I-0.0125 J0.0
G2 Y3.0108 Z-2.7667 I0.0063 J0.0108
G2 X7.5125 Y3.0 Z-2.8 I0.0062 J-0.0108
G2 X7.4938 Y2.9892 Z-2.8333 I-0.0125 J0.0
G2 Y3.0108 Z-2.8667 I0.0063 J0.0108
G2 X7.5125 Y3.0 Z-2.9 I0.0062 J-0.0108
G2 X7.4938 Y2.9892 Z-2.9333 I-0.0125 J0.0
G2 Y3.0108 Z-2.9667 I0.0063 J0.0108
G2 X7.5125 Y3.0 Z-3.0 I0.0062 J-0.0108
G2 X7.4938 Y2.9892 Z-3.0333 I-0.0125 J0.0
G2 Y3.0108 Z-3.0667 I0.0063 J0.0108
G2 X7.5125 Y3.0 Z-3.1 I0.0062 J-0.0108
G2 X7.4938 Y2.9892 Z-3.1333 I-0.0125 J0.0
G2 Y3.0108 Z-3.1667 I0.0063 J0.0108
G2 X7.5125 Y3.0 Z-3.2 I0.0062 J-0.0108
G2 X7.4938 Y2.9892 I-0.0125 J0.0
G2 Y3.0108 I0.0063 J0.0108
G2 X7.5125 Y3.0 I0.0062 J-0.0108
G0 Z3.0
G0 X34.2325
G0 Z0.25
G1 F1000.0 Z0.0
G2 F2000.0 X34.2137 Y2.9892 Z-0.0333 I-0.0125 J0.0
G2 Y3.0108 Z-0.0667 I0.0063 J0.0108
G2 X34.2325 Y3.0 Z-0.1 I0.0063 J-0.0108
G2 X34.2137 Y2.9892 Z-0.1333 I-0.0125 J0.0
G2 Y3.0108 Z-0.1667 I0.0063 J0.0108
G2 X34.2325 Y3.0 Z-0.2 I0.0063 J-0.0108
G2 X34.2137 Y2.9892 Z-0.2333 I-0.0125 J0.0
G2 Y3.0108 Z-0.2667 I0.0063 J0.0108
G2 X34.2325 Y3.0 Z-0.3 I0.0063 J-0.0108
G2 X34.2137 Y2.9892 Z-0.3333 I-0.0125 J0.0
G2 Y3.0108 Z-0.3667 I0.0063 J0.0108
G2 X34.2325 Y3.0 Z-0.4 I0.0063 J-0.0108
G2 X34.2137 Y2.9892 Z-0.4333 I-0.0125 J0.0
G2 Y3.0108 Z-0.4667 I0.0063 J0.0108
G2 X34.2325 Y3.0 Z-0.5 I0.0063 J-0.0108
G2 X34.2137 Y2.9892 Z-0.5333 I-0.0125 J0.0
G2 Y3.0108 Z-0.5667 I0.0063 J0.0108
G2 X34.2325 Y3.0 Z-0.6 I0.0063 J-0.0108
G2 X34.2137 Y2.9892 Z-0.6333 I-0.0125 J0.0
G2 Y3.0108 Z-0.6667 I0.0063 J0.0108
G2 X34.2325 Y3.0 Z-0.7 I0.0063 J-0.0108
G2 X34.2137 Y2.9892 Z-0.7333 I-0.0125 J0.0
G2 Y3.0108 Z-0.7667 I0.0063 J0.0108
G2 X34.2325 Y3.0 Z-0.8 I0.0063 J-0.0108
G2 X34.2137 Y2.9892 Z-0.8333 I-0.0125 J0.0
G2 Y3.0108 Z-0.8667 I0.0063 J0.0108
G2 X34.2325 Y3.0 Z-0.9 I0.0063 J-0.0108
G2 X34.2137 Y2.9892 Z-0.9333 I-0.0125 J0.0
G2 Y3.0108 Z-0.9667 I0.0063 J0.0108
G2 X34.2325 Y3.0 Z-1.0 I0.0063 J-0.0108
G2 X34.2137 Y2.9892 Z-1.0333 I-0.0125 J0.0
G2 Y3.0108 Z-1.0667 I0.0063 J0.0108
G2 X34.2325 Y3.0 Z-1.1 I0.0063 J-0.0108
G2 X34.2137 Y2.9892 Z-1.1333 I-0.0125 J0.0
G2 Y3.0108 Z-1.1667 I0.0063 J0.0108
G2 X34.2325 Y3.0 Z-1.2 I0.0063 J-0.0108
G2 X34.2137 Y2.9892 Z-1.2333 I-0.0125 J0.0
G2 Y3.0108 Z-1.2667 I0.0063 J0.0108
G2 X34.2325 Y3.0 Z-1.3 I0.0063 J-0.0108
G2 X34.2137 Y2.9892 Z-1.3333 I-0.0125 J0.0
G2 Y3.0108 Z-1.3667 I0.0063 J0.0108
G2 X34.2325 Y3.0 Z-1.4 I0.0063 J-0.0108
G2 X34.2137 Y2.9892 Z-1.4333 I-0.0125 J0.0
G2 Y3.0108 Z-1.4667 I0.0063 J0.0108
G2 X34.2325 Y3.0 Z-1.5 I0.0063 J-0.0108
G2 X34.2137 Y2.9892 Z-1.5333 I-0.0125 J0.0
G2 Y3.0108 Z-1.5667 I0.0063 J0.0108
G2 X34.2325 Y3.0 Z-1.6 I0.0063 J-0.0108
G2 X34.2137 Y2.9892 Z-1.6333 I-0.0125 J0.0
G2 Y3.0108 Z-1.6667 I0.0063 J0.0108
G2 X34.2325 Y3.0 Z-1.7 I0.0063 J-0.0108
G2 X34.2137 Y2.9892 Z-1.7333 I-0.0125 J0.0
G2 Y3.0108 Z-1.7667 I0.0063 J0.0108
G2 X34.2325 Y3.0 Z-1.8 I0.0063 J-0.0108
G2 X34.2137 Y2.9892 Z-1.8333 I-0.0125 J0.0
G2 Y3.0108 Z-1.8667 I0.0063 J0.0108
G2 X34.2325 Y3.0 Z-1.9 I0.0063 J-0.0108
G2 X34.2137 Y2.9892 Z-1.9333 I-0.0125 J0.0
G2 Y3.0108 Z-1.9667 I0.0063 J0.0108
G2 X34.2325 Y3.0 Z-2.0 I0.0063 J-0.0108
G2 X34.2137 Y2.9892 Z-2.0333 I-0.0125 J0.0
G2 Y3.0108 Z-2.0667 I0.0063 J0.0108
G2 X34.2325 Y3.0 Z-2.1 I0.0063 J-0.0108
G2 X34.2137 Y2.9892 Z-2.1333 I-0.0125 J0.0
G2 Y3.0108 Z-2.1667 I0.0063 J0.0108
G2 X34.2325 Y3.0 Z-2.2 I0.0063 J-0.0108
G2 X34.2137 Y2.9892 Z-2.2333 I-0.0125 J0.0
G2 Y3.0108 Z-2.2667 I0.0063 J0.0108
G2 X34.2325 Y3.0 Z-2.3 I0.0063 J-0.0108
G2 X34.2137 Y2.9892 Z-2.3333 I-0.0125 J0.0
G2 Y3.0108 Z-2.3667 I0.0063 J0.0108
G2 X34.2325 Y3.0 Z-2.4 I0.0063 J-0.0108
G2 X34.2137 Y2.9892 Z-2.4333 I-0.0125 J0.0
G2 Y3.0108 Z-2.4667 I0.0063 J0.0108
G2 X34.2325 Y3.0 Z-2.5 I0.0063 J-0.0108
G2 X34.2137 Y2.9892 Z-2.5333 I-0.0125 J0.0
G2 Y3.0108 Z-2.5667 I0.0063 J0.0108
G2 X34.2325 Y3.0 Z-2.6 I0.0063 J-0.0108
G2 X34.2137 Y2.9892 Z-2.6333 I-0.0125 J0.0
G2 Y3.0108 Z-2.6667 I0.0063 J0.0108
G2 X34.2325 Y3.0 Z-2.7 I0.0063 J-0.0108
G2 X34.2137 Y2.9892 Z-2.7333 I-0.0125 J0.0
G2 Y3.0108 Z-2.7667 I0.0063 J0.0108
G2 X34.2325 Y3.0 Z-2.8 I0.0063 J-0.0108
G2 X34.2137 Y2.9892 Z-2.8333 I-0.0125 J0.0
G2 Y3.0108 Z-2.8667 I0.0063 J0.0108
G2 X34.2325 Y3.0 Z-2.9 I0.0063 J-0.0108
G2 X34.2137 Y2.9892 Z-2.9333 I-0.0125 J0.0
G2 Y3.0108 Z-2.9667 I0.0063 J0.0108
G2 X34.2325 Y3.0 Z-3.0 I0.0062 J-0.0108
G2 X34.2137 Y2.9892 Z-3.0333 I-0.0125 J0.0
G2 Y3.0108 Z-3.0667 I0.0063 J0.0108
G2 X34.2325 Y3.0 Z-3.1 I0.0062 J-0.0108
G2 X34.2137 Y2.9892 Z-3.1333 I-0.0125 J0.0
G2 Y3.0108 Z-3.1667 I0.0063 J0.0108
G2 X34.2325 Y3.0 Z-3.2 I0.0062 J-0.0108
G2 X34.2137 Y2.9892 I-0.0125 J0.0
G2 Y3.0108 I0.0063 J0.0108
G2 X34.2325 Y3.0 I0.0062 J-0.0108
( jacks )
S1000
G0 Z3.0
G0 X24.63 Y96.71
G0 Z3.0
G0 X26.1675 Y96.71
G0 Z0.25
G1 F1100.0 Z0.0
G2 F2000.0 X23.8613 Y95.3785 Z-0.0333 I-1.5375 J0.0
G2 Y98.0415 Z-0.0667 I0.7688 J1.3315
G2 X26.1675 Y96.71 Z-0.1 I0.7688 J-1.3315
G2 X23.8613 Y95.3785 Z-0.1333 I-1.5375 J0.0
G2 Y98.0415 Z-0.1667 I0.7687 J1.3315
G2 X26.1675 Y96.71 Z-0.2 I0.7688 J-1.3315
G2 X23.8613 Y95.3785 Z-0.2333 I-1.5375 J0.0
G2 Y98.0415 Z-0.2667 I0.7687 J1.3315
G2 X26.1675 Y96.71 Z-0.3 I0.7688 J-1.3315
G2 X23.8613 Y95.3785 Z-0.3333 I-1.5375 J0.0
G2 Y98.0415 Z-0.3667 I0.7688 J1.3315
G2 X26.1675 Y96.71 Z-0.4 I0.7688 J-1.3315
G2 X23.8613 Y95.3785 Z-0.4333 I-1.5375 J0.0
G2 Y98.0415 Z-0.4667 I0.7688 J1.3315
G2 X26.1675 Y96.71 Z-0.5 I0.7687 J-1.3315
G2 X23.8613 Y95.3785 Z-0.5333 I-1.5375 J0.0
G2 Y98.0415 Z-0.5667 I0.7688 J1.3315
G2 X26.1675 Y96.71 Z-0.6 I0.7688 J-1.3315
G2 X23.8613 Y95.3785 Z-0.6333 I-1.5375 J0.0
G2 Y98.0415 Z-0.6667 I0.7687 J1.3315
G2 X26.1675 Y96.71 Z-0.7 I0.7688 J-1.3315
G2 X23.8613 Y95.3785 Z-0.7333 I-1.5375 J0.0
G2 Y98.0415 Z-0.7667 I0.7687 J1.3315
G2 X26.1675 Y96.71 Z-0.8 I0.7688 J-1.3315
G2 X23.8613 Y95.3785 Z-0.8333 I-1.5375 J0.0
G2 Y98.0415 Z-0.8667 I0.7687 J1.3315
G2 X26.1675 Y96.71 Z-0.9 I0.7688 J-1.3315
G2 X23.8613 Y95.3785 Z-0.9333 I-1.5375 J0.0
G2 Y98.0415 Z-0.9667 I0.7687 J1.3315
G2 X26.1675 Y96.71 Z-1.0 I0.7688 J-1.3315
G2 X23.8613 Y95.3785 Z-1.0333 I-1.5375 J0.0
G2 Y98.0415 Z-1.0667 I0.7687 J1.3315
G2 X26.1675 Y96.71 Z-1.1 I0.7688 J-1.3315
G2 X23.8613 Y95.3785 Z-1.1333 I-1.5375 J0.0
G2 X23.8612 Y98.0415 Z-1.1667 I0.7687 J1.3315
G2 X26.1675 Y96.71 Z-1.2 I0.7688 J-1.3315
G2 X23.8613 Y95.3785 Z-1.2333 I-1.5375 J0.0
G2 X23.8612 Y98.0415 Z-1.2667 I0.7687 J1.3315
G2 X26.1675 Y96.71 Z-1.3 I0.7688 J-1.3315
G2 X23.8613 Y95.3785 Z-1.3333 I-1.5375 J0.0
G2 X23.8612 Y98.0415 Z-1.3667 I0.7687 J1.3315
G2 X26.1675 Y96.71 Z-1.4 I0.7688 J-1.3315
G2 X23.8613 Y95.3785 Z-1.4333 I-1.5375 J0.0
G2 X23.8612 Y98.0415 Z-1.4667 I0.7687 J1.3315
G2 X26.1675 Y96.71 Z-1.5 I0.7688 J-1.3315
G2 X23.8613 Y95.3785 Z-1.5333 I-1.5375 J0.0
G2 X23.8612 Y98.0415 Z-1.5667 I0.7687 J1.3315
G2 X26.1675 Y96.71 Z-1.6 I0.7688 J-1.3315
G2 X23.8613 Y95.3785 Z-1.6333 I-1.5375 J0.0
G2 X23.8612 Y98.0415 Z-1.6667 I0.7687 J1.3315
G2 X26.1675 Y96.71 Z-1.7 I0.7688 J-1.3315
G2 X23.8613 Y95.3785 Z-1.7333 I-1.5375 J0.0
G2 X23.8612 Y98.0415 Z-1.7667 I0.7687 J1.3315
G2 X26.1675 Y96.71 Z-1.8 I0.7688 J-1.3315
G2 X23.8613 Y95.3785 Z-1.8333 I-1.5375 J0.0
G2 X23.8612 Y98.0415 Z-1.8667 I0.7687 J1.3315
G2 X26.1675 Y96.71 Z-1.9 I0.7688 J-1.3315
G2 X23.8613 Y95.3785 Z-1.9333 I-1.5375 J0.0
G2 X23.8612 Y98.0415 Z-1.9667 I0.7687 J1.3315
G2 X26.1675 Y96.71 Z-2.0 I0.7688 J-1.3315
G2 X23.8613 Y95.3785 Z-2.0333 I-1.5375 J0.0
G2 X23.8612 Y98.0415 Z-2.0667 I0.7687 J1.3315
G2 X26.1675 Y96.71 Z-2.1 I0.7688 J-1.3315
G2 X23.8613 Y95.3785 Z-2.1333 I-1.5375 J0.0
G2 X23.8612 Y98.0415 Z-2.1667 I0.7687 J1.3315
G2 X26.1675 Y96.71 Z-2.2 I0.7688 J-1.3315
G2 X23.8613 Y95.3785 Z-2.2333 I-1.5375 J0.0
G2 Y98.0415 Z-2.2667 I0.7687 J1.3315
G2 X26.1675 Y96.71 Z-2.3 I0.7688 J-1.3315
G2 X23.8613 Y95.3785 Z-2.3333 I-1.5375 J0.0
G2 Y98.0415 Z-2.3667 I0.7688 J1.3315
G2 X26.1675 Y96.71 Z-2.4 I0.7687 J-1.3315
G2 X23.8613 Y95.3785 Z-2.4333 I-1.5375 J0.0
G2 Y98.0415 Z-2.4667 I0.7688 J1.3315
G2 X26.1675 Y96.71 Z-2.5 I0.7687 J-1.3315
G2 X23.8612 Y95.3785 Z-2.5333 I-1.5375 J0.0
G2 X23.8613 Y98.0415 Z-2.5667 I0.7688 J1.3315
G2 X26.1675 Y96.71 Z-2.6 I0.7687 J-1.3315
G2 X23.8612 Y95.3785 Z-2.6333 I-1.5375 J0.0
G2 X23.8613 Y98.0415 Z-2.6667 I0.7688 J1.3315
G2 X26.1675 Y96.71 Z-2.7 I0.7687 J-1.3315
G2 X23.8612 Y95.3785 Z-2.7333 I-1.5375 J0.0
G2 X23.8613 Y98.0415 Z-2.7667 I0.7688 J1.3315
G2 X26.1675 Y96.71 Z-2.8 I0.7687 J-1.3315
G2 X23.8612 Y95.3785 Z-2.8333 I-1.5375 J0.0
G2 X23.8613 Y98.0415 Z-2.8667 I0.7688 J1.3315
G2 X26.1675 Y96.71 Z-2.9 I0.7687 J-1.3315
G2 X23.8612 Y95.3785 Z-2.9333 I-1.5375 J0.0
G2 X23.8613 Y98.0415 Z-2.9667 I0.7688 J1.3315
G2 X26.1675 Y96.71 Z-3.0 I0.7687 J-1.3315
G2 X23.8612 Y95.3785 Z-3.0333 I-1.5375 J0.0
G2 X23.8613 Y98.0415 Z-3.0667 I0.7688 J1.3315
G2 X26.1675 Y96.71 Z-3.1 I0.7687 J-1.3315
G2 X23.8612 Y95.3785 Z-3.1333 I-1.5375 J0.0
G2 X23.8613 Y98.0415 Z-3.1667 I0.7688 J1.3315
G2 X26.1675 Y96.71 Z-3.2 I0.7687 J-1.3315
G2 X23.8612 Y95.3785 I-1.5375 J0.0
G2 X23.8613 Y98.0415 I0.7688 J1.3315
G2 X26.1675 Y96.71 I0.7687 J-1.3315
G0 Z3.0
G0 X36.4175
G0 Z0.25
G1 F1100.0 Z0.0
G2 F2000.0 X34.1113 Y95.3785 Z-0.0333 I-1.5375 J0.0
G2 Y98.0415 Z-0.0667 I0.7687 J1.3315
G2 X36.4175 Y96.71 Z-0.1 I0.7688 J-1.3315
G2 X34.1113 Y95.3785 Z-0.1333 I-1.5375 J0.0
G2 Y98.0415 Z-0.1667 I0.7687 J1.3315
G2 X36.4175 Y96.71 Z-0.2 I0.7688 J-1.3315
G2 X34.1113 Y95.3785 Z-0.2333 I-1.5375 J0.0
G2 Y98.0415 Z-0.2667 I0.7687 J1.3315
G2 X36.4175 Y96.71 Z-0.3 I0.7688 J-1.3315
G2 X34.1113 Y95.3785 Z-0.3333 I-1.5375 J0.0
G2 Y98.0415 Z-0.3667 I0.7687 J1.3315
G2 X36.4175 Y96.71 Z-0.4 I0.7687 J-1.3315
G2 X34.1113 Y95.3785 Z-0.4333 I-1.5375 J0.0
G2 Y98.0415 Z-0.4667 I0.7688 J1.3315
G2 X36.4175 Y96.71 Z-0.5 I0.7687 J-1.3315
G2 X34.1113 Y95.3785 Z-0.5333 I-1.5375 J0.0
G2 Y98.0415 Z-0.5667 I0.7688 J1.3315
G2 X36.4175 Y96.71 Z-0.6 I0.7687 J-1.3315
G2 X34.1113 Y95.3785 Z-0.6333 I-1.5375 J0.0
G2 Y98.0415 Z-0.6667 I0.7687 J1.3315
G2 X36.4175 Y96.71 Z-0.7 I0.7688 J-1.3315
G2 X34.1113 Y95.3785 Z-0.7333 I-1.5375 J0.0
G2 Y98.0415 Z-0.7667 I0.7687 J1.3315
G2 X36.4175 Y96.71 Z-0.8 I0.7688 J-1.3315
G2 X34.1113 Y95.3785 Z-0.8333 I-1.5375 J0.0
G2 Y98.0415 Z-0.8667 I0.7687 J1.3315
G2 X36.4175 Y96.71 Z-0.9 I0.7688 J-1.3315
G2 X34.1113 Y95.3785 Z-0.9333 I-1.5375 J0.0
G2 Y98.0415 Z-0.9667 I0.7687 J1.3315
G2 X36.4175 Y96.71 Z-1.0 I0.7688 J-1.3315
G2 X34.1113 Y95.3785 Z-1.0333 I-1.5375 J0.0
G2 Y98.0415 Z-1.0667 I0.7687 J1.3315
G2 X36.4175 Y96.71 Z-1.1 I0.7688 J-1.3315
G2 X34.1113 Y95.3785 Z-1.1333 I-1.5375 J0.0
G2 X34.1112 Y98.0415 Z-1.1667 I0.7687 J1.3315
G2 X36.4175 Y96.71 Z-1.2 I0.7688 J-1.3315
G2 X34.1113 Y95.3785 Z-1.2333 I-1.5375 J0.0
G2 X34.1112 Y98.0415 Z-1.2667 I0.7687 J1.3315
G2 X36.4175 Y96.71 Z-1.3 I0.7688 J-1.3315
G2 X34.1113 Y95.3785 Z-1.3333 I-1.5375 J0.0
G2 X34.1112 Y98.0415 Z-1.3667 I0.7687 J1.3315
G2 X36.4175 Y96.71 Z-1.4 I0.7688 J-1.3315
G2 X34.1113 Y95.3785 Z-1.4333 I-1.5375 J0.0
G2 X34.1112 Y98.0415 Z-1.4667 I0.7687 J1.3315
G2 X36.4175 Y96.71 Z-1.5 I0.7688 J-1.3315
G2 X34.1113 Y95.3785 Z-1.5333 I-1.5375 J0.0
G2 X34.1112 Y98.0415 Z-1.5667 I0.7687 J1.3315
G2 X36.4175 Y96.71 Z-1.6 I0.7688 J-1.3315
G2 X34.1113 Y95.3785 Z-1.6333 I-1.5375 J0.0
G2 X34.1112 Y98.0415 Z-1.6667 I0.7687 J1.3315
G2 X36.4175 Y96.71 Z-1.7 I0.7688 J-1.3315
G2 X34.1113 Y95.3785 Z-1.7333 I-1.5375 J0.0
G2 X34.1112 Y98.0415 Z-1.7667 I0.7687 J1.3315
G2 X36.4175 Y96.71 Z-1.8 I0.7688 J-1.3315
G2 X34.1113 Y95.3785 Z-1.8333 I-1.5375 J0.0
G2 X34.1112 Y98.0415 Z-1.8667 I0.7687 J1.3315
G2 X36.4175 Y96.71 Z-1.9 I0.7688 J-1.3315
G2 X34.1113 Y95.3785 Z-1.9333 I-1.5375 J0.0
G2 X34.1112 Y98.0415 Z-1.9667 I0.7687 J1.3315
G2 X36.4175 Y96.71 Z-2.0 I0.7688 J-1.3315
G2 X34.1113 Y95.3785 Z-2.0333 I-1.5375 J0.0
G2 X34.1112 Y98.0415 Z-2.0667 I0.7687 J1.3315
G2 X36.4175 Y96.71 Z-2.1 I0.7688 J-1.3315
G2 X34.1113 Y95.3785 Z-2.1333 I-1.5375 J0.0
G2 X34.1112 Y98.0415 Z-2.1667 I0.7687 J1.3315
G2 X36.4175 Y96.71 Z-2.2 I0.7688 J-1.3315
G2 X34.1113 Y95.3785 Z-2.2333 I-1.5375 J0.0
G2 Y98.0415 Z-2.2667 I0.7687 J1.3315
G2 X36.4175 Y96.71 Z-2.3 I0.7688 J-1.3315
G2 X34.1113 Y95.3785 Z-2.3333 I-1.5375 J0.0
G2 Y98.0415 Z-2.3667 I0.7688 J1.3315
G2 X36.4175 Y96.71 Z-2.4 I0.7687 J-1.3315
G2 X34.1113 Y95.3785 Z-2.4333 I-1.5375 J0.0
G2 Y98.0415 Z-2.4667 I0.7688 J1.3315
G2 X36.4175 Y96.71 Z-2.5 I0.7687 J-1.3315
G2 X34.1112 Y95.3785 Z-2.5333 I-1.5375 J0.0
G2 X34.1113 Y98.0415 Z-2.5667 I0.7688 J1.3315
G2 X36.4175 Y96.71 Z-2.6 I0.7687 J-1.3315
G2 X34.1112 Y95.3785 Z-2.6333 I-1.5375 J0.0
G2 X34.1113 Y98.0415 Z-2.6667 I0.7688 J1.3315
G2 X36.4175 Y96.71 Z-2.7 I0.7687 J-1.3315
G2 X34.1112 Y95.3785 Z-2.7333 I-1.5375 J0.0
G2 X34.1113 Y98.0415 Z-2.7667 I0.7688 J1.3315
G2 X36.4175 Y96.71 Z-2.8 I0.7687 J-1.3315
G2 X34.1112 Y95.3785 Z-2.8333 I-1.5375 J0.0
G2 X34.1113 Y98.0415 Z-2.8667 I0.7688 J1.3315
G2 X36.4175 Y96.71 Z-2.9 I0.7687 J-1.3315
G2 X34.1112 Y95.3785 Z-2.9333 I-1.5375 J0.0
G2 X34.1113 Y98.0415 Z-2.9667 I0.7688 J1.3315
G2 X36.4175 Y96.71 Z-3.0 I0.7687 J-1.3315
G2 X34.1112 Y95.3785 Z-3.0333 I-1.5375 J0.0
G2 X34.1113 Y98.0415 Z-3.0667 I0.7688 J1.3315
G2 X36.4175 Y96.71 Z-3.1 I0.7687 J-1.3315
G2 X34.1112 Y95.3785 Z-3.1333 I-1.5375 J0.0
G2 X34.1113 Y98.0415 Z-3.1667 I0.7688 J1.3315
G2 X36.4175 Y96.71 Z-3.2 I0.7687 J-1.3315
G2 X34.1112 Y95.3785 I-1.5375 J0.0
G2 X34.1113 Y98.0415 I0.7688 J1.3315
G2 X36.4175 Y96.71 I0.7687 J-1.3315
G0 Z3.0
G0 X25.2575 Y110.59
G0 Z0.25
G1 F1100.0 Z0.0
G2 F2000.0 X22.9513 Y109.2585 Z-0.0333 I-1.5375 J0.0
G2 Y111.9215 Z-0.0667 I0.7688 J1.3315
G2 X25.2575 Y110.59 Z-0.1 I0.7688 J-1.3315
G2 X22.9513 Y109.2585 Z-0.1333 I-1.5375 J0.0
G2 Y111.9215 Z-0.1667 I0.7687 J1.3315
G2 X25.2575 Y110.59 Z-0.2 I0.7688 J-1.3315
G2 X22.9513 Y109.2585 Z-0.2333 I-1.5375 J0.0
G2 Y111.9215 Z-0.2667 I0.7687 J1.3315
G2 X25.2575 Y110.59 Z-0.3 I0.7688 J-1.3315
G2 X22.9513 Y109.2585 Z-0.3333 I-1.5375 J0.0
G2 Y111.9215 Z-0.3667 I0.7688 J1.3315
G2 X25.2575 Y110.59 Z-0.4 I0.7688 J-1.3315
G2 X22.9513 Y109.2585 Z-0.4333 I-1.5375 J0.0
G2 Y111.9215 Z-0.4667 I0.7688 J1.3315
G2 X25.2575 Y110.59 Z-0.5 I0.7687 J-1.3315
G2 X22.9513 Y109.2585 Z-0.5333 I-1.5375 J0.0
G2 Y111.9215 Z-0.5667 I0.7688 J1.3315
G2 X25.2575 Y110.59 Z-0.6 I0.7688 J-1.3315
G2 X22.9513 Y109.2585 Z-0.6333 I-1.5375 J0.0
G2 Y111.9215 Z-0.6667 I0.7687 J1.3315
G2 X25.2575 Y110.59 Z-0.7 I0.7688 J-1.3315
G2 X22.9513 Y109.2585 Z-0.7333 I-1.5375 J0.0
G2 Y111.9215 Z-0.7667 I0.7687 J1.3315
G2 X25.2575 Y110.59 Z-0.8 I0.7688 J-1.3315
G2 X22.9513 Y109.2585 Z-0.8333 I-1.5375 J0.0
G2 Y111.9215 Z-0.8667 I0.7687 J1.3315
G2 X25.2575 Y110.59 Z-0.9 I0.7688 J-1.3315
G2 X22.9513 Y109.2585 Z-0.9333 I-1.5375 J0.0
G2 Y111.9215 Z-0.9667 I0.7687 J1.3315
G2 X25.2575 Y110.59 Z-1.0 I0.7688 J-1.3315
G2 X22.9513 Y109.2585 Z-1.0333 I-1.5375 J0.0
G2 Y111.9215 Z-1.0667 I0.7687 J1.3315
G2 X25.2575 Y110.59 Z-1.1 I0.7688 J-1.3315
G2 X22.9513 Y109.2585 Z-1.1333 I-1.5375 J0.0
G2 X22.9512 Y111.9215 Z-1.1667 I0.7687 J1.3315
G2 X25.2575 Y110.59 Z-1.2 I0.7688 J-1.3315
G2 X22.9513 Y109.2585 Z-1.2333 I-1.5375 J0.0
G2 X22.9512 Y111.9215 Z-1.2667 I0.7687 J1.3315
G2 X25.2575 Y110.59 Z-1.3 I0.7688 J-1.3315
G2 X22.9513 Y109.2585 Z-1.3333 I-1.5375 J0.0
G2 X22.9512 Y111.9215 Z-1.3667 I0.7687 J1.3315
G2 X25.2575 Y110.59 Z-1.4 I0.7688 J-1.3315
G2 X22.9513 Y109.2585 Z-1.4333 I-1.5375 J0.0
G2 X22.9512 Y111.9215 Z-1.4667 I0.7687 J1.3315
G2 X25.2575 Y110.59 Z-1.5 I0.7688 J-1.3315
G2 X22.9513 Y109.2585 Z-1.5333 I-1.5375 J0.0
G2 X22.9512 Y111.9215 Z-1.5667 I0.7687 J1.3315
G2 X25.2575 Y110.59 Z-1.6 I0.7688 J-1.3315
G2 X22.9513 Y109.2585 Z-1.6333 I-1.5375 J0.0
G2 X22.9512 Y111.9215 Z-1.6667 I0.7687 J1.3315
G2 X25.2575 Y110.59 Z-1.7 I0.7688 J-1.3315
G2 X22.9513 Y109.2585 Z-1.7333 I-1.5375 J0.0
G2 X22.9512 Y111.9215 Z-1.7667 I0.7687 J1.3315
G2 X25.2575 Y110.59 Z-1.8 I0.7688 J-1.3315
G2 X22.9513 Y109.2585 Z-1.8333 I-1.5375 J0.0
G2 X22.9512 Y111.9215 Z-1.8667 I0.7687 J1.3315
G2 X25.2575 Y110.59 Z-1.9 I0.7688 J-1.3315
G2 X22.9513 Y109.2585 Z-1.9333 I-1.5375 J0.0
G2 X22.9512 Y111.9215 Z-1.9667 I0.7687 J1.3315
G2 X25.2575 Y110.59 Z-2.0 I0.7688 J-1.3315
G2 X22.9513 Y109.2585 Z-2.0333 I-1.5375 J0.0
G2 X22.9512 Y111.9215 Z-2.0667 I0.7687 J1.3315
G2 X25.2575 Y110.59 Z-2.1 I0.7688 J-1.3315
G2 X22.9513 Y109.2585 Z-2.1333 I-1.5375 J0.0
G2 X22.9512 Y111.9215 Z-2.1667 I0.7687 J1.3315
G2 X25.2575 Y110.59 Z-2.2 I0.7688 J-1.3315
G2 X22.9513 Y109.2585 Z-2.2333 I-1.5375 J0.0
G2 Y111.9215 Z-2.2667 I0.7687 J1.3315
G2 X25.2575 Y110.59 Z-2.3 I0.7688 J-1.3315
G2 X22.9513 Y109.2585 Z-2.3333 I-1.5375 J0.0
G2 Y111.9215 Z-2.3667 I0.7688 J1.3315
G2 X25.2575 Y110.59 Z-2.4 I0.7687 J-1.3315
G2 X22.9513 Y109.2585 Z-2.4333 I-1.5375 J0.0
G2 Y111.9215 Z-2.4667 I0.7688 J1.3315
G2 X25.2575 Y110.59 Z-2.5 I0.7687 J-1.3315
G2 X22.9512 Y109.2585 Z-2.5333 I-1.5375 J0.0
G2 X22.9513 Y111.9215 Z-2.5667 I0.7688 J1.3315
G2 X25.2575 Y110.59 Z-2.6 I0.7687 J-1.3315
G2 X22.9512 Y109.2585 Z-2.6333 I-1.5375 J0.0
G2 X22.9513 Y111.9215 Z-2.6667 I0.7688 J1.3315
G2 X25.2575 Y110.59 Z-2.7 I0.7687 J-1.3315
G2 X22.9512 Y109.2585 Z-2.7333 I-1.5375 J0.0
G2 X22.9513 Y111.9215 Z-2.7667 I0.7688 J1.3315
G2 X25.2575 Y110.59 Z-2.8 I0.7687 J-1.3315
G2 X22.9512 Y109.2585 Z-2.8333 I-1.5375 J0.0
G2 X22.9513 Y111.9215 Z-2.8667 I0.7688 J1.3315
G2 X25.2575 Y110.59 Z-2.9 I0.7687 J-1.3315
G2 X22.9512 Y109.2585 Z-2.9333 I-1.5375 J0.0
G2 X22.9513 Y111.9215 Z-2.9667 I0.7688 J1.3315
G2 X25.2575 Y110.59 Z-3.0 I0.7687 J-1.3315
G2 X22.9512 Y109.2585 Z-3.0333 I-1.5375 J0.0
G2 X22.9513 Y111.9215 Z-3.0667 I0.7688 J1.3315
G2 X25.2575 Y110.59 Z-3.1 I0.7687 J-1.3315
G2 X22.9512 Y109.2585 Z-3.1333 I-1.5375 J0.0
G2 X22.9513 Y111.9215 Z-3.1667 I0.7688 J1.3315
G2 X25.2575 Y110.59 Z-3.2 I0.7687 J-1.3315
G2 X22.9512 Y109.2585 I-1.5375 J0.0
G2 X22.9513 Y111.9215 I0.7688 J1.3315
G2 X25.2575 Y110.59 I0.7687 J-1.3315
G0 Z3.0
G0 X29.6875 Y38.25
G0 Z0.25
G1 F1100.0 Z0.0
G2 F2000.0 X27.3813 Y36.9185 Z-0.0333 I-1.5375 J0.0
G2 Y39.5815 Z-0.0667 I0.7688 J1.3315
G2 X29.6875 Y38.25 Z-0.1 I0.7688 J-1.3315
G2 X27.3813 Y36.9185 Z-0.1333 I-1.5375 J0.0
G2 Y39.5815 Z-0.1667 I0.7687 J1.3315
G2 X29.6875 Y38.25 Z-0.2 I0.7688 J-1.3315
G2 X27.3813 Y36.9185 Z-0.2333 I-1.5375 J0.0
G2 Y39.5815 Z-0.2667 I0.7687 J1.3315
G2 X29.6875 Y38.25 Z-0.3 I0.7688 J-1.3315
G2 X27.3813 Y36.9185 Z-0.3333 I-1.5375 J0.0
G2 Y39.5815 Z-0.3667 I0.7688 J1.3315
G2 X29.6875 Y38.25 Z-0.4 I0.7687 J-1.3315
G2 X27.3813 Y36.9185 Z-0.4333 I-1.5375 J0.0
G2 Y39.5815 Z-0.4667 I0.7688 J1.3315
G2 X29.6875 Y38.25 Z-0.5 I0.7687 J-1.3315
G2 X27.3813 Y36.9185 Z-0.5333 I-1.5375 J0.0
G2 Y39.5815 Z-0.5667 I0.7688 J1.3315
G2 X29.6875 Y38.25 Z-0.6 I0.7688 J-1.3315
G2 X27.3813 Y36.9185 Z-0.6333 I-1.5375 J0.0
G2 Y39.5815 Z-0.6667 I0.7687 J1.3315
G2 X29.6875 Y38.25 Z-0.7 I0.7688 J-1.3315
G2 X27.3813 Y36.9185 Z-0.7333 I-1.5375 J0.0
G2 Y39.5815 Z-0.7667 I0.7687 J1.3315
G2 X29.6875 Y38.25 Z-0.8 I0.7688 J-1.3315
G2 X27.3813 Y36.9185 Z-0.8333 I-1.5375 J0.0
G2 Y39.5815 Z-0.8667 I0.7687 J1.3315
G2 X29.6875 Y38.25 Z-0.9 I0.7688 J-1.3315
G2 X27.3813 Y36.9185 Z-0.9333 I-1.5375 J0.0
G2 Y39.5815 Z-0.9667 I0.7687 J1.3315
G2 X29.6875 Y38.25 Z-1.0 I0.7688 J-1.3315
G2 X27.3813 Y36.9185 Z-1.0333 I-1.5375 J0.0
G2 Y39.5815 Z-1.0667 I0.7687 J1.3315
G2 X29.6875 Y38.25 Z-1.1 I0.7688 J-1.3315
G2 X27.3813 Y36.9185 Z-1.1333 I-1.5375 J0.0
G2 Y39.5815 Z-1.1667 I0.7687 J1.3315
G2 X29.6875 Y38.25 Z-1.2 I0.7688 J-1.3315
G2 X27.3813 Y36.9185 Z-1.2333 I-1.5375 J0.0
G2 Y39.5815 Z-1.2667 I0.7687 J1.3315
G2 X29.6875 Y38.25 Z-1.3 I0.7688 J-1.3315
G2 X27.3813 Y36.9185 Z-1.3333 I-1.5375 J0.0
G2 Y39.5815 Z-1.3667 I0.7687 J1.3315
G2 X29.6875 Y38.25 Z-1.4 I0.7688 J-1.3315
G2 X27.3813 Y36.9185 Z-1.4333 I-1.5375 J0.0
G2 Y39.5815 Z-1.4667 I0.7687 J1.3315
G2 X29.6875 Y38.25 Z-1.5 I0.7688 J-1.3315
G2 X27.3813 Y36.9185 Z-1.5333 I-1.5375 J0.0
G2 Y39.5815 Z-1.5667 I0.7687 J1.3315
G2 X29.6875 Y38.25 Z-1.6 I0.7688 J-1.3315
G2 X27.3813 Y36.9185 Z-1.6333 I-1.5375 J0.0
G2 Y39.5815 Z-1.6667 I0.7687 J1.3315
G2 X29.6875 Y38.25 Z-1.7 I0.7688 J-1.3315
G2 X27.3813 Y36.9185 Z-1.7333 I-1.5375 J0.0
G2 Y39.5815 Z-1.7667 I0.7687 J1.3315
G2 X29.6875 Y38.25 Z-1.8 I0.7688 J-1.3315
G2 X27.3813 Y36.9185 Z-1.8333 I-1.5375 J0.0
G2 Y39.5815 Z-1.8667 I0.7687 J1.3315
G2 X29.6875 Y38.25 Z-1.9 I0.7688 J-1.3315
G2 X27.3813 Y36.9185 Z-1.9333 I-1.5375 J0.0
G2 Y39.5815 Z-1.9667 I0.7687 J1.3315
G2 X29.6875 Y38.25 Z-2.0 I0.7688 J-1.3315
G2 X27.3813 Y36.9185 Z-2.0333 I-1.5375 J0.0
G2 Y39.5815 Z-2.0667 I0.7687 J1.3315
G2 X29.6875 Y38.25 Z-2.1 I0.7688 J-1.3315
G2 X27.3813 Y36.9185 Z-2.1333 I-1.5375 J0.0
G2 Y39.5815 Z-2.1667 I0.7687 J1.3315
G2 X29.6875 Y38.25 Z-2.2 I0.7688 J-1.3315
G2 X27.3813 Y36.9185 Z-2.2333 I-1.5375 J0.0
G2 Y39.5815 Z-2.2667 I0.7687 J1.3315
G2 X29.6875 Y38.25 Z-2.3 I0.7688 J-1.3315
G2 X27.3813 Y36.9185 Z-2.3333 I-1.5375 J0.0
G2 Y39.5815 Z-2.3667 I0.7688 J1.3315
G2 X29.6875 Y38.25 Z-2.4 I0.7687 J-1.3315
G2 X27.3813 Y36.9185 Z-2.4333 I-1.5375 J0.0
G2 Y39.5815 Z-2.4667 I0.7688 J1.3315
G2 X29.6875 Y38.25 Z-2.5 I0.7687 J-1.3315
G2 X27.3813 Y36.9185 Z-2.5333 I-1.5375 J0.0
G2 Y39.5815 Z-2.5667 I0.7688 J1.3315
G2 X29.6875 Y38.25 Z-2.6 I0.7687 J-1.3315
G2 X27.3813 Y36.9185 Z-2.6333 I-1.5375 J0.0
G2 Y39.5815 Z-2.6667 I0.7688 J1.3315
G2 X29.6875 Y38.25 Z-2.7 I0.7687 J-1.3315
G2 X27.3813 Y36.9185 Z-2.7333 I-1.5375 J0.0
G2 Y39.5815 Z-2.7667 I0.7688 J1.3315
G2 X29.6875 Y38.25 Z-2.8 I0.7687 J-1.3315
G2 X27.3813 Y36.9185 Z-2.8333 I-1.5375 J0.0
G2 Y39.5815 Z-2.8667 I0.7688 J1.3315
G2 X29.6875 Y38.25 Z-2.9 I0.7687 J-1.3315
G2 X27.3813 Y36.9185 Z-2.9333 I-1.5375 J0.0
G2 Y39.5815 Z-2.9667 I0.7688 J1.3315
G2 X29.6875 Y38.25 Z-3.0 I0.7687 J-1.3315
G2 X27.3813 Y36.9185 Z-3.0333 I-1.5375 J0.0
G2 Y39.5815 Z-3.0667 I0.7688 J1.3315
G2 X29.6875 Y38.25 Z-3.1 I0.7687 J-1.3315
G2 X27.3813 Y36.9185 Z-3.1333 I-1.5375 J0.0
G2 Y39.5815 Z-3.1667 I0.7688 J1.3315
G2 X29.6875 Y38.25 Z-3.2 I0.7687 J-1.3315
G2 X27.3812 Y36.9185 I-1.5375 J0.0
G2 X27.3813 Y39.5815 I0.7688 J1.3315
G2 X29.6875 Y38.25 I0.7687 J-1.3315
G0 Z3.0
G0 X29.7575 Y26.25
G0 Z0.25
G1 F1100.0 Z0.0
G2 F2000.0 X27.4512 Y24.9185 Z-0.0333 I-1.5375 J0.0
G2 Y27.5815 Z-0.0667 I0.7688 J1.3315
G2 X29.7575 Y26.25 Z-0.1 I0.7688 J-1.3315
G2 X27.4512 Y24.9185 Z-0.1333 I-1.5375 J0.0
G2 Y27.5815 Z-0.1667 I0.7687 J1.3315
G2 X29.7575 Y26.25 Z-0.2 I0.7688 J-1.3315
G2 X27.4512 Y24.9185 Z-0.2333 I-1.5375 J0.0
G2 Y27.5815 Z-0.2667 I0.7687 J1.3315
G2 X29.7575 Y26.25 Z-0.3 I0.7688 J-1.3315
G2 X27.4512 Y24.9185 Z-0.3333 I-1.5375 J0.0
G2 Y27.5815 Z-0.3667 I0.7688 J1.3315
G2 X29.7575 Y26.25 Z-0.4 I0.7687 J-1.3315
G2 X27.4512 Y24.9185 Z-0.4333 I-1.5375 J0.0
G2 Y27.5815 Z-0.4667 I0.7688 J1.3315
G2 X29.7575 Y26.25 Z-0.5 I0.7687 J-1.3315
G2 X27.4512 Y24.9185 Z-0.5333 I-1.5375 J0.0
G2 Y27.5815 Z-0.5667 I0.7688 J1.3315
G2 X29.7575 Y26.25 Z-0.6 I0.7688 J-1.3315
G2 X27.4512 Y24.9185 Z-0.6333 I-1.5375 J0.0
G2 Y27.5815 Z-0.6667 I0.7687 J1.3315
G2 X29.7575 Y26.25 Z-0.7 I0.7688 J-1.3315
G2 X27.4512 Y24.9185 Z-0.7333 I-1.5375 J0.0
G2 Y27.5815 Z-0.7667 I0.7687 J1.3315
G2 X29.7575 Y26.25 Z-0.8 I0.7688 J-1.3315
G2 X27.4512 Y24.9185 Z-0.8333 I-1.5375 J0.0
G2 Y27.5815 Z-0.8667 I0.7687 J1.3315
G2 X29.7575 Y26.25 Z-0.9 I0.7688 J-1.3315
G2 X27.4512 Y24.9185 Z-0.9333 I-1.5375 J0.0
G2 Y27.5815 Z-0.9667 I0.7687 J1.3315
G2 X29.7575 Y26.25 Z-1.0 I0.7688 J-1.3315
G2 X27.4512 Y24.9185 Z-1.0333 I-1.5375 J0.0
G2 Y27.5815 Z-1.0667 I0.7687 J1.3315
G2 X29.7575 Y26.25 Z-1.1 I0.7688 J-1.3315
G2 X27.4513 Y24.9185 Z-1.1333 I-1.5375 J0.0
G2 X27.4512 Y27.5815 Z-1.1667 I0.7687 J1.3315
G2 X29.7575 Y26.25 Z-1.2 I0.7688 J-1.3315
G2 X27.4513 Y24.9185 Z-1.2333 I-1.5375 J0.0
G2 X27.4512 Y27.5815 Z-1.2667 I0.7687 J1.3315
G2 X29.7575 Y26.25 Z-1.3 I0.7688 J-1.3315
G2 X27.4513 Y24.9185 Z-1.3333 I-1.5375 J0.0
G2 X27.4512 Y27.5815 Z-1.3667 I0.7687 J1.3315
G2 X29.7575 Y26.25 Z-1.4 I0.7688 J-1.3315
G2 X27.4513 Y24.9185 Z-1.4333 I-1.5375 J0.0
G2 X27.4512 Y27.5815 Z-1.4667 I0.7687 J1.3315
G2 X29.7575 Y26.25 Z-1.5 I0.7688 J-1.3315
G2 X27.4513 Y24.9185 Z-1.5333 I-1.5375 J0.0
G2 X27.4512 Y27.5815 Z-1.5667 I0.7687 J1.3315
G2 X29.7575 Y26.25 Z-1.6 I0.7688 J-1.3315
G2 X27.4513 Y24.9185 Z-1.6333 I-1.5375 J0.0
G2 X27.4512 Y27.5815 Z-1.6667 I0.7687 J1.3315
G2 X29.7575 Y26.25 Z-1.7 I0.7688 J-1.3315
G2 X27.4513 Y24.9185 Z-1.7333 I-1.5375 J0.0
G2 X27.4512 Y27.5815 Z-1.7667 I0.7687 J1.3315
G2 X29.7575 Y26.25 Z-1.8 I0.7688 J-1.3315
G2 X27.4513 Y24.9185 Z-1.8333 I-1.5375 J0.0
G2 X27.4512 Y27.5815 Z-1.8667 I0.7687 J1.3315
G2 X29.7575 Y26.25 Z-1.9 I0.7688 J-1.3315
G2 X27.4513 Y24.9185 Z-1.9333 I-1.5375 J0.0
G2 X27.4512 Y27.5815 Z-1.9667 I0.7687 J1.3315
G2 X29.7575 Y26.25 Z-2.0 I0.7688 J-1.3315
G2 X27.4513 Y24.9185 Z-2.0333 I-1.5375 J0.0
G2 X27.4512 Y27.5815 Z-2.0667 I0.7687 J1.3315
G2 X29.7575 Y26.25 Z-2.1 I0.7688 J-1.3315
G2 X27.4513 Y24.9185 Z-2.1333 I-1.5375 J0.0
G2 X27.4512 Y27.5815 Z-2.1667 I0.7687 J1.3315
G2 X29.7575 Y26.25 Z-2.2 I0.7688 J-1.3315
G2 X27.4512 Y24.9185 Z-2.2333 I-1.5375 J0.0
G2 Y27.5815 Z-2.2667 I0.7687 J1.3315
G2 X29.7575 Y26.25 Z-2.3 I0.7688 J-1.3315
G2 X27.4512 Y24.9185 Z-2.3333 I-1.5375 J0.0
G2 Y27.5815 Z-2.3667 I0.7688 J1.3315
G2 X29.7575 Y26.25 Z-2.4 I0.7687 J-1.3315
G2 X27.4512 Y24.9185 Z-2.4333 I-1.5375 J0.0
G2 X27.4513 Y27.5815 Z-2.4667 I0.7688 J1.3315
G2 X29.7575 Y26.25 Z-2.5 I0.7687 J-1.3315
G2 X27.4512 Y24.9185 Z-2.5333 I-1.5375 J0.0
G2 X27.4513 Y27.5815 Z-2.5667 I0.7688 J1.3315
G2 X29.7575 Y26.25 Z-2.6 I0.7687 J-1.3315
G2 X27.4512 Y24.9185 Z-2.6333 I-1.5375 J0.0
G2 X27.4513 Y27.5815 Z-2.6667 I0.7688 J1.3315
G2 X29.7575 Y26.25 Z-2.7 I0.7687 J-1.3315
G2 X27.4512 Y24.9185 Z-2.7333 I-1.5375 J0.0
G2 X27.4513 Y27.5815 Z-2.7667 I0.7688 J1.3315
G2 X29.7575 Y26.25 Z-2.8 I0.7687 J-1.3315
G2 X27.4512 Y24.9185 Z-2.8333 I-1.5375 J0.0
G2 X27.4513 Y27.5815 Z-2.8667 I0.7688 J1.3315
G2 X29.7575 Y26.25 Z-2.9 I0.7687 J-1.3315
G2 X27.4512 Y24.9185 Z-2.9333 I-1.5375 J0.0
G2 X27.4513 Y27.5815 Z-2.9667 I0.7688 J1.3315
G2 X29.7575 Y26.25 Z-3.0 I0.7687 J-1.3315
G2 X27.4512 Y24.9185 Z-3.0333 I-1.5375 J0.0
G2 X27.4513 Y27.5815 Z-3.0667 I0.7688 J1.3315
G2 X29.7575 Y26.25 Z-3.1 I0.7687 J-1.3315
G2 X27.4512 Y24.9185 Z-3.1333 I-1.5375 J0.0
G2 X27.4513 Y27.5815 Z-3.1667 I0.7688 J1.3315
G2 X29.7575 Y26.25 Z-3.2 I0.7687 J-1.3315
G2 X27.4512 Y24.9185 I-1.5375 J0.0
G2 X27.4513 Y27.5815 I0.7688 J1.3315
G2 X29.7575 Y26.25 I0.7687 J-1.3315
G0 Z3.0
G0 X29.6875 Y14.25
G0 Z0.25
G1 F1100.0 Z0.0
G2 F2000.0 X27.3813 Y12.9185 Z-0.0333 I-1.5375 J0.0
G2 Y15.5815 Z-0.0667 I0.7688 J1.3315
G2 X29.6875 Y14.25 Z-0.1 I0.7688 J-1.3315
G2 X27.3813 Y12.9185 Z-0.1333 I-1.5375 J0.0
G2 Y15.5815 Z-0.1667 I0.7687 J1.3315
G2 X29.6875 Y14.25 Z-0.2 I0.7688 J-1.3315
G2 X27.3813 Y12.9185 Z-0.2333 I-1.5375 J0.0
G2 Y15.5815 Z-0.2667 I0.7687 J1.3315
G2 X29.6875 Y14.25 Z-0.3 I0.7688 J-1.3315
G2 X27.3813 Y12.9185 Z-0.3333 I-1.5375 J0.0
G2 Y15.5815 Z-0.3667 I0.7688 J1.3315
G2 X29.6875 Y14.25 Z-0.4 I0.7687 J-1.3315
G2 X27.3813 Y12.9185 Z-0.4333 I-1.5375 J0.0
G2 Y15.5815 Z-0.4667 I0.7688 J1.3315
G2 X29.6875 Y14.25 Z-0.5 I0.7687 J-1.3315
G2 X27.3813 Y12.9185 Z-0.5333 I-1.5375 J0.0
G2 Y15.5815 Z-0.5667 I0.7688 J1.3315
G2 X29.6875 Y14.25 Z-0.6 I0.7688 J-1.3315
G2 X27.3813 Y12.9185 Z-0.6333 I-1.5375 J0.0
G2 Y15.5815 Z-0.6667 I0.7687 J1.3315
G2 X29.6875 Y14.25 Z-0.7 I0.7688 J-1.3315
G2 X27.3813 Y12.9185 Z-0.7333 I-1.5375 J0.0
G2 Y15.5815 Z-0.7667 I0.7687 J1.3315
G2 X29.6875 Y14.25 Z-0.8 I0.7688 J-1.3315
G2 X27.3813 Y12.9185 Z-0.8333 I-1.5375 J0.0
G2 Y15.5815 Z-0.8667 I0.7687 J1.3315
G2 X29.6875 Y14.25 Z-0.9 I0.7688 J-1.3315
G2 X27.3813 Y12.9185 Z-0.9333 I-1.5375 J0.0
G2 Y15.5815 Z-0.9667 I0.7687 J1.3315
G2 X29.6875 Y14.25 Z-1.0 I0.7688 J-1.3315
G2 X27.3813 Y12.9185 Z-1.0333 I-1.5375 J0.0
G2 Y15.5815 Z-1.0667 I0.7687 J1.3315
G2 X29.6875 Y14.25 Z-1.1 I0.7688 J-1.3315
G2 X27.3813 Y12.9185 Z-1.1333 I-1.5375 J0.0
G2 Y15.5815 Z-1.1667 I0.7687 J1.3315
G2 X29.6875 Y14.25 Z-1.2 I0.7688 J-1.3315
G2 X27.3813 Y12.9185 Z-1.2333 I-1.5375 J0.0
G2 Y15.5815 Z-1.2667 I0.7687 J1.3315
G2 X29.6875 Y14.25 Z-1.3 I0.7688 J-1.3315
G2 X27.3813 Y12.9185 Z-1.3333 I-1.5375 J0.0
G2 Y15.5815 Z-1.3667 I0.7687 J1.3315
G2 X29.6875 Y14.25 Z-1.4 I0.7688 J-1.3315
G2 X27.3813 Y12.9185 Z-1.4333 I-1.5375 J0.0
G2 Y15.5815 Z-1.4667 I0.7687 J1.3315
G2 X29.6875 Y14.25 Z-1.5 I0.7688 J-1.3315
G2 X27.3813 Y12.9185 Z-1.5333 I-1.5375 J0.0
G2 Y15.5815 Z-1.5667 I0.7687 J1.3315
G2 X29.6875 Y14.25 Z-1.6 I0.7688 J-1.3315
G2 X27.3813 Y12.9185 Z-1.6333 I-1.5375 J0.0
G2 Y15.5815 Z-1.6667 I0.7687 J1.3315
G2 X29.6875 Y14.25 Z-1.7 I0.7688 J-1.3315
G2 X27.3813 Y12.9185 Z-1.7333 I-1.5375 J0.0
G2 Y15.5815 Z-1.7667 I0.7687 J1.3315
G2 X29.6875 Y14.25 Z-1.8 I0.7688 J-1.3315
G2 X27.3813 Y12.9185 Z-1.8333 I-1.5375 J0.0
G2 Y15.5815 Z-1.8667 I0.7687 J1.3315
G2 X29.6875 Y14.25 Z-1.9 I0.7688 J-1.3315
G2 X27.3813 Y12.9185 Z-1.9333 I-1.5375 J0.0
G2 Y15.5815 Z-1.9667 I0.7687 J1.3315
G2 X29.6875 Y14.25 Z-2.0 I0.7688 J-1.3315
G2 X27.3813 Y12.9185 Z-2.0333 I-1.5375 J0.0
G2 Y15.5815 Z-2.0667 I0.7687 J1.3315
G2 X29.6875 Y14.25 Z-2.1 I0.7688 J-1.3315
G2 X27.3813 Y12.9185 Z-2.1333 I-1.5375 J0.0
G2 Y15.5815 Z-2.1667 I0.7687 J1.3315
G2 X29.6875 Y14.25 Z-2.2 I0.7688 J-1.3315
G2 X27.3813 Y12.9185 Z-2.2333 I-1.5375 J0.0
G2 Y15.5815 Z-2.2667 I0.7687 J1.3315
G2 X29.6875 Y14.25 Z-2.3 I0.7688 J-1.3315
G2 X27.3813 Y12.9185 Z-2.3333 I-1.5375 J0.0
G2 Y15.5815 Z-2.3667 I0.7688 J1.3315
G2 X29.6875 Y14.25 Z-2.4 I0.7687 J-1.3315
G2 X27.3813 Y12.9185 Z-2.4333 I-1.5375 J0.0
G2 Y15.5815 Z-2.4667 I0.7688 J1.3315
G2 X29.6875 Y14.25 Z-2.5 I0.7687 J-1.3315
G2 X27.3813 Y12.9185 Z-2.5333 I-1.5375 J0.0
G2 Y15.5815 Z-2.5667 I0.7688 J1.3315
G2 X29.6875 Y14.25 Z-2.6 I0.7687 J-1.3315
G2 X27.3813 Y12.9185 Z-2.6333 I-1.5375 J0.0
G2 Y15.5815 Z-2.6667 I0.7688 J1.3315
G2 X29.6875 Y14.25 Z-2.7 I0.7687 J-1.3315
G2 X27.3813 Y12.9185 Z-2.7333 I-1.5375 J0.0
G2 Y15.5815 Z-2.7667 I0.7688 J1.3315
G2 X29.6875 Y14.25 Z-2.8 I0.7687 J-1.3315
G2 X27.3813 Y12.9185 Z-2.8333 I-1.5375 J0.0
G2 Y15.5815 Z-2.8667 I0.7688 J1.3315
G2 X29.6875 Y14.25 Z-2.9 I0.7687 J-1.3315
G2 X27.3813 Y12.9185 Z-2.9333 I-1.5375 J0.0
G2 Y15.5815 Z-2.9667 I0.7688 J1.3315
G2 X29.6875 Y14.25 Z-3.0 I0.7687 J-1.3315
G2 X27.3813 Y12.9185 Z-3.0333 I-1.5375 J0.0
G2 Y15.5815 Z-3.0667 I0.7688 J1.3315
G2 X29.6875 Y14.25 Z-3.1 I0.7687 J-1.3315
G2 X27.3813 Y12.9185 Z-3.1333 I-1.5375 J0.0
G2 Y15.5815 Z-3.1667 I0.7688 J1.3315
G2 X29.6875 Y14.25 Z-3.2 I0.7687 J-1.3315
G2 X27.3812 Y12.9185 I-1.5375 J0.0
G2 X27.3813 Y15.5815 I0.7688 J1.3315
G2 X29.6875 Y14.25 I0.7687 J-1.3315
( Pocket1 )
S1000
G0 Z3.0
G0 X28.9575 Y80.0
G0 Z0.25
G1 F1000.0 Z-0.1
G2 F2000.0 X28.6463 Y79.8203 I-0.2075 J0.0
G2 Y80.1797 I0.1038 J0.1797
G2 X28.9575 Y80.0 I0.1038 J-0.1797
G1 F1000.0 X29.5925
G2 F2000.0 X28.3288 Y79.2704 I-0.8425 J0.0
G2 Y80.7296 I0.4213 J0.7296
G2 X29.5925 Y80.0 I0.4212 J-0.7296
G1 F1000.0 X30.8625
G2 F2000.0 X27.6938 Y78.1705 I-2.1125 J0.0
G2 Y81.8295 I1.0563 J1.8295
G2 X30.8625 Y80.0 I1.0563 J-1.8295
G1 F1000.0 X28.9575
G1 Z-0.2
G2 F2000.0 X28.6463 Y79.8203 I-0.2075 J0.0
G2 Y80.1797 I0.1038 J0.1797
G2 X28.9575 Y80.0 I0.1038 J-0.1797
G1 F1000.0 X29.5925
G2 F2000.0 X28.3288 Y79.2704 I-0.8425 J0.0
G2 Y80.7296 I0.4213 J0.7296
G2 X29.5925 Y80.0 I0.4212 J-0.7296
G1 F1000.0 X30.8625
G2 F2000.0 X27.6938 Y78.1705 I-2.1125 J0.0
G2 Y81.8295 I1.0563 J1.8295
G2 X30.8625 Y80.0 I1.0563 J-1.8295
G1 F1000.0 X28.9575
G1 Z-0.3
G2 F2000.0 X28.6463 Y79.8203 I-0.2075 J0.0
G2 Y80.1797 I0.1038 J0.1797
G2 X28.9575 Y80.0 I0.1038 J-0.1797
G1 F1000.0 X29.5925
G2 F2000.0 X28.3288 Y79.2704 I-0.8425 J0.0
G2 Y80.7296 I0.4213 J0.7296
G2 X29.5925 Y80.0 I0.4212 J-0.7296
G1 F1000.0 X30.8625
G2 F2000.0 X27.6938 Y78.1705 I-2.1125 J0.0
G2 Y81.8295 I1.0563 J1.8295
G2 X30.8625 Y80.0 I1.0563 J-1.8295
G1 F1000.0 X28.9575
G1 Z-0.4
G2 F2000.0 X28.6463 Y79.8203 I-0.2075 J0.0
G2 Y80.1797 I0.1038 J0.1797
G2 X28.9575 Y80.0 I0.1038 J-0.1797
G1 F1000.0 X29.5925
G2 F2000.0 X28.3288 Y79.2704 I-0.8425 J0.0
G2 Y80.7296 I0.4213 J0.7296
G2 X29.5925 Y80.0 I0.4212 J-0.7296
G1 F1000.0 X30.8625
G2 F2000.0 X27.6938 Y78.1705 I-2.1125 J0.0
G2 Y81.8295 I1.0563 J1.8295
G2 X30.8625 Y80.0 I1.0563 J-1.8295
G1 F1000.0 X28.9575
G1 Z-0.5
G2 F2000.0 X28.6463 Y79.8203 I-0.2075 J0.0
G2 Y80.1797 I0.1038 J0.1797
G2 X28.9575 Y80.0 I0.1038 J-0.1797
G1 F1000.0 X29.5925
G2 F2000.0 X28.3288 Y79.2704 I-0.8425 J0.0
G2 Y80.7296 I0.4213 J0.7296
G2 X29.5925 Y80.0 I0.4212 J-0.7296
G1 F1000.0 X30.8625
G2 F2000.0 X27.6938 Y78.1705 I-2.1125 J0.0
G2 Y81.8295 I1.0563 J1.8295
G2 X30.8625 Y80.0 I1.0563 J-1.8295
G1 F1000.0 X28.9575
G1 Z-0.6
G2 F2000.0 X28.6463 Y79.8203 I-0.2075 J0.0
G2 Y80.1797 I0.1038 J0.1797
G2 X28.9575 Y80.0 I0.1038 J-0.1797
G1 F1000.0 X29.5925
G2 F2000.0 X28.3288 Y79.2704 I-0.8425 J0.0
G2 Y80.7296 I0.4213 J0.7296
G2 X29.5925 Y80.0 I0.4212 J-0.7296
G1 F1000.0 X30.8625
G2 F2000.0 X27.6938 Y78.1705 I-2.1125 J0.0
G2 Y81.8295 I1.0563 J1.8295
G2 X30.8625 Y80.0 I1.0563 J-1.8295
G1 F1000.0 X28.9575
G1 Z-0.7
G2 F2000.0 X28.6463 Y79.8203 I-0.2075 J0.0
G2 Y80.1797 I0.1038 J0.1797
G2 X28.9575 Y80.0 I0.1038 J-0.1797
G1 F1000.0 X29.5925
G2 F2000.0 X28.3288 Y79.2704 I-0.8425 J0.0
G2 Y80.7296 I0.4213 J0.7296
G2 X29.5925 Y80.0 I0.4212 J-0.7296
G1 F1000.0 X30.8625
G2 F2000.0 X27.6938 Y78.1705 I-2.1125 J0.0
G2 Y81.8295 I1.0563 J1.8295
G2 X30.8625 Y80.0 I1.0563 J-1.8295
G1 F1000.0 X28.9575
G1 Z-0.8
G2 F2000.0 X28.6463 Y79.8203 I-0.2075 J0.0
G2 Y80.1797 I0.1038 J0.1797
G2 X28.9575 Y80.0 I0.1038 J-0.1797
G1 F1000.0 X29.5925
G2 F2000.0 X28.3288 Y79.2704 I-0.8425 J0.0
G2 Y80.7296 I0.4213 J0.7296
G2 X29.5925 Y80.0 I0.4212 J-0.7296
G1 F1000.0 X30.8625
G2 F2000.0 X27.6938 Y78.1705 I-2.1125 J0.0
G2 Y81.8295 I1.0563 J1.8295
G2 X30.8625 Y80.0 I1.0563 J-1.8295
G1 F1000.0 X28.9575
G1 Z-0.9
G2 F2000.0 X28.6463 Y79.8203 I-0.2075 J0.0
G2 Y80.1797 I0.1038 J0.1797
G2 X28.9575 Y80.0 I0.1038 J-0.1797
G1 F1000.0 X29.5925
G2 F2000.0 X28.3288 Y79.2704 I-0.8425 J0.0
G2 Y80.7296 I0.4213 J0.7296
G2 X29.5925 Y80.0 I0.4212 J-0.7296
G1 F1000.0 X30.8625
G2 F2000.0 X27.6938 Y78.1705 I-2.1125 J0.0
G2 Y81.8295 I1.0563 J1.8295
G2 X30.8625 Y80.0 I1.0563 J-1.8295
G1 F1000.0 X28.9575
G1 Z-1.0
G2 F2000.0 X28.6463 Y79.8203 I-0.2075 J0.0
G2 Y80.1797 I0.1038 J0.1797
G2 X28.9575 Y80.0 I0.1038 J-0.1797
G1 F1000.0 X29.5925
G2 F2000.0 X28.3288 Y79.2704 I-0.8425 J0.0
G2 Y80.7296 I0.4213 J0.7296
G2 X29.5925 Y80.0 I0.4212 J-0.7296
G1 F1000.0 X30.8625
G2 F2000.0 X27.6938 Y78.1705 I-2.1125 J0.0
G2 Y81.8295 I1.0563 J1.8295
G2 X30.8625 Y80.0 I1.0563 J-1.8295
G1 F1000.0 X28.9575
G1 Z-1.1
G2 F2000.0 X28.6463 Y79.8203 I-0.2075 J0.0
G2 Y80.1797 I0.1038 J0.1797
G2 X28.9575 Y80.0 I0.1038 J-0.1797
G1 F1000.0 X29.5925
G2 F2000.0 X28.3288 Y79.2704 I-0.8425 J0.0
G2 Y80.7296 I0.4213 J0.7296
G2 X29.5925 Y80.0 I0.4212 J-0.7296
G1 F1000.0 X30.8625
G2 F2000.0 X27.6938 Y78.1705 I-2.1125 J0.0
G2 Y81.8295 I1.0563 J1.8295
G2 X30.8625 Y80.0 I1.0563 J-1.8295
G1 F1000.0 X28.9575
G1 Z-1.2
G2 F2000.0 X28.6463 Y79.8203 I-0.2075 J0.0
G2 Y80.1797 I0.1038 J0.1797
G2 X28.9575 Y80.0 I0.1038 J-0.1797
G1 F1000.0 X29.5925
G2 F2000.0 X28.3288 Y79.2704 I-0.8425 J0.0
G2 Y80.7296 I0.4213 J0.7296
G2 X29.5925 Y80.0 I0.4212 J-0.7296
G1 F1000.0 X30.8625
G2 F2000.0 X27.6938 Y78.1705 I-2.1125 J0.0
G2 Y81.8295 I1.0563 J1.8295
G2 X30.8625 Y80.0 I1.0563 J-1.8295
G1 F1000.0 X28.9575
G1 Z-1.3
G2 F2000.0 X28.6463 Y79.8203 I-0.2075 J0.0
G2 Y80.1797 I0.1038 J0.1797
G2 X28.9575 Y80.0 I0.1038 J-0.1797
G1 F1000.0 X29.5925
G2 F2000.0 X28.3288 Y79.2704 I-0.8425 J0.0
G2 Y80.7296 I0.4213 J0.7296
G2 X29.5925 Y80.0 I0.4212 J-0.7296
G1 F1000.0 X30.8625
G2 F2000.0 X27.6938 Y78.1705 I-2.1125 J0.0
G2 Y81.8295 I1.0563 J1.8295
G2 X30.8625 Y80.0 I1.0563 J-1.8295
G1 F1000.0 X28.9575
G1 Z-1.4
G2 F2000.0 X28.6463 Y79.8203 I-0.2075 J0.0
G2 Y80.1797 I0.1038 J0.1797
G2 X28.9575 Y80.0 I0.1038 J-0.1797
G1 F1000.0 X29.5925
G2 F2000.0 X28.3288 Y79.2704 I-0.8425 J0.0
G2 Y80.7296 I0.4213 J0.7296
G2 X29.5925 Y80.0 I0.4212 J-0.7296
G1 F1000.0 X30.8625
G2 F2000.0 X27.6938 Y78.1705 I-2.1125 J0.0
G2 Y81.8295 I1.0563 J1.8295
G2 X30.8625 Y80.0 I1.0563 J-1.8295
G1 F1000.0 X28.9575
G1 Z-1.5
G2 F2000.0 X28.6463 Y79.8203 I-0.2075 J0.0
G2 Y80.1797 I0.1038 J0.1797
G2 X28.9575 Y80.0 I0.1038 J-0.1797
G1 F1000.0 X29.5925
G2 F2000.0 X28.3288 Y79.2704 I-0.8425 J0.0
G2 Y80.7296 I0.4213 J0.7296
G2 X29.5925 Y80.0 I0.4212 J-0.7296
G1 F1000.0 X30.8625
G2 F2000.0 X27.6938 Y78.1705 I-2.1125 J0.0
G2 Y81.8295 I1.0563 J1.8295
G2 X30.8625 Y80.0 I1.0563 J-1.8295
G1 F1000.0 X28.9575
G1 Z-1.6
G2 F2000.0 X28.6463 Y79.8203 I-0.2075 J0.0
G2 Y80.1797 I0.1038 J0.1797
G2 X28.9575 Y80.0 I0.1038 J-0.1797
G1 F1000.0 X29.5925
G2 F2000.0 X28.3288 Y79.2704 I-0.8425 J0.0
G2 Y80.7296 I0.4213 J0.7296
G2 X29.5925 Y80.0 I0.4212 J-0.7296
G1 F1000.0 X30.8625
G2 F2000.0 X27.6938 Y78.1705 I-2.1125 J0.0
G2 Y81.8295 I1.0563 J1.8295
G2 X30.8625 Y80.0 I1.0563 J-1.8295
G1 F1000.0 X28.9575
G1 Z-1.7
G2 F2000.0 X28.6463 Y79.8203 I-0.2075 J0.0
G2 Y80.1797 I0.1038 J0.1797
G2 X28.9575 Y80.0 I0.1038 J-0.1797
G1 F1000.0 X29.5925
G2 F2000.0 X28.3288 Y79.2704 I-0.8425 J0.0
G2 Y80.7296 I0.4213 J0.7296
G2 X29.5925 Y80.0 I0.4212 J-0.7296
G1 F1000.0 X30.8625
G2 F2000.0 X27.6938 Y78.1705 I-2.1125 J0.0
G2 Y81.8295 I1.0563 J1.8295
G2 X30.8625 Y80.0 I1.0563 J-1.8295
G1 F1000.0 X28.9575
G1 Z-1.8
G2 F2000.0 X28.6463 Y79.8203 I-0.2075 J0.0
G2 Y80.1797 I0.1038 J0.1797
G2 X28.9575 Y80.0 I0.1038 J-0.1797
G1 F1000.0 X29.5925
G2 F2000.0 X28.3288 Y79.2704 I-0.8425 J0.0
G2 Y80.7296 I0.4213 J0.7296
G2 X29.5925 Y80.0 I0.4212 J-0.7296
G1 F1000.0 X30.8625
G2 F2000.0 X27.6938 Y78.1705 I-2.1125 J0.0
G2 Y81.8295 I1.0563 J1.8295
G2 X30.8625 Y80.0 I1.0563 J-1.8295
G1 F1000.0 X28.9575
G1 Z-1.9
G2 F2000.0 X28.6463 Y79.8203 I-0.2075 J0.0
G2 Y80.1797 I0.1038 J0.1797
G2 X28.9575 Y80.0 I0.1038 J-0.1797
G1 F1000.0 X29.5925
G2 F2000.0 X28.3288 Y79.2704 I-0.8425 J0.0
G2 Y80.7296 I0.4213 J0.7296
G2 X29.5925 Y80.0 I0.4212 J-0.7296
G1 F1000.0 X30.8625
G2 F2000.0 X27.6938 Y78.1705 I-2.1125 J0.0
G2 Y81.8295 I1.0563 J1.8295
G2 X30.8625 Y80.0 I1.0563 J-1.8295
G1 F1000.0 X28.9575
G1 Z-2.0
G2 F2000.0 X28.6463 Y79.8203 I-0.2075 J0.0
G2 Y80.1797 I0.1038 J0.1797
G2 X28.9575 Y80.0 I0.1038 J-0.1797
G1 F1000.0 X29.5925
G2 F2000.0 X28.3288 Y79.2704 I-0.8425 J0.0
G2 Y80.7296 I0.4213 J0.7296
G2 X29.5925 Y80.0 I0.4212 J-0.7296
G1 F1000.0 X30.8625
G2 F2000.0 X27.6938 Y78.1705 I-2.1125 J0.0
G2 Y81.8295 I1.0563 J1.8295
G2 X30.8625 Y80.0 I1.0563 J-1.8295
G1 F1000.0 X28.9575
G1 Z-2.1
G2 F2000.0 X28.6463 Y79.8203 I-0.2075 J0.0
G2 Y80.1797 I0.1038 J0.1797
G2 X28.9575 Y80.0 I0.1038 J-0.1797
G1 F1000.0 X29.5925
G2 F2000.0 X28.3288 Y79.2704 I-0.8425 J0.0
G2 Y80.7296 I0.4213 J0.7296
G2 X29.5925 Y80.0 I0.4212 J-0.7296
G1 F1000.0 X30.8625
G2 F2000.0 X27.6938 Y78.1705 I-2.1125 J0.0
G2 Y81.8295 I1.0563 J1.8295
G2 X30.8625 Y80.0 I1.0563 J-1.8295
G1 F1000.0 X28.9575
G1 Z-2.2
G2 F2000.0 X28.6463 Y79.8203 I-0.2075 J0.0
G2 Y80.1797 I0.1038 J0.1797
G2 X28.9575 Y80.0 I0.1038 J-0.1797
G1 F1000.0 X29.5925
G2 F2000.0 X28.3288 Y79.2704 I-0.8425 J0.0
G2 Y80.7296 I0.4213 J0.7296
G2 X29.5925 Y80.0 I0.4212 J-0.7296
G1 F1000.0 X30.8625
G2 F2000.0 X27.6938 Y78.1705 I-2.1125 J0.0
G2 Y81.8295 I1.0563 J1.8295
G2 X30.8625 Y80.0 I1.0563 J-1.8295
G1 F1000.0 X28.9575
G1 Z-2.3
G2 F2000.0 X28.6463 Y79.8203 I-0.2075 J0.0
G2 Y80.1797 I0.1038 J0.1797
G2 X28.9575 Y80.0 I0.1038 J-0.1797
G1 F1000.0 X29.5925
G2 F2000.0 X28.3288 Y79.2704 I-0.8425 J0.0
G2 Y80.7296 I0.4213 J0.7296
G2 X29.5925 Y80.0 I0.4212 J-0.7296
G1 F1000.0 X30.8625
G2 F2000.0 X27.6938 Y78.1705 I-2.1125 J0.0
G2 Y81.8295 I1.0563 J1.8295
G2 X30.8625 Y80.0 I1.0563 J-1.8295
G1 F1000.0 X28.9575
G1 Z-2.4
G2 F2000.0 X28.6463 Y79.8203 I-0.2075 J0.0
G2 Y80.1797 I0.1038 J0.1797
G2 X28.9575 Y80.0 I0.1038 J-0.1797
G1 F1000.0 X29.5925
G2 F2000.0 X28.3288 Y79.2704 I-0.8425 J0.0
G2 Y80.7296 I0.4213 J0.7296
G2 X29.5925 Y80.0 I0.4212 J-0.7296
G1 F1000.0 X30.8625
G2 F2000.0 X27.6938 Y78.1705 I-2.1125 J0.0
G2 Y81.8295 I1.0563 J1.8295
G2 X30.8625 Y80.0 I1.0563 J-1.8295
G1 F1000.0 X28.9575
G1 Z-2.5
G2 F2000.0 X28.6463 Y79.8203 I-0.2075 J0.0
G2 Y80.1797 I0.1038 J0.1797
G2 X28.9575 Y80.0 I0.1038 J-0.1797
G1 F1000.0 X29.5925
G2 F2000.0 X28.3288 Y79.2704 I-0.8425 J0.0
G2 Y80.7296 I0.4213 J0.7296
G2 X29.5925 Y80.0 I0.4212 J-0.7296
G1 F1000.0 X30.8625
G2 F2000.0 X27.6938 Y78.1705 I-2.1125 J0.0
G2 Y81.8295 I1.0563 J1.8295
G2 X30.8625 Y80.0 I1.0563 J-1.8295
G1 F1000.0 X28.9575
G1 Z-2.6
G2 F2000.0 X28.6463 Y79.8203 I-0.2075 J0.0
G2 Y80.1797 I0.1038 J0.1797
G2 X28.9575 Y80.0 I0.1038 J-0.1797
G1 F1000.0 X29.5925
G2 F2000.0 X28.3288 Y79.2704 I-0.8425 J0.0
G2 Y80.7296 I0.4213 J0.7296
G2 X29.5925 Y80.0 I0.4212 J-0.7296
G1 F1000.0 X30.8625
G2 F2000.0 X27.6938 Y78.1705 I-2.1125 J0.0
G2 Y81.8295 I1.0563 J1.8295
G2 X30.8625 Y80.0 I1.0563 J-1.8295
G1 F1000.0 X28.9575
G1 Z-2.7
G2 F2000.0 X28.6463 Y79.8203 I-0.2075 J0.0
G2 Y80.1797 I0.1038 J0.1797
G2 X28.9575 Y80.0 I0.1038 J-0.1797
G1 F1000.0 X29.5925
G2 F2000.0 X28.3288 Y79.2704 I-0.8425 J0.0
G2 Y80.7296 I0.4213 J0.7296
G2 X29.5925 Y80.0 I0.4212 J-0.7296
G1 F1000.0 X30.8625
G2 F2000.0 X27.6938 Y78.1705 I-2.1125 J0.0
G2 Y81.8295 I1.0563 J1.8295
G2 X30.8625 Y80.0 I1.0563 J-1.8295
G1 F1000.0 X28.9575
G1 Z-2.8
G2 F2000.0 X28.6463 Y79.8203 I-0.2075 J0.0
G2 Y80.1797 I0.1038 J0.1797
G2 X28.9575 Y80.0 I0.1038 J-0.1797
G1 F1000.0 X29.5925
G2 F2000.0 X28.3288 Y79.2704 I-0.8425 J0.0
G2 Y80.7296 I0.4213 J0.7296
G2 X29.5925 Y80.0 I0.4212 J-0.7296
G1 F1000.0 X30.8625
G2 F2000.0 X27.6938 Y78.1705 I-2.1125 J0.0
G2 Y81.8295 I1.0563 J1.8295
G2 X30.8625 Y80.0 I1.0563 J-1.8295
G1 F1000.0 X28.9575
G1 Z-2.9
G2 F2000.0 X28.6463 Y79.8203 I-0.2075 J0.0
G2 Y80.1797 I0.1038 J0.1797
G2 X28.9575 Y80.0 I0.1038 J-0.1797
G1 F1000.0 X29.5925
G2 F2000.0 X28.3288 Y79.2704 I-0.8425 J0.0
G2 Y80.7296 I0.4213 J0.7296
G2 X29.5925 Y80.0 I0.4212 J-0.7296
G1 F1000.0 X30.8625
G2 F2000.0 X27.6938 Y78.1705 I-2.1125 J0.0
G2 Y81.8295 I1.0563 J1.8295
G2 X30.8625 Y80.0 I1.0563 J-1.8295
G1 F1000.0 X28.9575
G1 Z-3.0
G2 F2000.0 X28.6463 Y79.8203 I-0.2075 J0.0
G2 Y80.1797 I0.1038 J0.1797
G2 X28.9575 Y80.0 I0.1038 J-0.1797
G1 F1000.0 X29.5925
G2 F2000.0 X28.3288 Y79.2704 I-0.8425 J0.0
G2 Y80.7296 I0.4213 J0.7296
G2 X29.5925 Y80.0 I0.4212 J-0.7296
G1 F1000.0 X30.8625
G2 F2000.0 X27.6938 Y78.1705 I-2.1125 J0.0
G2 Y81.8295 I1.0563 J1.8295
G2 X30.8625 Y80.0 I1.0563 J-1.8295
G1 F1000.0 X28.9575
G1 Z-3.1
G2 F2000.0 X28.6463 Y79.8203 I-0.2075 J0.0
G2 Y80.1797 I0.1038 J0.1797
G2 X28.9575 Y80.0 I0.1038 J-0.1797
G1 F1000.0 X29.5925
G2 F2000.0 X28.3288 Y79.2704 I-0.8425 J0.0
G2 Y80.7296 I0.4213 J0.7296
G2 X29.5925 Y80.0 I0.4212 J-0.7296
G1 F1000.0 X30.8625
G2 F2000.0 X27.6938 Y78.1705 I-2.1125 J0.0
G2 Y81.8295 I1.0563 J1.8295
G2 X30.8625 Y80.0 I1.0563 J-1.8295
G1 F1000.0 X28.9575
G1 Z-3.2
G2 F2000.0 X28.6463 Y79.8203 I-0.2075 J0.0
G2 Y80.1797 I0.1038 J0.1797
G2 X28.9575 Y80.0 I0.1038 J-0.1797
G1 F1000.0 X29.5925
G2 F2000.0 X28.3288 Y79.2704 I-0.8425 J0.0
G2 Y80.7296 I0.4213 J0.7296
G2 X29.5925 Y80.0 I0.4212 J-0.7296
G1 F1000.0 X30.8625
G2 F2000.0 X27.6938 Y78.1705 I-2.1125 J0.0
G2 Y81.8295 I1.0563 J1.8295
G2 X30.8625 Y80.0 I1.0563 J-1.8295
G0 Z3.0
G0 X28.7688 Y56.9566
G0 Z0.25
G1 F1000.0 Z-0.1
G2 F2000.0 X28.9575 Y56.75 I-0.0188 J-0.2066
G2 X28.6463 Y56.5703 I-0.2075 J0.0
G2 Y56.9297 I0.1037 J0.1797
G2 X28.7688 Y56.9566 I0.1038 J-0.1797
G1 F1000.0 X28.8262 Y57.589
G2 F2000.0 X29.5925 Y56.75 I-0.0762 J-0.839
G2 X28.3288 Y56.0204 I-0.8425 J0.0
G2 Y57.4796 I0.4213 J0.7296
G2 X28.8262 Y57.589 I0.4212 J-0.7296
G1 F1000.0 X28.9412 Y58.8538
G2 F2000.0 X30.8625 Y56.75 I-0.1912 J-2.1038
G2 X27.6938 Y54.9205 I-2.1125 J0.0
G2 Y58.5795 I1.0563 J1.8295
G2 X28.9412 Y58.8538 I1.0563 J-1.8295
G1 F1000.0 X28.7688 Y56.9566
G1 Z-0.2
G2 F2000.0 X28.9575 Y56.75 I-0.0188 J-0.2066
G2 X28.6463 Y56.5703 I-0.2075 J0.0
G2 Y56.9297 I0.1037 J0.1797
G2 X28.7688 Y56.9566 I0.1038 J-0.1797
G1 F1000.0 X28.8262 Y57.589
G2 F2000.0 X29.5925 Y56.75 I-0.0762 J-0.839
G2 X28.3288 Y56.0204 I-0.8425 J0.0
G2 Y57.4796 I0.4213 J0.7296
G2 X28.8262 Y57.589 I0.4212 J-0.7296
G1 F1000.0 X28.9412 Y58.8538
G2 F2000.0 X30.8625 Y56.75 I-0.1912 J-2.1038
G2 X27.6938 Y54.9205 I-2.1125 J0.0
G2 Y58.5795 I1.0563 J1.8295
G2 X28.9412 Y58.8538 I1.0563 J-1.8295
G1 F1000.0 X28.7688 Y56.9566
G1 Z-0.3
G2 F2000.0 X28.9575 Y56.75 I-0.0188 J-0.2066
G2 X28.6463 Y56.5703 I-0.2075 J0.0
G2 Y56.9297 I0.1037 J0.1797
G2 X28.7688 Y56.9566 I0.1038 J-0.1797
G1 F1000.0 X28.8262 Y57.589
G2 F2000.0 X29.5925 Y56.75 I-0.0762 J-0.839
G2 X28.3288 Y56.0204 I-0.8425 J0.0
G2 Y57.4796 I0.4213 J0.7296
G2 X28.8262 Y57.589 I0.4212 J-0.7296
G1 F1000.0 X28.9412 Y58.8538
G2 F2000.0 X30.8625 Y56.75 I-0.1912 J-2.1038
G2 X27.6938 Y54.9205 I-2.1125 J0.0
G2 Y58.5795 I1.0563 J1.8295
G2 X28.9412 Y58.8538 I1.0563 J-1.8295
G1 F1000.0 X28.7688 Y56.9566
G1 Z-0.4
G2 F2000.0 X28.9575 Y56.75 I-0.0188 J-0.2066
G2 X28.6463 Y56.5703 I-0.2075 J0.0
G2 Y56.9297 I0.1037 J0.1797
G2 X28.7688 Y56.9566 I0.1038 J-0.1797
G1 F1000.0 X28.8262 Y57.589
G2 F2000.0 X29.5925 Y56.75 I-0.0762 J-0.839
G2 X28.3288 Y56.0204 I-0.8425 J0.0
G2 Y57.4796 I0.4213 J0.7296
G2 X28.8262 Y57.589 I0.4212 J-0.7296
G1 F1000.0 X28.9412 Y58.8538
G2 F2000.0 X30.8625 Y56.75 I-0.1912 J-2.1038
G2 X27.6938 Y54.9205 I-2.1125 J0.0
G2 Y58.5795 I1.0563 J1.8295
G2 X28.9412 Y58.8538 I1.0563 J-1.8295
G1 F1000.0 X28.7688 Y56.9566
G1 Z-0.5
G2 F2000.0 X28.9575 Y56.75 I-0.0188 J-0.2066
G2 X28.6463 Y56.5703 I-0.2075 J0.0
G2 Y56.9297 I0.1037 J0.1797
G2 X28.7688 Y56.9566 I0.1038 J-0.1797
G1 F1000.0 X28.8262 Y57.589
G2 F2000.0 X29.5925 Y56.75 I-0.0762 J-0.839
G2 X28.3288 Y56.0204 I-0.8425 J0.0
G2 Y57.4796 I0.4213 J0.7296
G2 X28.8262 Y57.589 I0.4212 J-0.7296
G1 F1000.0 X28.9412 Y58.8538
G2 F2000.0 X30.8625 Y56.75 I-0.1912 J-2.1038
G2 X27.6938 Y54.9205 I-2.1125 J0.0
G2 Y58.5795 I1.0563 J1.8295
G2 X28.9412 Y58.8538 I1.0563 J-1.8295
G1 F1000.0 X28.7688 Y56.9566
G1 Z-0.6
G2 F2000.0 X28.9575 Y56.75 I-0.0188 J-0.2066
G2 X28.6463 Y56.5703 I-0.2075 J0.0
G2 Y56.9297 I0.1037 J0.1797
G2 X28.7688 Y56.9566 I0.1038 J-0.1797
G1 F1000.0 X28.8262 Y57.589
G2 F2000.0 X29.5925 Y56.75 I-0.0762 J-0.839
G2 X28.3288 Y56.0204 I-0.8425 J0.0
G2 Y57.4796 I0.4213 J0.7296
G2 X28.8262 Y57.589 I0.4212 J-0.7296
G1 F1000.0 X28.9412 Y58.8538
G2 F2000.0 X30.8625 Y56.75 I-0.1912 J-2.1038
G2 X27.6938 Y54.9205 I-2.1125 J0.0
G2 Y58.5795 I1.0563 J1.8295
G2 X28.9412 Y58.8538 I1.0563 J-1.8295
G1 F1000.0 X28.7688 Y56.9566
G1 Z-0.7
G2 F2000.0 X28.9575 Y56.75 I-0.0188 J-0.2066
G2 X28.6463 Y56.5703 I-0.2075 J0.0
G2 Y56.9297 I0.1037 J0.1797
G2 X28.7688 Y56.9566 I0.1038 J-0.1797
G1 F1000.0 X28.8262 Y57.589
G2 F2000.0 X29.5925 Y56.75 I-0.0762 J-0.839
G2 X28.3288 Y56.0204 I-0.8425 J0.0
G2 Y57.4796 I0.4213 J0.7296
G2 X28.8262 Y57.589 I0.4212 J-0.7296
G1 F1000.0 X28.9412 Y58.8538
G2 F2000.0 X30.8625 Y56.75 I-0.1912 J-2.1038
G2 X27.6938 Y54.9205 I-2.1125 J0.0
G2 Y58.5795 I1.0563 J1.8295
G2 X28.9412 Y58.8538 I1.0563 J-1.8295
G1 F1000.0 X28.7688 Y56.9566
G1 Z-0.8
G2 F2000.0 X28.9575 Y56.75 I-0.0188 J-0.2066
G2 X28.6463 Y56.5703 I-0.2075 J0.0
G2 Y56.9297 I0.1037 J0.1797
G2 X28.7688 Y56.9566 I0.1038 J-0.1797
G1 F1000.0 X28.8262 Y57.589
G2 F2000.0 X29.5925 Y56.75 I-0.0762 J-0.839
G2 X28.3288 Y56.0204 I-0.8425 J0.0
G2 Y57.4796 I0.4213 J0.7296
G2 X28.8262 Y57.589 I0.4212 J-0.7296
G1 F1000.0 X28.9412 Y58.8538
G2 F2000.0 X30.8625 Y56.75 I-0.1912 J-2.1038
G2 X27.6938 Y54.9205 I-2.1125 J0.0
G2 Y58.5795 I1.0563 J1.8295
G2 X28.9412 Y58.8538 I1.0563 J-1.8295
G1 F1000.0 X28.7688 Y56.9566
G1 Z-0.9
G2 F2000.0 X28.9575 Y56.75 I-0.0188 J-0.2066
G2 X28.6463 Y56.5703 I-0.2075 J0.0
G2 Y56.9297 I0.1037 J0.1797
G2 X28.7688 Y56.9566 I0.1038 J-0.1797
G1 F1000.0 X28.8262 Y57.589
G2 F2000.0 X29.5925 Y56.75 I-0.0762 J-0.839
G2 X28.3288 Y56.0204 I-0.8425 J0.0
G2 Y57.4796 I0.4213 J0.7296
G2 X28.8262 Y57.589 I0.4212 J-0.7296
G1 F1000.0 X28.9412 Y58.8538
G2 F2000.0 X30.8625 Y56.75 I-0.1912 J-2.1038
G2 X27.6938 Y54.9205 I-2.1125 J0.0
G2 Y58.5795 I1.0563 J1.8295
G2 X28.9412 Y58.8538 I1.0563 J-1.8295
G1 F1000.0 X28.7688 Y56.9566
G1 Z-1.0
G2 F2000.0 X28.9575 Y56.75 I-0.0188 J-0.2066
G2 X28.6463 Y56.5703 I-0.2075 J0.0
G2 Y56.9297 I0.1037 J0.1797
G2 X28.7688 Y56.9566 I0.1038 J-0.1797
G1 F1000.0 X28.8262 Y57.589
G2 F2000.0 X29.5925 Y56.75 I-0.0762 J-0.839
G2 X28.3288 Y56.0204 I-0.8425 J0.0
G2 Y57.4796 I0.4213 J0.7296
G2 X28.8262 Y57.589 I0.4212 J-0.7296
G1 F1000.0 X28.9412 Y58.8538
G2 F2000.0 X30.8625 Y56.75 I-0.1912 J-2.1038
G2 X27.6938 Y54.9205 I-2.1125 J0.0
G2 Y58.5795 I1.0563 J1.8295
G2 X28.9412 Y58.8538 I1.0563 J-1.8295
G1 F1000.0 X28.7688 Y56.9566
G1 Z-1.1
G2 F2000.0 X28.9575 Y56.75 I-0.0188 J-0.2066
G2 X28.6463 Y56.5703 I-0.2075 J0.0
G2 Y56.9297 I0.1037 J0.1797
G2 X28.7688 Y56.9566 I0.1038 J-0.1797
G1 F1000.0 X28.8262 Y57.589
G2 F2000.0 X29.5925 Y56.75 I-0.0762 J-0.839
G2 X28.3288 Y56.0204 I-0.8425 J0.0
G2 Y57.4796 I0.4213 J0.7296
G2 X28.8262 Y57.589 I0.4212 J-0.7296
G1 F1000.0 X28.9412 Y58.8538
G2 F2000.0 X30.8625 Y56.75 I-0.1912 J-2.1038
G2 X27.6938 Y54.9205 I-2.1125 J0.0
G2 Y58.5795 I1.0563 J1.8295
G2 X28.9412 Y58.8538 I1.0563 J-1.8295
G1 F1000.0 X28.7688 Y56.9566
G1 Z-1.2
G2 F2000.0 X28.9575 Y56.75 I-0.0188 J-0.2066
G2 X28.6463 Y56.5703 I-0.2075 J0.0
G2 Y56.9297 I0.1037 J0.1797
G2 X28.7688 Y56.9566 I0.1038 J-0.1797
G1 F1000.0 X28.8262 Y57.589
G2 F2000.0 X29.5925 Y56.75 I-0.0762 J-0.839
G2 X28.3288 Y56.0204 I-0.8425 J0.0
G2 Y57.4796 I0.4213 J0.7296
G2 X28.8262 Y57.589 I0.4212 J-0.7296
G1 F1000.0 X28.9412 Y58.8538
G2 F2000.0 X30.8625 Y56.75 I-0.1912 J-2.1038
G2 X27.6938 Y54.9205 I-2.1125 J0.0
G2 Y58.5795 I1.0563 J1.8295
G2 X28.9412 Y58.8538 I1.0563 J-1.8295
G1 F1000.0 X28.7688 Y56.9566
G1 Z-1.3
G2 F2000.0 X28.9575 Y56.75 I-0.0188 J-0.2066
G2 X28.6463 Y56.5703 I-0.2075 J0.0
G2 Y56.9297 I0.1037 J0.1797
G2 X28.7688 Y56.9566 I0.1038 J-0.1797
G1 F1000.0 X28.8262 Y57.589
G2 F2000.0 X29.5925 Y56.75 I-0.0762 J-0.839
G2 X28.3288 Y56.0204 I-0.8425 J0.0
G2 Y57.4796 I0.4213 J0.7296
G2 X28.8262 Y57.589 I0.4212 J-0.7296
G1 F1000.0 X28.9412 Y58.8538
G2 F2000.0 X30.8625 Y56.75 I-0.1912 J-2.1038
G2 X27.6938 Y54.9205 I-2.1125 J0.0
G2 Y58.5795 I1.0563 J1.8295
G2 X28.9412 Y58.8538 I1.0563 J-1.8295
G1 F1000.0 X28.7688 Y56.9566
G1 Z-1.4
G2 F2000.0 X28.9575 Y56.75 I-0.0188 J-0.2066
G2 X28.6463 Y56.5703 I-0.2075 J0.0
G2 Y56.9297 I0.1037 J0.1797
G2 X28.7688 Y56.9566 I0.1038 J-0.1797
G1 F1000.0 X28.8262 Y57.589
G2 F2000.0 X29.5925 Y56.75 I-0.0762 J-0.839
G2 X28.3288 Y56.0204 I-0.8425 J0.0
G2 Y57.4796 I0.4213 J0.7296
G2 X28.8262 Y57.589 I0.4212 J-0.7296
G1 F1000.0 X28.9412 Y58.8538
G2 F2000.0 X30.8625 Y56.75 I-0.1912 J-2.1038
G2 X27.6938 Y54.9205 I-2.1125 J0.0
G2 Y58.5795 I1.0563 J1.8295
G2 X28.9412 Y58.8538 I1.0563 J-1.8295
G1 F1000.0 X28.7688 Y56.9566
G1 Z-1.5
G2 F2000.0 X28.9575 Y56.75 I-0.0188 J-0.2066
G2 X28.6463 Y56.5703 I-0.2075 J0.0
G2 Y56.9297 I0.1037 J0.1797
G2 X28.7688 Y56.9566 I0.1038 J-0.1797
G1 F1000.0 X28.8262 Y57.589
G2 F2000.0 X29.5925 Y56.75 I-0.0762 J-0.839
G2 X28.3288 Y56.0204 I-0.8425 J0.0
G2 Y57.4796 I0.4213 J0.7296
G2 X28.8262 Y57.589 I0.4212 J-0.7296
G1 F1000.0 X28.9412 Y58.8538
G2 F2000.0 X30.8625 Y56.75 I-0.1912 J-2.1038
G2 X27.6938 Y54.9205 I-2.1125 J0.0
G2 Y58.5795 I1.0563 J1.8295
G2 X28.9412 Y58.8538 I1.0563 J-1.8295
G1 F1000.0 X28.7688 Y56.9566
G1 Z-1.6
G2 F2000.0 X28.9575 Y56.75 I-0.0188 J-0.2066
G2 X28.6463 Y56.5703 I-0.2075 J0.0
G2 Y56.9297 I0.1037 J0.1797
G2 X28.7688 Y56.9566 I0.1038 J-0.1797
G1 F1000.0 X28.8262 Y57.589
G2 F2000.0 X29.5925 Y56.75 I-0.0762 J-0.839
G2 X28.3288 Y56.0204 I-0.8425 J0.0
G2 Y57.4796 I0.4213 J0.7296
G2 X28.8262 Y57.589 I0.4212 J-0.7296
G1 F1000.0 X28.9412 Y58.8538
G2 F2000.0 X30.8625 Y56.75 I-0.1912 J-2.1038
G2 X27.6938 Y54.9205 I-2.1125 J0.0
G2 Y58.5795 I1.0563 J1.8295
G2 X28.9412 Y58.8538 I1.0563 J-1.8295
G1 F1000.0 X28.7688 Y56.9566
G1 Z-1.7
G2 F2000.0 X28.9575 Y56.75 I-0.0188 J-0.2066
G2 X28.6463 Y56.5703 I-0.2075 J0.0
G2 Y56.9297 I0.1037 J0.1797
G2 X28.7688 Y56.9566 I0.1038 J-0.1797
G1 F1000.0 X28.8262 Y57.589
G2 F2000.0 X29.5925 Y56.75 I-0.0762 J-0.839
G2 X28.3288 Y56.0204 I-0.8425 J0.0
G2 Y57.4796 I0.4213 J0.7296
G2 X28.8262 Y57.589 I0.4212 J-0.7296
G1 F1000.0 X28.9412 Y58.8538
G2 F2000.0 X30.8625 Y56.75 I-0.1912 J-2.1038
G2 X27.6938 Y54.9205 I-2.1125 J0.0
G2 Y58.5795 I1.0563 J1.8295
G2 X28.9412 Y58.8538 I1.0563 J-1.8295
G1 F1000.0 X28.7688 Y56.9566
G1 Z-1.8
G2 F2000.0 X28.9575 Y56.75 I-0.0188 J-0.2066
G2 X28.6463 Y56.5703 I-0.2075 J0.0
G2 Y56.9297 I0.1037 J0.1797
G2 X28.7688 Y56.9566 I0.1038 J-0.1797
G1 F1000.0 X28.8262 Y57.589
G2 F2000.0 X29.5925 Y56.75 I-0.0762 J-0.839
G2 X28.3288 Y56.0204 I-0.8425 J0.0
G2 Y57.4796 I0.4213 J0.7296
G2 X28.8262 Y57.589 I0.4212 J-0.7296
G1 F1000.0 X28.9412 Y58.8538
G2 F2000.0 X30.8625 Y56.75 I-0.1912 J-2.1038
G2 X27.6938 Y54.9205 I-2.1125 J0.0
G2 Y58.5795 I1.0563 J1.8295
G2 X28.9412 Y58.8538 I1.0563 J-1.8295
G1 F1000.0 X28.7688 Y56.9566
G1 Z-1.9
G2 F2000.0 X28.9575 Y56.75 I-0.0188 J-0.2066
G2 X28.6463 Y56.5703 I-0.2075 J0.0
G2 Y56.9297 I0.1037 J0.1797
G2 X28.7688 Y56.9566 I0.1038 J-0.1797
G1 F1000.0 X28.8262 Y57.589
G2 F2000.0 X29.5925 Y56.75 I-0.0762 J-0.839
G2 X28.3288 Y56.0204 I-0.8425 J0.0
G2 Y57.4796 I0.4213 J0.7296
G2 X28.8262 Y57.589 I0.4212 J-0.7296
G1 F1000.0 X28.9412 Y58.8538
G2 F2000.0 X30.8625 Y56.75 I-0.1912 J-2.1038
G2 X27.6938 Y54.9205 I-2.1125 J0.0
G2 Y58.5795 I1.0563 J1.8295
G2 X28.9412 Y58.8538 I1.0563 J-1.8295
G1 F1000.0 X28.7688 Y56.9566
G1 Z-2.0
G2 F2000.0 X28.9575 Y56.75 I-0.0188 J-0.2066
G2 X28.6463 Y56.5703 I-0.2075 J0.0
G2 Y56.9297 I0.1037 J0.1797
G2 X28.7688 Y56.9566 I0.1038 J-0.1797
G1 F1000.0 X28.8262 Y57.589
G2 F2000.0 X29.5925 Y56.75 I-0.0762 J-0.839
G2 X28.3288 Y56.0204 I-0.8425 J0.0
G2 Y57.4796 I0.4213 J0.7296
G2 X28.8262 Y57.589 I0.4212 J-0.7296
G1 F1000.0 X28.9412 Y58.8538
G2 F2000.0 X30.8625 Y56.75 I-0.1912 J-2.1038
G2 X27.6938 Y54.9205 I-2.1125 J0.0
G2 Y58.5795 I1.0563 J1.8295
G2 X28.9412 Y58.8538 I1.0563 J-1.8295
G1 F1000.0 X28.7688 Y56.9566
G1 Z-2.1
G2 F2000.0 X28.9575 Y56.75 I-0.0188 J-0.2066
G2 X28.6463 Y56.5703 I-0.2075 J0.0
G2 Y56.9297 I0.1037 J0.1797
G2 X28.7688 Y56.9566 I0.1038 J-0.1797
G1 F1000.0 X28.8262 Y57.589
G2 F2000.0 X29.5925 Y56.75 I-0.0762 J-0.839
G2 X28.3288 Y56.0204 I-0.8425 J0.0
G2 Y57.4796 I0.4213 J0.7296
G2 X28.8262 Y57.589 I0.4212 J-0.7296
G1 F1000.0 X28.9412 Y58.8538
G2 F2000.0 X30.8625 Y56.75 I-0.1912 J-2.1038
G2 X27.6938 Y54.9205 I-2.1125 J0.0
G2 Y58.5795 I1.0563 J1.8295
G2 X28.9412 Y58.8538 I1.0563 J-1.8295
G1 F1000.0 X28.7688 Y56.9566
G1 Z-2.2
G2 F2000.0 X28.9575 Y56.75 I-0.0188 J-0.2066
G2 X28.6463 Y56.5703 I-0.2075 J0.0
G2 Y56.9297 I0.1037 J0.1797
G2 X28.7688 Y56.9566 I0.1038 J-0.1797
G1 F1000.0 X28.8262 Y57.589
G2 F2000.0 X29.5925 Y56.75 I-0.0762 J-0.839
G2 X28.3288 Y56.0204 I-0.8425 J0.0
G2 Y57.4796 I0.4213 J0.7296
G2 X28.8262 Y57.589 I0.4212 J-0.7296
G1 F1000.0 X28.9412 Y58.8538
G2 F2000.0 X30.8625 Y56.75 I-0.1912 J-2.1038
G2 X27.6938 Y54.9205 I-2.1125 J0.0
G2 Y58.5795 I1.0563 J1.8295
G2 X28.9412 Y58.8538 I1.0563 J-1.8295
G1 F1000.0 X28.7688 Y56.9566
G1 Z-2.3
G2 F2000.0 X28.9575 Y56.75 I-0.0188 J-0.2066
G2 X28.6463 Y56.5703 I-0.2075 J0.0
G2 Y56.9297 I0.1037 J0.1797
G2 X28.7688 Y56.9566 I0.1038 J-0.1797
G1 F1000.0 X28.8262 Y57.589
G2 F2000.0 X29.5925 Y56.75 I-0.0762 J-0.839
G2 X28.3288 Y56.0204 I-0.8425 J0.0
G2 Y57.4796 I0.4213 J0.7296
G2 X28.8262 Y57.589 I0.4212 J-0.7296
G1 F1000.0 X28.9412 Y58.8538
G2 F2000.0 X30.8625 Y56.75 I-0.1912 J-2.1038
G2 X27.6938 Y54.9205 I-2.1125 J0.0
G2 Y58.5795 I1.0563 J1.8295
G2 X28.9412 Y58.8538 I1.0563 J-1.8295
G1 F1000.0 X28.7688 Y56.9566
G1 Z-2.4
G2 F2000.0 X28.9575 Y56.75 I-0.0188 J-0.2066
G2 X28.6463 Y56.5703 I-0.2075 J0.0
G2 Y56.9297 I0.1037 J0.1797
G2 X28.7688 Y56.9566 I0.1038 J-0.1797
G1 F1000.0 X28.8262 Y57.589
G2 F2000.0 X29.5925 Y56.75 I-0.0762 J-0.839
G2 X28.3288 Y56.0204 I-0.8425 J0.0
G2 Y57.4796 I0.4213 J0.7296
G2 X28.8262 Y57.589 I0.4212 J-0.7296
G1 F1000.0 X28.9412 Y58.8538
G2 F2000.0 X30.8625 Y56.75 I-0.1912 J-2.1038
G2 X27.6938 Y54.9205 I-2.1125 J0.0
G2 Y58.5795 I1.0563 J1.8295
G2 X28.9412 Y58.8538 I1.0563 J-1.8295
G1 F1000.0 X28.7688 Y56.9566
G1 Z-2.5
G2 F2000.0 X28.9575 Y56.75 I-0.0188 J-0.2066
G2 X28.6463 Y56.5703 I-0.2075 J0.0
G2 Y56.9297 I0.1037 J0.1797
G2 X28.7688 Y56.9566 I0.1038 J-0.1797
G1 F1000.0 X28.8262 Y57.589
G2 F2000.0 X29.5925 Y56.75 I-0.0762 J-0.839
G2 X28.3288 Y56.0204 I-0.8425 J0.0
G2 Y57.4796 I0.4213 J0.7296
G2 X28.8262 Y57.589 I0.4212 J-0.7296
G1 F1000.0 X28.9412 Y58.8538
G2 F2000.0 X30.8625 Y56.75 I-0.1912 J-2.1038
G2 X27.6938 Y54.9205 I-2.1125 J0.0
G2 Y58.5795 I1.0563 J1.8295
G2 X28.9412 Y58.8538 I1.0563 J-1.8295
G1 F1000.0 X28.7688 Y56.9566
G1 Z-2.6
G2 F2000.0 X28.9575 Y56.75 I-0.0188 J-0.2066
G2 X28.6463 Y56.5703 I-0.2075 J0.0
G2 Y56.9297 I0.1037 J0.1797
G2 X28.7688 Y56.9566 I0.1038 J-0.1797
G1 F1000.0 X28.8262 Y57.589
G2 F2000.0 X29.5925 Y56.75 I-0.0762 J-0.839
G2 X28.3288 Y56.0204 I-0.8425 J0.0
G2 Y57.4796 I0.4213 J0.7296
G2 X28.8262 Y57.589 I0.4212 J-0.7296
G1 F1000.0 X28.9412 Y58.8538
G2 F2000.0 X30.8625 Y56.75 I-0.1912 J-2.1038
G2 X27.6938 Y54.9205 I-2.1125 J0.0
G2 Y58.5795 I1.0563 J1.8295
G2 X28.9412 Y58.8538 I1.0563 J-1.8295
G1 F1000.0 X28.7688 Y56.9566
G1 Z-2.7
G2 F2000.0 X28.9575 Y56.75 I-0.0188 J-0.2066
G2 X28.6463 Y56.5703 I-0.2075 J0.0
G2 Y56.9297 I0.1037 J0.1797
G2 X28.7688 Y56.9566 I0.1038 J-0.1797
G1 F1000.0 X28.8262 Y57.589
G2 F2000.0 X29.5925 Y56.75 I-0.0762 J-0.839
G2 X28.3288 Y56.0204 I-0.8425 J0.0
G2 Y57.4796 I0.4213 J0.7296
G2 X28.8262 Y57.589 I0.4212 J-0.7296
G1 F1000.0 X28.9412 Y58.8538
G2 F2000.0 X30.8625 Y56.75 I-0.1912 J-2.1038
G2 X27.6938 Y54.9205 I-2.1125 J0.0
G2 Y58.5795 I1.0563 J1.8295
G2 X28.9412 Y58.8538 I1.0563 J-1.8295
G1 F1000.0 X28.7688 Y56.9566
G1 Z-2.8
G2 F2000.0 X28.9575 Y56.75 I-0.0188 J-0.2066
G2 X28.6463 Y56.5703 I-0.2075 J0.0
G2 Y56.9297 I0.1037 J0.1797
G2 X28.7688 Y56.9566 I0.1038 J-0.1797
G1 F1000.0 X28.8262 Y57.589
G2 F2000.0 X29.5925 Y56.75 I-0.0762 J-0.839
G2 X28.3288 Y56.0204 I-0.8425 J0.0
G2 Y57.4796 I0.4213 J0.7296
G2 X28.8262 Y57.589 I0.4212 J-0.7296
G1 F1000.0 X28.9412 Y58.8538
G2 F2000.0 X30.8625 Y56.75 I-0.1912 J-2.1038
G2 X27.6938 Y54.9205 I-2.1125 J0.0
G2 Y58.5795 I1.0563 J1.8295
G2 X28.9412 Y58.8538 I1.0563 J-1.8295
G1 F1000.0 X28.7688 Y56.9566
G1 Z-2.9
G2 F2000.0 X28.9575 Y56.75 I-0.0188 J-0.2066
G2 X28.6463 Y56.5703 I-0.2075 J0.0
G2 Y56.9297 I0.1037 J0.1797
G2 X28.7688 Y56.9566 I0.1038 J-0.1797
G1 F1000.0 X28.8262 Y57.589
G2 F2000.0 X29.5925 Y56.75 I-0.0762 J-0.839
G2 X28.3288 Y56.0204 I-0.8425 J0.0
G2 Y57.4796 I0.4213 J0.7296
G2 X28.8262 Y57.589 I0.4212 J-0.7296
G1 F1000.0 X28.9412 Y58.8538
G2 F2000.0 X30.8625 Y56.75 I-0.1912 J-2.1038
G2 X27.6938 Y54.9205 I-2.1125 J0.0
G2 Y58.5795 I1.0563 J1.8295
G2 X28.9412 Y58.8538 I1.0563 J-1.8295
G1 F1000.0 X28.7688 Y56.9566
G1 Z-3.0
G2 F2000.0 X28.9575 Y56.75 I-0.0188 J-0.2066
G2 X28.6463 Y56.5703 I-0.2075 J0.0
G2 Y56.9297 I0.1037 J0.1797
G2 X28.7688 Y56.9566 I0.1038 J-0.1797
G1 F1000.0 X28.8262 Y57.589
G2 F2000.0 X29.5925 Y56.75 I-0.0762 J-0.839
G2 X28.3288 Y56.0204 I-0.8425 J0.0
G2 Y57.4796 I0.4213 J0.7296
G2 X28.8262 Y57.589 I0.4212 J-0.7296
G1 F1000.0 X28.9412 Y58.8538
G2 F2000.0 X30.8625 Y56.75 I-0.1912 J-2.1038
G2 X27.6938 Y54.9205 I-2.1125 J0.0
G2 Y58.5795 I1.0563 J1.8295
G2 X28.9412 Y58.8538 I1.0563 J-1.8295
G1 F1000.0 X28.7688 Y56.9566
G1 Z-3.1
G2 F2000.0 X28.9575 Y56.75 I-0.0188 J-0.2066
G2 X28.6463 Y56.5703 I-0.2075 J0.0
G2 Y56.9297 I0.1037 J0.1797
G2 X28.7688 Y56.9566 I0.1038 J-0.1797
G1 F1000.0 X28.8262 Y57.589
G2 F2000.0 X29.5925 Y56.75 I-0.0762 J-0.839
G2 X28.3288 Y56.0204 I-0.8425 J0.0
G2 Y57.4796 I0.4213 J0.7296
G2 X28.8262 Y57.589 I0.4212 J-0.7296
G1 F1000.0 X28.9412 Y58.8538
G2 F2000.0 X30.8625 Y56.75 I-0.1912 J-2.1038
G2 X27.6938 Y54.9205 I-2.1125 J0.0
G2 Y58.5795 I1.0563 J1.8295
G2 X28.9412 Y58.8538 I1.0563 J-1.8295
G1 F1000.0 X28.7688 Y56.9566
G1 Z-3.2
G2 F2000.0 X28.9575 Y56.75 I-0.0188 J-0.2066
G2 X28.6463 Y56.5703 I-0.2075 J0.0
G2 Y56.9297 I0.1037 J0.1797
G2 X28.7688 Y56.9566 I0.1038 J-0.1797
G1 F1000.0 X28.8262 Y57.589
G2 F2000.0 X29.5925 Y56.75 I-0.0762 J-0.839
G2 X28.3288 Y56.0204 I-0.8425 J0.0
G2 Y57.4796 I0.4213 J0.7296
G2 X28.8262 Y57.589 I0.4212 J-0.7296
G1 F1000.0 X28.9412 Y58.8538
G2 F2000.0 X30.8625 Y56.75 I-0.1912 J-2.1038
G2 X27.6938 Y54.9205 I-2.1125 J0.0
G2 Y58.5795 I1.0563 J1.8295
G2 X28.9412 Y58.8538 I1.0563 J-1.8295
( Profile1 )
S1000
G0 Z3.0
G0 X43.3075 Y0.0
G0 Z0.25
G1 F1000.0 Z-0.1
G1 F2000.0 Y128.5
G3 X41.72 Y130.0875 I-1.5875 J0.0
G1 X0.0
G3 X-1.5875 Y128.5 I0.0 J-1.5875
G1 Y0.0
G3 X0.0 Y-1.5875 I1.5875 J0.0
G1 X41.72
G3 X43.3075 Y0.0 I0.0 J1.5875
G1 F1000.0 Z-0.2
G1 F2000.0 Y128.5
G3 X41.72 Y130.0875 I-1.5875 J0.0
G1 X0.0
G3 X-1.5875 Y128.5 I0.0 J-1.5875
G1 Y0.0
G3 X0.0 Y-1.5875 I1.5875 J0.0
G1 X41.72
G3 X43.3075 Y0.0 I0.0 J1.5875
G1 F1000.0 Z-0.3
G1 F2000.0 Y128.5
G3 X41.72 Y130.0875 I-1.5875 J0.0
G1 X0.0
G3 X-1.5875 Y128.5 I0.0 J-1.5875
G1 Y0.0
G3 X0.0 Y-1.5875 I1.5875 J0.0
G1 X41.72
G3 X43.3075 Y0.0 I0.0 J1.5875
G1 F1000.0 Z-0.4
G1 F2000.0 Y128.5
G3 X41.72 Y130.0875 I-1.5875 J0.0
G1 X0.0
G3 X-1.5875 Y128.5 I0.0 J-1.5875
G1 Y0.0
G3 X0.0 Y-1.5875 I1.5875 J0.0
G1 X41.72
G3 X43.3075 Y0.0 I0.0 J1.5875
G1 F1000.0 Z-0.5
G1 F2000.0 Y128.5
G3 X41.72 Y130.0875 I-1.5875 J0.0
G1 X0.0
G3 X-1.5875 Y128.5 I0.0 J-1.5875
G1 Y0.0
G3 X0.0 Y-1.5875 I1.5875 J0.0
G1 X41.72
G3 X43.3075 Y0.0 I0.0 J1.5875
G1 F1000.0 Z-0.6
G1 F2000.0 Y128.5
G3 X41.72 Y130.0875 I-1.5875 J0.0
G1 X0.0
G3 X-1.5875 Y128.5 I0.0 J-1.5875
G1 Y0.0
G3 X0.0 Y-1.5875 I1.5875 J0.0
G1 X41.72
G3 X43.3075 Y0.0 I0.0 J1.5875
G1 F1000.0 Z-0.7
G1 F2000.0 Y128.5
G3 X41.72 Y130.0875 I-1.5875 J0.0
G1 X0.0
G3 X-1.5875 Y128.5 I0.0 J-1.5875
G1 Y0.0
G3 X0.0 Y-1.5875 I1.5875 J0.0
G1 X41.72
G3 X43.3075 Y0.0 I0.0 J1.5875
G1 F1000.0 Z-0.8
G1 F2000.0 Y128.5
G3 X41.72 Y130.0875 I-1.5875 J0.0
G1 X0.0
G3 X-1.5875 Y128.5 I0.0 J-1.5875
G1 Y0.0
G3 X0.0 Y-1.5875 I1.5875 J0.0
G1 X41.72
G3 X43.3075 Y0.0 I0.0 J1.5875
G1 F1000.0 Z-0.9
G1 F2000.0 Y128.5
G3 X41.72 Y130.0875 I-1.5875 J0.0
G1 X0.0
G3 X-1.5875 Y128.5 I0.0 J-1.5875
G1 Y0.0
G3 X0.0 Y-1.5875 I1.5875 J0.0
G1 X41.72
G3 X43.3075 Y0.0 I0.0 J1.5875
G1 F1000.0 Z-1.0
G1 F2000.0 Y128.5
G3 X41.72 Y130.0875 I-1.5875 J0.0
G1 X0.0
G3 X-1.5875 Y128.5 I0.0 J-1.5875
G1 Y0.0
G3 X0.0 Y-1.5875 I1.5875 J0.0
G1 X41.72
G3 X43.3075 Y0.0 I0.0 J1.5875
G1 F1000.0 Z-1.1
G1 F2000.0 Y128.5
G3 X41.72 Y130.0875 I-1.5875 J0.0
G1 X0.0
G3 X-1.5875 Y128.5 I0.0 J-1.5875
G1 Y0.0
G3 X0.0 Y-1.5875 I1.5875 J0.0
G1 X41.72
G3 X43.3075 Y0.0 I0.0 J1.5875
G1 F1000.0 Z-1.2
G1 F2000.0 Y128.5
G3 X41.72 Y130.0875 I-1.5875 J0.0
G1 X0.0
G3 X-1.5875 Y128.5 I0.0 J-1.5875
G1 Y0.0
G3 X0.0 Y-1.5875 I1.5875 J0.0
G1 X41.72
G3 X43.3075 Y0.0 I0.0 J1.5875
G1 F1000.0 Z-1.3
G1 F2000.0 Y39.9675
G1 Y40.9675 Z-1.2
G1 Y44.1425
G1 Y45.1425 Z-1.3
G1 Y110.1625
G1 Y111.1625 Z-1.2
G1 Y114.3375
G1 Y115.3375 Z-1.3
G1 Y128.5
G3 X41.72 Y130.0875 I-1.5875 J0.0
G1 X0.0
G3 X-1.5875 Y128.5 I0.0 J-1.5875
G1 Y93.5875
G1 Y92.5875 Z-1.2
G1 Y89.4125
G1 Y88.4125 Z-1.3
G1 Y23.8375
G1 Y22.8375 Z-1.2
G1 Y19.6625
G1 Y18.6625 Z-1.3
G1 Y0.0
G3 X0.0 Y-1.5875 I1.5875 J0.0
G1 X41.72
G3 X43.3075 Y0.0 I0.0 J1.5875
G1 F1000.0 Z-1.4
G1 F2000.0 Y39.9675
G1 Y40.9675 Z-1.2
G1 Y44.1425
G1 Y45.1425 Z-1.4
G1 Y110.1625
G1 Y111.1625 Z-1.2
G1 Y114.3375
G1 Y115.3375 Z-1.4
G1 Y128.5
G3 X41.72 Y130.0875 I-1.5875 J0.0
G1 X0.0
G3 X-1.5875 Y128.5 I0.0 J-1.5875
G1 Y93.5875
G1 Y92.5875 Z-1.2
G1 Y89.4125
G1 Y88.4125 Z-1.4
G1 Y23.8375
G1 Y22.8375 Z-1.2
G1 Y19.6625
G1 Y18.6625 Z-1.4
G1 Y0.0
G3 X0.0 Y-1.5875 I1.5875 J0.0
G1 X41.72
G3 X43.3075 Y0.0 I0.0 J1.5875
G1 F1000.0 Z-1.5
G1 F2000.0 Y39.9675
G1 Y40.9675 Z-1.2
G1 Y44.1425
G1 Y45.1425 Z-1.5
G1 Y110.1625
G1 Y111.1625 Z-1.2
G1 Y114.3375
G1 Y115.3375 Z-1.5
G1 Y128.5
G3 X41.72 Y130.0875 I-1.5875 J0.0
G1 X0.0
G3 X-1.5875 Y128.5 I0.0 J-1.5875
G1 Y93.5875
G1 Y92.5875 Z-1.2
G1 Y89.4125
G1 Y88.4125 Z-1.5
G1 Y23.8375
G1 Y22.8375 Z-1.2
G1 Y19.6625
G1 Y18.6625 Z-1.5
G1 Y0.0
G3 X0.0 Y-1.5875 I1.5875 J0.0
G1 X41.72
G3 X43.3075 Y0.0 I0.0 J1.5875
G1 F1000.0 Z-1.6
G1 F2000.0 Y39.9675
G1 Y40.9675 Z-1.2
G1 Y44.1425
G1 Y45.1425 Z-1.6
G1 Y110.1625
G1 Y111.1625 Z-1.2
G1 Y114.3375
G1 Y115.3375 Z-1.6
G1 Y128.5
G3 X41.72 Y130.0875 I-1.5875 J0.0
G1 X0.0
G3 X-1.5875 Y128.5 I0.0 J-1.5875
G1 Y93.5875
G1 Y92.5875 Z-1.2
G1 Y89.4125
G1 Y88.4125 Z-1.6
G1 Y23.8375
G1 Y22.8375 Z-1.2
G1 Y19.6625
G1 Y18.6625 Z-1.6
G1 Y0.0
G3 X0.0 Y-1.5875 I1.5875 J0.0
G1 X41.72
G3 X43.3075 Y0.0 I0.0 J1.5875
G1 F1000.0 Z-1.7
G1 F2000.0 Y39.9675
G1 Y40.9675 Z-1.2
G1 Y44.1425
G1 Y45.1425 Z-1.7
G1 Y110.1625
G1 Y111.1625 Z-1.2
G1 Y114.3375
G1 Y115.3375 Z-1.7
G1 Y128.5
G3 X41.72 Y130.0875 I-1.5875 J0.0
G1 X0.0
G3 X-1.5875 Y128.5 I0.0 J-1.5875
G1 Y93.5875
G1 Y92.5875 Z-1.2
G1 Y89.4125
G1 Y88.4125 Z-1.7
G1 Y23.8375
G1 Y22.8375 Z-1.2
G1 Y19.6625
G1 Y18.6625 Z-1.7
G1 Y0.0
G3 X0.0 Y-1.5875 I1.5875 J0.0
G1 X41.72
G3 X43.3075 Y0.0 I0.0 J1.5875
G1 F1000.0 Z-1.8
G1 F2000.0 Y39.9675
G1 Y40.9675 Z-1.2
G1 Y44.1425
G1 Y45.1425 Z-1.8
G1 Y110.1625
G1 Y111.1625 Z-1.2
G1 Y114.3375
G1 Y115.3375 Z-1.8
G1 Y128.5
G3 X41.72 Y130.0875 I-1.5875 J0.0
G1 X0.0
G3 X-1.5875 Y128.5 I0.0 J-1.5875
G1 Y93.5875
G1 Y92.5875 Z-1.2
G1 Y89.4125
G1 Y88.4125 Z-1.8
G1 Y23.8375
G1 Y22.8375 Z-1.2
G1 Y19.6625
G1 Y18.6625 Z-1.8
G1 Y0.0
