( Made using CamBam - http://www.cambam.co.uk )
( statevariablepcb.gif 1/3/2015 1:33:56 PM )
( T1 : 0.04 )
( T2 : 0.031 )
( T3 : 0.0039 )
G20 G90 G64 G40
G0 Z0.125
( T1 : 0.04 )
T1 M6
( .04 drills )
G17
M3 S1000
G0 X1.5894 Y2.9298
G98
G81 X1.5894 Y2.9298 Z-0.075 R0.125 F20.0
G81 X1.4291 Y2.9275 Z-0.075
G81 X1.145 Y2.9481 Z-0.075
G81 X0.987 Y2.9504 Z-0.075
G81 X0.8037 Y2.9481 Z-0.075
G81 X0.6045 Z-0.075
G81 X0.4464 Y2.9298 Z-0.075
G81 X0.2861 Z-0.075
G81 X1.1886 Y2.529 Z-0.075
G81 X1.6306 Y1.583 Z-0.075
G81 X0.6846 Y1.3242 Z-0.075
G81 X0.2861 Y1.4226 Z-0.075
G81 X0.2632 Y0.156 Z-0.075
G80
( .031 drills )
G0 Z0.125
( T2 : 0.031 )
T2 M6
M3 S1000
G0 X0.2838 Y2.8473
G98
G81 X0.2838 Y2.8473 Z-0.075 R0.125 F20.0
G81 X0.4464 Z-0.075
G81 X0.6045 Y2.7855 Z-0.075
G81 X0.8037 Y2.7878 Z-0.075
G81 X0.987 Z-0.075
G81 X1.1863 Z-0.075
G81 X1.4291 Y2.8473 Z-0.075
G81 X1.5894 Z-0.075
G81 Y2.4465 Z-0.075
G81 X1.4291 Z-0.075
G81 X1.6283 Y2.2862 Z-0.075
G81 X1.7314 Z-0.075
G81 X1.6306 Y2.1465 Z-0.075
G81 X1.6283 Y2.0067 Z-0.075
G81 X1.5894 Y1.8235 Z-0.075
G81 X1.5917 Y1.6632 Z-0.075
G81 X1.7314 Y1.725 Z-0.075
G81 X1.4703 Y1.544 Z-0.075
G81 X1.5688 Y1.4249 Z-0.075
G81 X1.7291 Y1.3837 Z-0.075
G81 X1.7268 Y1.2829 Z-0.075
G81 Y1.1821 Z-0.075
G81 X1.7497 Y0.9416 Z-0.075
G81 X1.6306 Y0.8202 Z-0.075
G81 X1.5092 Y0.6782 Z-0.075
G81 X1.3695 Y0.4583 Z-0.075
G81 X1.468 Y0.3782 Z-0.075
G81 X1.6306 Y0.4194 Z-0.075
G81 X1.7497 Y0.5385 Z-0.075
G81 X1.4703 Y0.1789 Z-0.075
G81 X1.3489 Y0.2591 Z-0.075
G81 X1.2298 Y0.1766 Z-0.075
G81 Y0.3576 Z-0.075
G81 X1.0488 Y0.3392 Z-0.075
G81 X0.9893 Y0.4812 Z-0.075
G81 X0.987 Y0.5797 Z-0.075
G81 X0.9847 Y0.6805 Z-0.075
G81 Y0.779 Z-0.075
G81 X0.987 Y0.8798 Z-0.075
G81 Y0.9806 Z-0.075
G81 Y1.0814 Z-0.075
G81 Y1.1821 Z-0.075
G81 X1.0878 Y1.4226 Z-0.075
G81 X1.1656 Z-0.075
G81 X1.2687 Y1.5418 Z-0.075
G81 X1.1679 Y1.6632 Z-0.075
G81 X1.1267 Y1.725 Z-0.075
G81 Y1.8258 Z-0.075
G81 X1.1886 Z-0.075
G81 X1.2275 Y2.0067 Z-0.075
G81 Y2.1442 Z-0.075
G81 Y2.2862 Z-0.075
G81 X0.9824 Y2.2839 Z-0.075
G81 X0.9847 Y2.3847 Z-0.075
G81 X1.0878 Y2.5267 Z-0.075
G81 X0.9847 Y2.1831 Z-0.075
G81 Y2.0846 Z-0.075
G81 X0.987 Y1.9838 Z-0.075
G81 X0.9847 Y1.883 Z-0.075
G81 Y1.7845 Z-0.075
G81 Y1.6448 Z-0.075
G81 X0.6846 Y1.5051 Z-0.075
G81 Y1.4226 Z-0.075
G81 Y1.1821 Z-0.075
G81 Y1.0814 Z-0.075
G81 Y0.9806 Z-0.075
G81 Y0.8821 Z-0.075
G81 Y0.779 Z-0.075
G81 Y0.6828 Z-0.075
G81 X0.6823 Y0.5774 Z-0.075
G81 X0.6846 Y0.4812 Z-0.075
G81 X0.6457 Y0.3369 Z-0.075
G81 Y0.1766 Z-0.075
G81 X0.4052 Y0.3782 Z-0.075
G81 X0.2609 Y0.2591 Z-0.075
G81 Y0.6599 Z-0.075
G81 X0.4029 Y0.779 Z-0.075
G81 Y0.9393 Z-0.075
G81 X0.4052 Y1.1203 Z-0.075
G81 X0.2861 Y1.5051 Z-0.075
G81 X0.3434 Y1.6448 Z-0.075
G81 Y1.7639 Z-0.075
G81 X0.1418 Z-0.075
G81 X0.1441 Y2.1648 Z-0.075
G81 X0.1647 Y2.2885 Z-0.075
G81 X0.2861 Y2.4465 Z-0.075
G81 X0.4441 Z-0.075
G81 X0.5655 Y2.2862 Z-0.075
G81 X0.6869 Y2.2885 Z-0.075
G81 Y2.387 Z-0.075
G81 Y2.5267 Z-0.075
G81 Y2.1877 Z-0.075
G81 Y2.0869 Z-0.075
G81 Y1.9861 Z-0.075
G81 Y1.8853 Z-0.075
G81 X0.6846 Y1.7868 Z-0.075
G81 X0.5449 Y1.7433 Z-0.075
G81 Y1.8464 Z-0.075
G81 Y1.9059 Z-0.075
G81 Y2.0846 Z-0.075
G81 X0.3434 Y2.1648 Z-0.075
G81 X1.3672 Y1.1821 Z-0.075
G81 X1.4657 Y1.0607 Z-0.075
G81 X1.3695 Y0.9416 Z-0.075
G81 X1.2092 Y0.6782 Z-0.075
G81 X1.0488 Y0.1789 Z-0.075
G80
( Engrave1 )
G0 Z0.125
( T3 : 0.0039 )
T3 M6
M3 S1000
G0 X0.213 Y0.1984
G0 Z0.0135
G1 F20.0 Z-0.0065
G1 F40.0 X0.2009 Y0.1863
G3 X0.1998 Y0.1835 I0.0028 J-0.0028
G1 Y0.1569
G1 Y0.1304
G3 X0.2011 Y0.1274 I0.004 J0.0
G1 X0.2194 Y0.1108
G1 X0.2378 Y0.0942
G3 X0.2405 Y0.0932 I0.0027 J0.003
G1 X0.2658
G1 X0.291
G3 X0.294 Y0.0945 I0.0 J0.004
G1 X0.3106 Y0.1128
G1 X0.3272 Y0.1312
G3 X0.3283 Y0.1339 I-0.003 J0.0027
G1 Y0.1587
G1 Y0.1835
G3 X0.3271 Y0.1863 I-0.004 J0.0
G1 X0.315 Y0.1984
G1 X0.3058 Y0.2076
G1 X0.315 Y0.2168
G1 X0.3271 Y0.2289
G3 X0.3283 Y0.2317 I-0.0028 J0.0028
G1 Y0.2583
G1 Y0.2848
G3 X0.3269 Y0.2878 I-0.004 J0.0
G1 X0.3086 Y0.3044
G1 X0.2902 Y0.321
G3 X0.2875 Y0.322 I-0.0027 J-0.003
G1 X0.2623
G1 X0.237
G3 X0.234 Y0.3207 I0.0 J-0.004
G1 X0.2174 Y0.3024
G1 X0.2008 Y0.284
G3 X0.1998 Y0.2813 I0.003 J-0.0027
G1 Y0.2565
G1 Y0.2317
G3 X0.2009 Y0.2289 I0.004 J0.0
G1 X0.213 Y0.2168
G1 X0.2222 Y0.2076
G1 X0.213 Y0.1984
G0 Z0.125
G0 Y0.061
G0 Z0.0135
G1 F20.0 Z-0.0065
G1 F40.0 X0.0672
G1 Y1.3522
G1 Y2.6433
G1 X0.4247
G1 X0.7821
G1 Y2.3769
G1 Y2.1106
G1 X0.7084 Y2.1123
G1 X0.6306 Y2.1142
G3 X0.6265 Y2.1102 I-0.0001 J-0.004
G1 Y2.0851
G1 Y2.06
G3 X0.6306 Y2.056 I0.004 J0.0
G1 X0.7084 Y2.0578
G1 X0.7821 Y2.0596
G1 Y1.5329
G1 Y1.0062
G1 X0.7087 Y1.0079
G1 X0.6312 Y1.0098
G3 X0.6272 Y1.0066 I-0.0001 J-0.004
G1 X0.6234 Y0.9879
G1 X0.6196 Y0.9693
G3 X0.6207 Y0.9657 I0.0039 J-0.0008
G1 X0.6308 Y0.9556
G1 X0.641 Y0.9455
G3 X0.6441 Y0.9443 I0.0028 J0.0028
G1 X0.7353 Y0.9515
G1 X0.8266 Y0.9587
G3 X0.8303 Y0.9627 I-0.0003 J0.004
G1 Y1.8436
G1 Y2.7228
G1 X0.849 Y2.7397
G1 X0.8691 Y2.7579
G3 X0.8704 Y2.7609 I-0.0027 J0.003
G1 Y2.7879
G1 Y2.8149
G3 X0.8691 Y2.8179 I-0.004 J0.0
G1 X0.849 Y2.836
G1 X0.8303 Y2.853
G1 Y2.8682
G1 Y2.8834
G1 X0.849 Y2.9004
G1 X0.8691 Y2.9185
G3 X0.8704 Y2.9215 I-0.0027 J0.003
G1 Y2.9485
G1 Y2.9755
G3 X0.8691 Y2.9785 I-0.004 J0.0
G1 X0.8507 Y2.9951
G1 X0.8324 Y3.0117
G3 X0.8297 Y3.0128 I-0.0027 J-0.003
G1 X0.8044
G1 X0.7792
G3 X0.7762 Y3.0114 I0.0 J-0.004
G1 X0.7596 Y2.9931
G1 X0.743 Y2.9747
G3 X0.7419 Y2.972 I0.003 J-0.0027
G1 Y2.9468
G1 Y2.9215
G3 X0.7432 Y2.9185 I0.004 J0.0
G1 X0.7633 Y2.9004
G1 X0.7821 Y2.8834
G1 Y2.8682
G1 Y2.853
G1 X0.7633 Y2.836
G1 X0.7432 Y2.8179
G3 X0.7419 Y2.8149 I0.0027 J-0.003
G1 Y2.7879
G1 Y2.7609
G3 X0.7432 Y2.7579 I0.004 J0.0
G1 X0.7633 Y2.7397
G1 X0.7821 Y2.7228
G1 Y2.706
G1 Y2.6915
G1 X0.4046
G1 X0.0231
G3 X0.0191 Y2.6875 I0.0 J-0.004
G1 Y1.3522
G1 Y0.0168
G3 X0.0231 Y0.0128 I0.004 J0.0
G1 X0.9568
G1 X1.8905
G3 X1.8945 Y0.0168 I0.0 J0.004
G1 Y0.2277
G1 Y0.4385
G3 X1.8905 Y0.4425 I-0.004 J0.0
G1 X1.7813
G1 X1.6739
G1 X1.6627 Y0.4561
G1 X1.6502 Y0.4712
G3 X1.6471 Y0.4726 I-0.0031 J-0.0026
G1 X1.6298
G1 X1.6125
G3 X1.6095 Y0.4713 I0.0 J-0.004
G1 X1.5929 Y0.453
G1 X1.5763 Y0.4346
G3 X1.5753 Y0.4319 I0.003 J-0.0027
G1 Y0.4167
G1 Y0.4015
G3 X1.5766 Y0.3985 I0.004 J0.0
G1 X1.5949 Y0.3819
G1 X1.6133 Y0.3653
G3 X1.616 Y0.3642 I0.0027 J0.003
G1 X1.6315
G1 X1.6471
G3 X1.6502 Y0.3657 I0.0 J0.004
G1 X1.6627 Y0.3807
G1 X1.6739 Y0.3944
G1 X1.7612
G1 X1.8463
G1 Y0.2277
G1 Y0.061
G1 X0.9568
G1 X0.213
G0 Z0.125
G0 Y0.3542
G0 Z0.0135
G1 F20.0 Z-0.0065
G1 F40.0 X0.2224
G1 X0.3394
G1 X0.3564 Y0.3354
G1 X0.3746 Y0.3154
G3 X0.3776 Y0.314 I0.003 J0.0027
G1 X0.4046
G1 X0.4316
G3 X0.4345 Y0.3154 I0.0 J0.004
G1 X0.4512 Y0.3337
G1 X0.4678 Y0.3521
G3 X0.4688 Y0.3548 I-0.003 J0.0027
G1 Y0.38
G1 Y0.4053
G3 X0.4675 Y0.4083 I-0.004 J0.0
G1 X0.4474 Y0.4264
G1 X0.4287 Y0.4434
G1 Y0.5003
G1 Y0.555
G1 X0.4849
G1 X0.5451
G3 X0.5491 Y0.559 I0.0 J0.004
G1 Y0.6097
G1 Y0.6562
G1 X0.6426 Y0.6534
G1 X0.7402 Y0.6504
G3 X0.7442 Y0.6536 I0.0001 J0.004
G1 X0.748 Y0.6722
G1 X0.7517 Y0.6909
G3 X0.7506 Y0.6945 I-0.0039 J0.0008
G1 X0.741 Y0.7041
G1 X0.7314 Y0.7137
G3 X0.7284 Y0.7148 I-0.0028 J-0.0028
G1 X0.6165 Y0.7078
G1 X0.5047 Y0.7007
G3 X0.501 Y0.6967 I0.0003 J-0.004
G1 Y0.6479
G1 Y0.6032
G1 X0.4447
G1 X0.3845
G3 X0.3805 Y0.5992 I0.0 J-0.004
G1 Y0.5206
G1 Y0.4438
G1 X0.3585 Y0.4231
G1 X0.3364 Y0.4024
G1 X0.2408
G1 X0.1475
G1 Y1.052
G1 Y1.7037
G1 X0.1711 Y1.7223
G1 X0.1962 Y1.742
G3 X0.1977 Y1.7452 I-0.0025 J0.0031
G1 Y1.763
G1 Y1.7808
G3 X0.1964 Y1.7837 I-0.004 J0.0
G1 X0.1781 Y1.8004
G1 X0.1597 Y1.817
G3 X0.157 Y1.818 I-0.0027 J-0.003
G1 X0.1418
G1 X0.1266
G3 X0.1236 Y1.8167 I0.0 J-0.004
G1 X0.107 Y1.7983
G1 X0.0904 Y1.78
G3 X0.0894 Y1.7766 I0.003 J-0.0027
G1 X0.0918 Y1.7626
G2 X0.0922 Y1.7373 I-8.4851 J-0.154
G2 X0.0925 Y1.7181 I-4.5817 J-0.0843
G2 X0.0927 Y1.7037 I-3.453 J-0.0618
G2 X0.0931 Y1.6821 I-3.9998 J-0.0709
G2 X0.0934 Y1.6605 I-4.3026 J-0.0703
G2 X0.0937 Y1.6286 I-9.654 J-0.1319
G1 X0.094 Y1.6008
G1 X0.0942 Y1.5764
G1 X0.0946 Y1.5337
G1 X0.0947 Y1.5017
G1 X0.095 Y1.4536
G2 X0.0951 Y1.4296 I-24.5753 J-0.1222
G2 X0.0952 Y1.4056 I-6.9692 J-0.0426
G3 X0.0953 Y1.3836 I5.6063 J0.0138
G3 X0.0954 Y1.363 I5.6114 J0.0148
G3 X0.0955 Y1.3436 I5.6157 J0.0158
G3 X0.0956 Y1.3255 I5.6194 J0.0167
G3 Y1.3085 I5.6226 J0.0175
G3 X0.0957 Y1.2925 I5.6252 J0.0182
G3 X0.0958 Y1.2776 I5.6275 J0.0189
G3 X0.0959 Y1.2496 I8.0917 J0.0242
G3 X0.096 Y1.2251 I8.0953 J0.0263
G3 X0.0961 Y1.2036 I8.0972 J0.0282
G3 X0.0962 Y1.1848 I8.0977 J0.0297
G3 X0.0964 Y1.152 I11.8494 J0.0411
G3 X0.0965 Y1.1274 I11.8404 J0.0454
G3 X0.0967 Y1.0904 I18.0423 J0.0699
G3 X0.0969 Y1.0535 I30.8059 J0.1327
G1 X0.0995 Y0.3582
G3 X0.1035 Y0.3542 I0.004 J0.0
G1 X0.213
G0 Z0.125
G0 X0.24 Y0.5952
G0 Z0.0135
G1 F20.0 Z-0.0065
G3 F40.0 X0.2405 I0.0004 J0.004
G1 X0.2658
G1 X0.291
G3 X0.294 Y0.5965 I0.0 J0.004
G1 X0.3106 Y0.6148
G1 X0.3272 Y0.6332
G3 X0.3283 Y0.6359 I-0.003 J0.0027
G1 Y0.6611
G1 Y0.6864
G3 X0.3269 Y0.6894 I-0.004 J0.0
G1 X0.3069 Y0.7075
G1 X0.2881 Y0.7245
G1 Y0.7413
G1 Y0.7558
G1 X0.3127
G1 X0.3394
G1 X0.3564 Y0.737
G1 X0.3746 Y0.717
G3 X0.3776 Y0.7156 I0.003 J0.0027
G1 X0.4046
G1 X0.4316
G3 X0.4345 Y0.717 I0.0 J0.004
G1 X0.4515 Y0.7357
G1 X0.4673 Y0.7532
G1 X0.8266 Y0.7529
G1 X1.1837 Y0.7527
G1 Y0.7394
G1 Y0.724
G1 X1.1701 Y0.7127
G1 X1.155 Y0.7002
G3 X1.1536 Y0.6971 I0.0026 J-0.0031
G1 Y0.6798
G1 Y0.6625
G3 X1.1549 Y0.6595 I0.004 J0.0
G1 X1.1732 Y0.6429
G1 X1.1916 Y0.6263
G3 X1.1943 Y0.6253 I0.0027 J0.003
G1 X1.2095
G1 X1.2247
G3 X1.2277 Y0.6266 I0.0 J0.004
G1 X1.2443 Y0.645
G1 X1.2609 Y0.6633
G3 X1.262 Y0.666 I-0.003 J0.0027
G1 Y0.6816
G1 Y0.6971
G3 X1.2605 Y0.7002 I-0.004 J0.0
G1 X1.2455 Y0.7127
G1 X1.2319 Y0.724
G1 Y0.761
G1 Y0.8
G3 X1.2279 Y0.804 I-0.004 J0.0
G1 X1.13 Y0.8055
G3 X1.108 Y0.8057 I-0.0809 J-8.5561
G3 X1.0915 Y0.8058 I-0.0465 J-4.8872
G3 X1.0667 Y0.806 I-0.0496 J-5.2536
G3 X1.042 Y0.8062 I-0.0485 J-6.3422
G1 X1.0078 Y0.8063
G1 X0.9822
G1 X0.9438
G3 X0.9053 I-0.0002 J-15.2691
G3 X0.8859 Y0.8062 I0.0005 J-5.5055
G3 X0.8689 I0.0038 J-5.7024
G3 X0.8391 Y0.8061 I0.0065 J-8.6884
G3 X0.8167 I0.0138 J-9.1235
G3 X0.7832 Y0.806 I0.0266 J-14.743
G3 X0.7497 Y0.8059 I0.0819 J-32.12
G1 X0.4691 Y0.8046
G1 X0.4524 Y0.8231
G1 X0.4345 Y0.8428
G3 X0.4316 Y0.8441 I-0.003 J-0.0027
G1 X0.4046
G1 X0.3776
G3 X0.3746 Y0.8428 I0.0 J-0.004
G1 X0.3564 Y0.8227
G1 X0.3394 Y0.804
G1 X0.3127
G1 X0.2881
G1 Y0.9506
G1 Y1.0972
G1 X0.3127
G1 X0.3394
G1 X0.3564 Y1.0784
G1 X0.3746 Y1.0583
G3 X0.3776 Y1.057 I0.003 J0.0027
G1 X0.4046
G1 X0.4316
G3 X0.4345 Y1.0583 I0.0 J0.004
G1 X0.4512 Y1.0767
G1 X0.4678 Y1.095
G3 X0.4688 Y1.0977 I-0.003 J0.0027
G1 Y1.123
G1 Y1.1482
G3 X0.4675 Y1.1512 I-0.004 J0.0
G1 X0.4474 Y1.1694
G1 X0.4287 Y1.1864
G1 Y1.2433
G1 Y1.302
G3 X0.4247 Y1.306 I-0.004 J0.0
G1 X0.3142
G1 X0.2078
G1 Y1.4425
G1 Y1.5791
G1 X0.2339
G1 X0.264
G3 X0.268 Y1.5831 I0.0 J0.004
G1 Y1.8137
G1 Y2.0405
G1 X0.4222 Y2.0432
G1 X0.5803 Y2.0459
G3 X0.5843 Y2.0497 I-0.0001 J0.004
G1 X0.5873 Y2.1068
G1 X0.59 Y2.1599
G1 X0.6632 Y2.1582
G1 X0.7402 Y2.1564
G3 X0.7442 Y2.1596 I0.0001 J0.004
G1 X0.748 Y2.1782
G1 X0.7517 Y2.1969
G3 X0.7506 Y2.2005 I-0.0039 J0.0008
G1 X0.7405 Y2.2106
G1 X0.7304 Y2.2207
G3 X0.7273 Y2.2219 I-0.0028 J-0.0028
G1 X0.636 Y2.2146
G1 X0.5448 Y2.2074
G3 X0.5411 Y2.2034 I0.0003 J-0.004
G1 Y2.1698
G1 Y2.1378
G1 X0.5167 Y2.1135
G1 X0.4924 Y2.0891
G1 X0.3589
G1 X0.2239
G3 X0.2199 Y2.0851 I0.0 J-0.004
G1 Y1.8542
G1 Y1.6272
G1 X0.1937
G1 X0.1636
G3 X0.1596 Y1.6232 I0.0 J-0.004
G1 Y1.4425
G1 Y1.2618
G3 X0.1636 Y1.2578 I0.004 J0.0
G1 X0.2741
G1 X0.3805
G1 Y1.2234
G1 Y1.1867
G1 X0.3585 Y1.1661
G1 X0.3364 Y1.1453
G1 X0.291
G1 X0.2439
G3 X0.2399 Y1.1413 I0.0 J-0.004
G1 Y0.932
G1 Y0.7245
G1 X0.2212 Y0.7075
G1 X0.2011 Y0.6894
G3 X0.1998 Y0.6864 I0.0027 J-0.003
G1 Y0.6594
G1 Y0.6324
G3 X0.2011 Y0.6294 I0.004 J0.0
G1 X0.2194 Y0.6128
G1 X0.2378 Y0.5962
G3 X0.24 Y0.5952 I0.0027 J0.003
G0 Z0.125
G0 X0.5012 Y0.4973
G0 Z0.0135
G1 F20.0 Z-0.0065
G3 F40.0 X0.501 Y0.4959 I0.0037 J-0.0014
G1 Y0.3267
G1 Y0.1574
G3 X0.505 Y0.1534 I0.004 J0.0
G1 X0.5539
G1 X0.601
G1 X0.6123 Y0.1398
G1 X0.6248 Y0.1247
G3 X0.6279 Y0.1233 I0.0031 J0.0026
G1 X0.6452
G1 X0.6625
G3 X0.6655 Y0.1246 I0.0 J0.004
G1 X0.6821 Y0.143
G1 X0.6987 Y0.1613
G3 X0.6997 Y0.164 I-0.003 J0.0027
G1 Y0.1792
G1 Y0.1944
G3 X0.6984 Y0.1974 I-0.004 J0.0
G1 X0.6801 Y0.214
G1 X0.6617 Y0.2306
G3 X0.659 Y0.2317 I-0.0027 J-0.003
G1 X0.6435
G1 X0.6279
G3 X0.6248 Y0.2302 I0.0 J-0.004
G1 X0.6123 Y0.2152
G1 X0.601 Y0.2016
G1 X0.574
G1 X0.5491
G1 Y0.3286
G1 Y0.4554
G1 X0.6426 Y0.4526
G1 X0.7402 Y0.4496
G3 X0.7442 Y0.4528 I0.0001 J0.004
G1 X0.748 Y0.4714
G1 X0.7517 Y0.4901
G3 X0.7506 Y0.4937 I-0.0039 J0.0008
G1 X0.741 Y0.5033
G1 X0.7314 Y0.5129
G3 X0.7284 Y0.514 I-0.0028 J-0.0028
G1 X0.6165 Y0.507
G1 X0.5047 Y0.4999
G3 X0.5012 Y0.4973 I0.0003 J-0.004
G0 Z0.125
G0 X0.6205 Y0.5571
G0 Z0.0135
G1 F20.0 Z-0.0065
G3 F40.0 X0.6226 Y0.5552 I0.0036 J0.0018
G1 X0.6372 Y0.5496
G3 X0.6378 Y0.5494 I0.0014 J0.0037
G3 X0.6395 Y0.549 I0.0145 J0.0664
G3 X0.641 Y0.5487 I0.0086 J0.0388
G3 X0.6423 Y0.5485 I0.0067 J0.0305
G3 X0.6435 Y0.5483 I0.0057 J0.0263
G1 X0.6474 Y0.5476
G3 X0.6495 Y0.5472 I0.0063 J0.033
G3 X0.6515 Y0.5469 I0.0071 J0.0438
G3 X0.6624 Y0.5461 I0.0142 J0.1131
G3 X0.6731 Y0.546 I0.0067 J0.1997
G1 X0.6791 Y0.5461
G3 X0.6803 Y0.5462 I-0.0003 J0.0331
G1 X0.6888 Y0.5465
G3 X0.6909 Y0.5466 I-0.0018 J0.0703
G3 X0.6941 Y0.5467 I-0.003 J0.1063
G3 X0.6973 Y0.5468 I-0.0064 J0.1822
G1 X0.6974
G1 X0.7412 Y0.55
G3 X0.7449 Y0.554 I-0.0003 J0.004
G1 Y0.5791
G1 Y0.6042
G3 X0.7409 Y0.6082 I-0.004 J0.0
G1 X0.6857
G1 X0.6305
G3 X0.6265 Y0.6047 I0.0 J-0.004
G1 X0.6233 Y0.5821
G1 X0.6201 Y0.5595
G3 X0.6205 Y0.5571 I0.004 J-0.0006
G0 Z0.125
G0 X0.6284 Y0.3923
G0 Z0.0135
G1 F20.0 Z-0.0065
G3 F40.0 X0.6256 Y0.391 I0.0002 J-0.004
G1 X0.609 Y0.3726
G1 X0.5924 Y0.3543
G3 X0.5913 Y0.3516 I0.003 J-0.0027
G1 Y0.3364
G1 Y0.3212
G3 X0.5926 Y0.3182 I0.004 J0.0
G1 X0.611 Y0.3016
G1 X0.6294 Y0.285
G3 X0.6321 Y0.2839 I0.0027 J0.003
G1 X0.6476
G1 X0.6632
G3 X0.6662 Y0.2854 I0.0 J0.004
G1 X0.6787 Y0.3004
G1 X0.69 Y0.314
G1 X0.7773
G1 X0.8664
G3 X0.8704 Y0.318 I0.0 J0.004
G1 Y0.3883
G1 Y0.4545
G1 X0.9538 Y0.4521
G1 X1.0413 Y0.4496
G3 X1.0454 Y0.4528 I0.0001 J0.004
G1 X1.0492 Y0.4714
G1 X1.0529 Y0.4901
G3 X1.0518 Y0.4937 I-0.0039 J0.0008
G1 X1.042 Y0.5035
G1 X1.0321 Y0.5134
G3 X1.029 Y0.5146 I-0.0028 J-0.0028
G1 X0.9275 Y0.5074
G1 X0.826 Y0.5002
G3 X0.8223 Y0.4962 I0.0003 J-0.004
G1 Y0.4272
G1 Y0.3622
G1 X0.7572
G1 X0.69
G1 X0.6787 Y0.3758
G1 X0.6662 Y0.3909
G3 X0.6632 Y0.3923 I-0.0031 J-0.0026
G1 X0.6459
G1 X0.6286
G3 X0.6284 I0.0 J-0.004
G0 Z0.125
G0 X0.9218 Y0.557
G0 Z0.0135
G1 F20.0 Z-0.0065
G3 F40.0 X0.9238 Y0.5552 I0.0035 J0.002
G1 X0.9384 Y0.5496
G3 X0.939 Y0.5494 I0.0014 J0.0037
G3 X0.9407 Y0.549 I0.0145 J0.0663
G3 X0.9422 Y0.5487 I0.0086 J0.0388
G3 X0.9435 Y0.5485 I0.0067 J0.0305
G3 X0.9447 Y0.5483 I0.0057 J0.0263
G1 X0.9486 Y0.5476
G3 X0.9507 Y0.5472 I0.0063 J0.033
G3 X0.9527 Y0.5469 I0.0071 J0.0438
G3 X0.9636 Y0.5461 I0.0142 J0.1131
G3 X0.9743 Y0.546 I0.0067 J0.1997
G1 X0.9803 Y0.5461
G3 X0.9815 Y0.5462 I-0.0003 J0.0331
G1 X0.99 Y0.5465
G3 X0.9921 Y0.5466 I-0.0018 J0.0703
G3 X0.9953 Y0.5467 I-0.003 J0.1063
G3 X0.9985 Y0.5468 I-0.0064 J0.1824
G1 X0.9986
G1 X1.0424 Y0.55
G3 X1.0461 Y0.554 I-0.0003 J0.004
G1 Y0.5791
G1 Y0.6042
G3 X1.0421 Y0.6082 I-0.004 J0.0
G1 X0.9869
G1 X0.9317
G3 X0.9277 Y0.6047 I0.0 J-0.004
G1 X0.9245 Y0.5821
G1 X0.9213 Y0.5595
G3 X0.9218 Y0.557 I0.004 J-0.0006
G0 Z0.125
G0 X0.955 Y0.6436
G0 Z0.0135
G1 F20.0 Z-0.0065
G1 F40.0 X0.9566 Y0.643
G3 X0.9585 Y0.6427 I0.0014 J0.0037
G1 X1.0231 Y0.6494
G1 X1.0833 Y0.6555
G1 Y0.6095
G1 Y0.559
G3 X1.0873 Y0.555 I0.004 J0.0
G1 X1.2078
G1 X1.3283
G3 X1.3323 Y0.559 I0.0 J0.004
G1 Y0.7196
G1 Y0.8803
G3 X1.3283 Y0.8843 I-0.004 J0.0
G1 X1.2781
G1 X1.2319
G1 Y1.1649
G1 Y1.4494
G3 X1.2305 Y1.4524 I-0.004 J0.0
G1 X1.2129 Y1.4681
G1 X1.1954 Y1.4839
G3 X1.1927 Y1.4849 I-0.0027 J-0.003
G1 X1.1275
G1 X1.0622
G3 X1.0595 Y1.4839 I0.0 J-0.004
G1 X1.042 Y1.4681
G1 X1.0244 Y1.4524
G3 X1.0231 Y1.4494 I0.0027 J-0.003
G1 Y1.4224
G1 Y1.3954
G3 X1.0244 Y1.3925 I0.004 J0.0
G1 X1.0437 Y1.375
G1 X1.063 Y1.3575
G3 X1.066 Y1.3565 I0.0027 J0.003
G1 X1.0993 Y1.3588
G2 X1.1044 Y1.3591 I0.0349 J-0.612
G2 X1.1198 Y1.3598 I0.0548 J-1.0376
G1 X1.1253 Y1.3599
G2 X1.1334 Y1.3601 I0.0104 J-0.3631
G2 X1.1375 I0.0029 J-0.1892
G2 X1.1415 I0.0013 J-0.1752
G1 X1.1416
G2 X1.1461 Y1.36 I-0.0024 J-0.3474
G1 X1.153 Y1.3599
G1 X1.1599 Y1.3597
G1 X1.1837 Y1.3584
G1 Y1.1012
G1 Y0.8401
G3 X1.1877 Y0.8361 I0.004 J0.0
G1 X1.2379
G1 X1.2841
G1 Y0.7196
G1 Y0.6032
G1 X1.2078
G1 X1.1315
G1 Y0.6483
G1 Y0.6974
G3 X1.1278 Y0.7014 I-0.004 J0.0
G1 X1.0381 Y0.7085
G1 X0.9484 Y0.7156
G3 X0.946 Y0.715 I-0.0003 J-0.004
G1 X0.9353 Y0.7084
G1 X0.9245 Y0.7018
G3 X0.9227 Y0.6984 I0.0021 J-0.0034
G1 Y0.6786
G1 Y0.6588
G3 X0.9252 Y0.655 I0.004 J0.0
G1 X0.9409 Y0.649
G1 X0.955 Y0.6436
G0 Z0.125
G0 X0.9475 Y0.8446
G0 Z0.0135
G1 F20.0 Z-0.0065
G3 F40.0 X0.9476 I-0.0001 J0.004
G1 X1.0477 Y0.8517
G1 X1.1478 Y0.8588
G3 X1.1515 Y0.8628 I-0.0003 J0.004
G1 Y1.0824
G1 Y1.302
G3 X1.1475 Y1.306 I-0.004 J0.0
G1 X1.0672
G1 X0.9909
G1 Y1.4124
G1 Y1.5188
G1 X1.1061
G1 X1.2235
G1 X1.2348 Y1.5052
G1 X1.2473 Y1.4902
G3 X1.2504 Y1.4887 I0.0031 J0.0026
G1 X1.2677
G1 X1.285
G3 X1.2881 Y1.4902 I0.0 J0.004
G1 X1.3023 Y1.5078
G1 X1.3166 Y1.5253
G3 X1.3175 Y1.5279 I-0.0031 J0.0025
G1 X1.314 Y1.7262
G1 X1.3106 Y1.9245
G3 X1.3066 Y1.9284 I-0.004 J-0.0001
G1 X1.245
G1 X1.1851
G1 X1.1451 Y1.9676
G1 X1.1041 Y2.008
G3 X1.1014 Y2.0091 I-0.0028 J-0.0029
G1 X1.0166 Y2.0114
G1 X0.9318 Y2.0138
G3 X0.9277 Y2.0098 I-0.0001 J-0.004
G1 Y1.9847
G1 Y1.9596
G3 X0.9317 Y1.9556 I0.004 J0.0
G1 X1.0038
G1 X1.0744
G1 X1.107 Y1.9241
G1 X1.1407 Y1.8914
G3 X1.1435 Y1.8903 I0.0028 J0.0029
G1 X1.2057
G1 X1.264
G1 Y1.7478
G1 Y1.6032
G1 X1.2429 Y1.5856
G1 X1.2214 Y1.5677
G1 X1.0848 Y1.5673
G1 X0.9467 Y1.567
G3 X0.9427 Y1.563 I0.0 J-0.004
G1 Y1.4124
G1 Y1.2618
G3 X0.9467 Y1.2578 I0.004 J0.0
G1 X1.0271
G1 X1.1034
G1 Y1.0811
G1 Y0.9044
G1 X1.0196 Y0.9069
G1 X0.9318 Y0.9094
G3 X0.9277 Y0.9059 I-0.0001 J-0.004
G1 X0.9246 Y0.8843
G1 X0.9215 Y0.8627
G3 X0.9234 Y0.8587 I0.004 J-0.0006
G1 X0.9343 Y0.8519
G1 X0.9452 Y0.8452
G3 X0.9475 Y0.8446 I0.0021 J0.0034
G0 Z0.125
G0 X0.9558 Y0.9501
G0 Z0.0135
G1 F20.0 Z-0.0065
G1 F40.0 X1.0285 Y0.9443
G3 X1.0316 Y0.9455 I0.0003 J0.004
G1 X1.0417 Y0.9556
G1 X1.0518 Y0.9657
G3 X1.0529 Y0.9693 I-0.0028 J0.0028
G1 X1.0492 Y0.9879
G1 X1.0454 Y1.0066
G3 X1.0414 Y1.0098 I-0.0039 J-0.0008
G1 X0.9639 Y1.0079
G1 X0.8905 Y1.0062
G1 Y1.531
G1 Y2.056
G1 X0.9966
G1 X1.105
G1 X1.1572 Y2.0044
G1 X1.2106 Y1.9517
G3 X1.2134 Y1.9506 I0.0028 J0.0028
G1 X1.2294
G1 X1.2455
G3 X1.2486 Y1.952 I0.0 J0.004
G1 X1.2611 Y1.9671
G1 X1.2723 Y1.9807
G1 X1.3094
G1 X1.3443
G1 Y1.6044
G1 Y1.226
G1 X1.3307 Y1.2147
G1 X1.3157 Y1.2022
G3 X1.3142 Y1.1991 I0.0026 J-0.0031
G1 Y1.1818
G1 Y1.1645
G3 X1.3155 Y1.1615 I0.004 J0.0
G1 X1.3339 Y1.1449
G1 X1.3522 Y1.1283
G3 X1.3549 Y1.1273 I0.0027 J0.003
G1 X1.3702
G1 X1.3854
G3 X1.3883 Y1.1286 I0.0 J0.004
G1 X1.405 Y1.147
G1 X1.4216 Y1.1653
G3 X1.4226 Y1.168 I-0.003 J0.0027
G1 Y1.1836
G1 Y1.1991
G3 X1.4212 Y1.2022 I-0.004 J0.0
G1 X1.4061 Y1.2147
G1 X1.3925 Y1.226
G1 Y1.6245
G1 Y2.0248
G3 X1.3885 Y2.0288 I-0.004 J0.0
G1 X1.3295
G1 X1.2723
G1 X1.2606 Y2.043
G1 X1.2477 Y2.0585
G3 X1.2441 Y2.0599 I-0.0031 J-0.0026
G1 X1.2213 Y2.0569
G1 X1.2004 Y2.0542
G1 X1.1721 Y2.0813
G1 X1.1423 Y2.1098
G3 X1.1396 Y2.1109 I-0.0028 J-0.0029
G1 X1.0131 Y2.1126
G1 X0.8905 Y2.1141
G1 Y2.3587
G1 Y2.6032
G1 X0.9467
G1 X1.007
G3 X1.011 Y2.6072 I0.0 J0.004
G1 Y2.6658
G1 Y2.7228
G1 X1.0297 Y2.7397
G1 X1.0498 Y2.7579
G3 X1.0511 Y2.7609 I-0.0027 J0.003
G1 Y2.7879
G1 Y2.8149
G3 X1.0498 Y2.8179 I-0.004 J0.0
G1 X1.0297 Y2.836
G1 X1.011 Y2.853
G1 Y2.8682
G1 Y2.8834
G1 X1.028 Y2.8988
G1 X1.0452 Y2.9144
G1 X1.0693
G1 X1.093
G1 X1.1043 Y2.9008
G1 X1.1168 Y2.8857
G3 X1.1199 Y2.8843 I0.0031 J0.0026
G1 X1.1472
G1 X1.1745
G3 X1.1775 Y2.8856 I0.0 J0.004
G1 X1.1941 Y2.904
G1 X1.2107 Y2.9223
G3 X1.2118 Y2.925 I-0.003 J0.0027
G1 Y2.9503
G1 Y2.9755
G3 X1.2105 Y2.9785 I-0.004 J0.0
G1 X1.1921 Y2.9951
G1 X1.1737 Y3.0117
G3 X1.1711 Y3.0128 I-0.0027 J-0.003
G1 X1.1455
G1 X1.1199
G3 X1.1168 Y3.0113 I0.0 J-0.004
G1 X1.1043 Y2.9963
G1 X1.093 Y2.9826
G1 X1.0672
G1 X1.0414
G1 X1.0301 Y2.9963
G1 X1.0176 Y3.0113
G3 X1.0146 Y3.0128 I-0.0031 J-0.0026
G1 X0.9872
G1 X0.9599
G3 X0.9569 Y3.0114 I0.0 J-0.004
G1 X0.9403 Y2.9931
G1 X0.9237 Y2.9747
G3 X0.9227 Y2.972 I0.003 J-0.0027
G1 Y2.9468
G1 Y2.9215
G3 X0.924 Y2.9185 I0.004 J0.0
G1 X0.944 Y2.9004
G1 X0.9628 Y2.8834
G1 Y2.8682
G1 Y2.853
G1 X0.944 Y2.836
G1 X0.924 Y2.8179
G3 X0.9227 Y2.8149 I0.0027 J-0.003
G1 Y2.7879
G1 Y2.7609
G3 X0.924 Y2.7579 I0.004 J0.0
G1 X0.944 Y2.7397
G1 X0.9628 Y2.7228
G1 Y2.6859
G1 Y2.6513
G1 X0.9066
G1 X0.8463
G3 X0.8423 Y2.6473 I0.0 J-0.004
G1 Y1.805
G1 Y0.9627
G3 X0.846 Y0.9587 I0.004 J0.0
G1 X0.9372 Y0.9515
G1 X0.9558 Y0.9501
G0 Z0.125
G0 X0.961 Y1.0482
G0 Z0.0135
G1 F20.0 Z-0.0065
G3 F40.0 X0.9636 Y1.0481 I0.006 J0.1138
G3 X0.9743 Y1.048 I0.0067 J0.1997
G1 X0.9803 Y1.0481
G3 X0.9815 Y1.0482 I-0.0003 J0.0331
G1 X0.99 Y1.0485
G3 X0.9921 Y1.0486 I-0.0018 J0.0703
G3 X0.9953 Y1.0487 I-0.003 J0.1063
G3 X0.9985 Y1.0488 I-0.0064 J0.1823
G1 X0.9986
G1 X1.0424 Y1.052
G3 X1.0461 Y1.056 I-0.0003 J0.004
G1 Y1.0811
G1 Y1.1062
G3 X1.0421 Y1.1102 I-0.004 J0.0
G1 X0.9869
G1 X0.9317
G3 X0.9277 Y1.1067 I0.0 J-0.004
G1 X0.9245 Y1.0841
G1 X0.9213 Y1.0615
G3 X0.9238 Y1.0572 I0.004 J-0.0006
G1 X0.9384 Y1.0516
G3 X0.939 Y1.0514 I0.0014 J0.0037
G3 X0.9407 Y1.051 I0.0145 J0.0663
G3 X0.9422 Y1.0507 I0.0086 J0.0388
G3 X0.9435 Y1.0505 I0.0067 J0.0305
G3 X0.9447 Y1.0503 I0.0057 J0.0263
G1 X0.9486 Y1.0496
G3 X0.9507 Y1.0492 I0.0063 J0.033
G3 X0.9527 Y1.0489 I0.0071 J0.0438
G3 X0.961 Y1.0482 I0.0142 J0.1131
G0 Z0.125
G0 X0.9641 Y1.1485
G0 Z0.0135
G1 F20.0 Z-0.0065
G3 F40.0 X0.9743 Y1.1484 I0.0062 J0.1997
G1 X0.9803 Y1.1485
G3 X0.9815 Y1.1486 I-0.0003 J0.0331
G1 X0.99 Y1.1489
G3 X0.9921 Y1.149 I-0.0018 J0.0703
G3 X0.9953 Y1.1491 I-0.003 J0.1063
G3 X0.9985 Y1.1492 I-0.0064 J0.1823
G1 X0.9986
G1 X1.0424 Y1.1524
G3 X1.0461 Y1.1564 I-0.0003 J0.004
G1 Y1.1815
G1 Y1.2066
G3 X1.0421 Y1.2106 I-0.004 J0.0
G1 X0.9869
G1 X0.9317
G3 X0.9277 Y1.2071 I0.0 J-0.004
G1 X0.9245 Y1.1845
G1 X0.9213 Y1.1619
G3 X0.9238 Y1.1576 I0.004 J-0.0006
G1 X0.9384 Y1.152
G3 X0.939 Y1.1518 I0.0014 J0.0037
G3 X0.9407 Y1.1514 I0.0145 J0.0663
G3 X0.9422 Y1.1511 I0.0086 J0.0388
G3 X0.9435 Y1.1509 I0.0067 J0.0305
G3 X0.9447 Y1.1507 I0.0057 J0.0263
G1 X0.9486 Y1.15
G3 X0.9507 Y1.1496 I0.0063 J0.033
G3 X0.9527 Y1.1493 I0.0071 J0.0438
G3 X0.9636 Y1.1485 I0.0142 J0.1131
G3 X0.9641 I0.0067 J0.1997
G0 Z0.125
G0 X0.7449 Y1.1562
G0 Z0.0135
G1 F20.0 Z-0.0065
G3 F40.0 Y1.1564 I-0.004 J0.0001
G1 Y1.1815
G1 Y1.2066
G3 X0.7409 Y1.2106 I-0.004 J0.0
G1 X0.6857
G1 X0.6305
G3 X0.6265 Y1.2071 I0.0 J-0.004
G1 X0.6233 Y1.1845
G1 X0.6201 Y1.1619
G3 X0.6226 Y1.1576 I0.004 J-0.0006
G1 X0.6372 Y1.152
G3 X0.6378 Y1.1518 I0.0014 J0.0037
G3 X0.6395 Y1.1514 I0.0145 J0.0664
G3 X0.641 Y1.1511 I0.0086 J0.0388
G3 X0.6423 Y1.1509 I0.0067 J0.0305
G3 X0.6435 Y1.1507 I0.0057 J0.0263
G1 X0.6474 Y1.15
G3 X0.6495 Y1.1496 I0.0063 J0.033
G3 X0.6515 Y1.1493 I0.0071 J0.0438
G3 X0.6624 Y1.1485 I0.0142 J0.1131
G3 X0.6731 Y1.1484 I0.0067 J0.1997
G1 X0.6791 Y1.1485
G3 X0.6803 Y1.1486 I-0.0003 J0.0331
G1 X0.6888 Y1.1489
G3 X0.6909 Y1.149 I-0.0018 J0.0703
G3 X0.6941 Y1.1491 I-0.003 J0.1063
G3 X0.6973 Y1.1492 I-0.0064 J0.1821
G1 X0.6974
G1 X0.7412 Y1.1524
G3 X0.7449 Y1.1562 I-0.0003 J0.004
G0 Z0.125
G0 X0.7412 Y1.1102
G0 Z0.0135
G1 F20.0 Z-0.0065
G3 F40.0 X0.7409 I-0.0003 J-0.004
G1 X0.6857
G1 X0.6305
G3 X0.6265 Y1.1067 I0.0 J-0.004
G1 X0.6233 Y1.0841
G1 X0.6201 Y1.0615
G3 X0.6226 Y1.0572 I0.004 J-0.0006
G1 X0.6372 Y1.0516
G3 X0.6378 Y1.0514 I0.0014 J0.0037
G3 X0.6395 Y1.051 I0.0145 J0.0664
G3 X0.641 Y1.0507 I0.0086 J0.0388
G3 X0.6423 Y1.0505 I0.0067 J0.0305
G3 X0.6435 Y1.0503 I0.0057 J0.0263
G1 X0.6474 Y1.0496
G3 X0.6495 Y1.0492 I0.0063 J0.033
G3 X0.6515 Y1.0489 I0.0071 J0.0438
G3 X0.6624 Y1.0481 I0.0142 J0.1131
G3 X0.6731 Y1.048 I0.0067 J0.1997
G1 X0.6791 Y1.0481
G3 X0.6803 Y1.0482 I-0.0003 J0.0331
G1 X0.6888 Y1.0485
G3 X0.6909 Y1.0486 I-0.0018 J0.0703
G3 X0.6941 Y1.0487 I-0.003 J0.1063
G3 X0.6973 Y1.0488 I-0.0064 J0.1821
G1 X0.6974
G1 X0.7412 Y1.052
G3 X0.7449 Y1.056 I-0.0003 J0.004
G1 Y1.0811
G1 Y1.1062
G3 X0.7412 Y1.1102 I-0.004 J0.0
G0 Z0.125
G0 X0.7134 Y1.2579
G0 Z0.0135
G1 F20.0 Z-0.0065
G3 F40.0 X0.7157 Y1.2591 I-0.0007 J0.0039
G1 X0.7323 Y1.2775
G1 X0.7489 Y1.2958
G3 X0.7499 Y1.2985 I-0.003 J0.0027
G1 Y1.322
G1 Y1.3456
G3 X0.7489 Y1.3482 I-0.004 J0.0
G1 X0.7332 Y1.3656
G1 X0.7194 Y1.3808
G1 X0.731 Y1.3993
G1 X0.7441 Y1.4203
G3 Y1.4246 I-0.0034 J0.0021
G1 X0.7308 Y1.4458
G1 X0.7192 Y1.4644
G1 X0.7279 Y1.473
G3 X0.7281 Y1.4733 I-0.0028 J0.0028
G3 X0.7289 Y1.4743 I-0.0264 J0.0213
G3 X0.7296 Y1.4752 I-0.0162 J0.0131
G3 X0.7301 Y1.4759 I-0.0133 J0.0106
G3 X0.7307 Y1.4766 I-0.0119 J0.0094
G3 X0.734 Y1.4816 I-0.0387 J0.0293
G3 X0.7383 Y1.4926 I-0.0356 J0.0203
G3 X0.7386 Y1.494 I-0.015 J0.0041
G3 X0.739 Y1.4964 I-0.0347 J0.0075
G1 X0.7393 Y1.498
G1 Y1.4981
G1 X0.7396 Y1.5006
G1 X0.7399 Y1.5031
G3 Y1.5035 I-0.004 J0.0004
G1 Y1.5204
G3 X0.7384 Y1.5235 I-0.004 J0.0
G1 X0.7234 Y1.536
G1 X0.7098 Y1.5473
G1 Y1.6484
G1 Y1.7483
G1 X0.7277 Y1.753
G1 X0.7485 Y1.7585
G3 X0.7515 Y1.7629 I-0.001 J0.0039
G1 X0.7482 Y1.7862
G1 X0.7449 Y1.8095
G3 X0.7409 Y1.813 I-0.004 J-0.0006
G1 X0.6857
G1 X0.6305
G3 X0.6265 Y1.8095 I0.0 J-0.004
G1 X0.6233 Y1.787
G1 X0.6206 Y1.7678
G1 X0.6047
G2 X0.6034 Y1.7679 I0.0046 J0.0499
G3 X0.6033 I-0.0005 J-0.004
G2 X0.6021 Y1.7681 I0.0022 J0.0263
G3 X0.6019 I-0.0005 J-0.004
G2 X0.6009 Y1.7682 I0.0016 J0.0194
G3 X0.6008 I-0.0005 J-0.004
G2 X0.5928 Y1.7694 I0.009 J0.0873
G2 X0.5794 Y1.7737 I0.0143 J0.0686
G2 X0.5732 Y1.7766 I0.0475 J0.1096
G1 X0.57 Y1.7782
G1 X0.567 Y1.7797
G1 X0.5472 Y1.7921
G3 X0.5429 I-0.0021 J-0.0034
G1 X0.5254 Y1.7812
G1 X0.5079 Y1.7702
G3 X0.506 Y1.7674 I0.0021 J-0.0034
G1 X0.5031 Y1.7482
G1 X0.5002 Y1.729
G3 X0.5014 Y1.7256 I0.004 J-0.0006
G1 X0.5138 Y1.7132
G1 X0.5262 Y1.7007
G3 X0.5291 Y1.6996 I0.0028 J0.0028
G1 X0.5465
G1 X0.564
G3 X0.5674 Y1.7015 I0.0 J0.004
G1 X0.5736 Y1.7115
G1 X0.5787 Y1.7196
G1 X0.621
G1 X0.6616
G1 Y1.6345
G1 Y1.5473
G1 X0.648 Y1.536
G1 X0.6329 Y1.5235
G3 X0.6315 Y1.5204 I0.0026 J-0.0031
G1 Y1.5035
G3 Y1.5032 I0.004 J0.0
G3 X0.6317 Y1.5018 I0.0426 J0.0038
G3 X0.6322 Y1.4974 I0.1349 J0.0144
G3 X0.6326 Y1.4949 I0.0387 J0.0052
G1 X0.6328 Y1.4939
G1 Y1.4938
G1 X0.6331 Y1.4927
G1 Y1.4926
G3 X0.6374 Y1.4817 I0.0411 J0.0098
G3 X0.6388 Y1.4793 I0.0239 J0.0131
G1 X0.6398 Y1.4779
G3 X0.6399 Y1.4778 I0.0033 J0.0023
G1 X0.6407 Y1.4767
G3 Y1.4766 I0.0032 J0.0023
G1 X0.6432 Y1.4734
G3 X0.6435 Y1.473 I0.0032 J0.0024
G1 X0.6521 Y1.4644
G1 X0.6405 Y1.4458
G1 X0.6273 Y1.4246
G3 Y1.4203 I0.0034 J-0.0021
G1 X0.6404 Y1.3993
G1 X0.652 Y1.3808
G1 X0.6382 Y1.3656
G1 X0.6225 Y1.3482
G3 X0.6215 Y1.3456 I0.003 J-0.0027
G1 Y1.3203
G1 Y1.295
G3 X0.6228 Y1.2921 I0.004 J0.0
G1 X0.6411 Y1.2755
G1 X0.6595 Y1.2588
G3 X0.6622 Y1.2578 I0.0027 J0.003
G1 X0.6874
G1 X0.7127
G3 X0.7134 Y1.2579 I0.0 J0.004
G0 Z0.125
G0 X0.5692
G0 Z0.0135
G1 F20.0 Z-0.0065
G1 F40.0 Y1.3823
G3 X0.5652 Y1.3863 I-0.004 J0.0
G1 X0.515
G1 X0.4688
G1 Y1.6747
G1 Y1.9629
G1 X0.6028 Y1.9593
G1 X0.7408 Y1.9556
G3 X0.7449 Y1.9596 I0.0001 J0.004
G1 Y1.9847
G1 Y2.0098
G3 X0.7409 Y2.0138 I-0.004 J0.0
G1 X0.6882 Y2.0134
G3 X0.6677 Y2.0132 I0.062 J-6.4036
G3 X0.6471 Y2.0129 I0.0568 J-5.4009
G1 X0.6187 Y2.0125
G1 X0.5903 Y2.012
G3 X0.5602 Y2.0115 I0.1427 J-8.6291
G3 X0.53 Y2.0109 I0.2386 J-13.3974
G1 X0.4246 Y2.0088
G3 X0.4207 Y2.0048 I0.0001 J-0.004
G1 Y1.6734
G1 Y1.3421
G3 X0.4247 Y1.3381 I0.004 J0.0
G1 X0.4749
G1 X0.5211
G1 Y1.1514
G1 Y0.9646
G1 X0.4965
G1 X0.4697
G1 X0.4527 Y0.9834
G1 X0.4345 Y1.0034
G3 X0.4316 Y1.0048 I-0.003 J-0.0027
G1 X0.4046
G1 X0.3776
G3 X0.3746 Y1.0034 I0.0 J-0.004
G1 X0.358 Y0.9851
G1 X0.3414 Y0.9667
G3 X0.3403 Y0.964 I0.003 J-0.0027
G1 Y0.9388
G1 Y0.9135
G3 X0.3416 Y0.9105 I0.004 J0.0
G1 X0.36 Y0.8939
G1 X0.3784 Y0.8773
G3 X0.3811 Y0.8763 I0.0027 J0.003
G1 X0.4063
G1 X0.4316
G3 X0.4345 Y0.8776 I0.0 J0.004
G1 X0.4527 Y0.8977
G1 X0.4697 Y0.9164
G1 X0.4965
G1 X0.5211
G1 Y0.8916
G1 Y0.8628
G3 X0.5248 Y0.8588 I0.004 J0.0
G1 X0.6263 Y0.8516
G1 X0.7278 Y0.8444
G3 X0.7309 Y0.8456 I0.0003 J0.004
G1 X0.7408 Y0.8554
G1 X0.7506 Y0.8653
G3 X0.7517 Y0.8689 I-0.0028 J0.0028
G1 X0.748 Y0.8875
G1 X0.7442 Y0.9062
G3 X0.7401 Y0.9094 I-0.0039 J-0.0008
G1 X0.6526 Y0.9068
G1 X0.5692 Y0.9044
G1 Y1.1413
G1 Y1.2579
G0 Z0.125
G0 X0.3306 Y1.4017
G0 Z0.0135
G1 F20.0 Z-0.0065
G3 F40.0 X0.3349 Y1.4103 I-0.0497 J0.0299
G3 X0.3376 Y1.4212 I-0.0407 J0.016
G3 X0.3378 Y1.427 I-0.0366 J0.0043
G3 X0.337 Y1.4328 I-0.0318 J-0.0014
G1 Y1.4329
G3 X0.3351 Y1.4383 I-0.032 J-0.008
G3 X0.3333 Y1.442 I-0.0479 J-0.0221
G1 X0.3332
G3 X0.33 Y1.4471 I-0.0567 J-0.0325
G3 X0.3292 Y1.4483 I-0.0549 J-0.0377
G3 X0.3279 Y1.45 I-0.0677 J-0.0475
G1 X0.3267 Y1.4517
G3 X0.3263 Y1.4522 I-0.0032 J-0.0024
G1 X0.3176 Y1.4608
G1 X0.3293 Y1.4794
G1 X0.3426 Y1.5007
G3 X0.3425 Y1.505 I-0.0034 J0.0021
G1 X0.3319 Y1.5218
G3 X0.3318 Y1.522 I-0.0034 J-0.0021
G3 X0.3308 Y1.5233 I-0.068 J-0.0488
G3 X0.33 Y1.5244 I-0.0398 J-0.0285
G3 X0.3293 Y1.5254 I-0.0317 J-0.0227
G3 X0.328 Y1.5272 I-0.0371 J-0.0266
G3 X0.3239 Y1.5322 I-0.0907 J-0.0684
G3 X0.3136 Y1.5426 I-0.0696 J-0.0593
G1 X0.3135
G3 X0.3085 Y1.5467 I-0.0793 J-0.094
G1 X0.3084
G1 X0.3059 Y1.5486
G1 X0.3034 Y1.5504
G3 X0.3031 Y1.5506 I-0.0024 J-0.0032
G1 X0.2862 Y1.5613
G3 X0.282 I-0.0021 J-0.0034
G1 X0.2651 Y1.5506
G3 X0.2649 Y1.5505 I0.0021 J-0.0034
G3 X0.2636 Y1.5495 I0.0491 J-0.0683
G3 X0.2624 Y1.5487 I0.0286 J-0.04
G3 X0.2615 Y1.548 I0.0228 J-0.0318
G3 X0.2597 Y1.5467 I0.0267 J-0.0374
G3 X0.2546 Y1.5426 I0.0697 J-0.0923
G3 X0.2443 Y1.5322 I0.0589 J-0.0693
G3 X0.2402 Y1.5272 I0.0955 J-0.0806
G1 Y1.5271
G1 X0.2383 Y1.5246
G1 X0.2364 Y1.5221
G3 X0.2363 Y1.5218 I0.0032 J-0.0024
G1 X0.2256 Y1.505
G3 Y1.5007 I0.0034 J-0.0021
G1 X0.2389 Y1.4794
G1 X0.2505 Y1.4608
G1 X0.2419 Y1.4522
G3 X0.2416 Y1.4519 I0.0028 J-0.0028
G3 X0.2409 Y1.4509 I0.0267 J-0.0216
G3 X0.2402 Y1.45 I0.0163 J-0.0133
G3 X0.2358 Y1.4437 I0.0455 J-0.0359
G1 Y1.4436
G3 X0.2315 Y1.4328 I0.0359 J-0.0205
G3 X0.2312 Y1.4314 I0.015 J-0.0041
G3 X0.2308 Y1.4291 I0.0368 J-0.008
G3 X0.2299 Y1.4224 I0.1095 J-0.0173
G3 Y1.422 I0.004 J-0.0004
G1 Y1.4055
G3 X0.2312 Y1.4025 I0.004 J0.0
G1 X0.2496 Y1.3859
G1 X0.2679 Y1.3693
G3 X0.2706 Y1.3682 I0.0027 J0.003
G1 X0.2858
G1 X0.3011
G3 X0.304 Y1.3696 I0.0 J0.004
G1 X0.3206 Y1.3879
G3 X0.3208 Y1.3881 I-0.003 J0.0027
G3 X0.3247 Y1.3931 I-0.2683 J0.2125
G3 X0.3303 Y1.4012 I-0.0774 J0.0596
G3 X0.3306 Y1.4017 I-0.0494 J0.0304
G0 Z0.125
G0 X0.3308 Y1.5891
G0 Z0.0135
G1 F20.0 Z-0.0065
G1 F40.0 X0.3309
G1 X0.3461
G1 X0.3613
G3 X0.3643 Y1.5904 I0.0 J0.004
G1 X0.3809 Y1.6088
G1 X0.3975 Y1.6272
G3 X0.3985 Y1.6298 I-0.003 J0.0027
G1 Y1.646
G3 Y1.6463 I-0.004 J0.0
G3 X0.3983 Y1.6488 I-0.0487 J-0.0039
G3 X0.397 Y1.656 I-0.0546 J-0.0055
G3 X0.3954 Y1.6608 I-0.0281 J-0.0069
G3 X0.3928 Y1.6654 I-0.0241 J-0.0106
G3 X0.39 Y1.6687 I-0.0207 J-0.0148
G1 X0.3886 Y1.67
G1 Y1.6701
G1 X0.3872 Y1.6713
G3 X0.3866 Y1.6718 I-0.0027 J-0.0029
G1 X0.3785 Y1.6769
G1 Y1.6993
G1 Y1.7228
G1 X0.3903 Y1.7418
G1 X0.4028 Y1.7618
G3 Y1.766 I-0.0034 J0.0021
G1 X0.3922 Y1.7829
G3 X0.392 Y1.7831 I-0.0034 J-0.0021
G3 X0.3911 Y1.7844 I-0.068 J-0.0488
G3 X0.3902 Y1.7855 I-0.0398 J-0.0285
G3 X0.3895 Y1.7865 I-0.0317 J-0.0227
G3 X0.3882 Y1.7882 I-0.0371 J-0.0266
G3 X0.3841 Y1.7933 I-0.0907 J-0.0684
G3 X0.3738 Y1.8036 I-0.0696 J-0.0593
G3 X0.3687 Y1.8077 I-0.0793 J-0.094
G1 X0.3662 Y1.8096
G1 X0.3661
G1 X0.3636 Y1.8115
G3 X0.3634 Y1.8116 I-0.0024 J-0.0032
G1 X0.3465 Y1.8223
G3 X0.3422 I-0.0021 J-0.0034
G1 X0.3253 Y1.8116
G3 X0.3251 Y1.8115 I0.0021 J-0.0034
G3 X0.3238 Y1.8106 I0.0491 J-0.0683
G3 X0.3227 Y1.8097 I0.0286 J-0.04
G3 X0.3217 Y1.809 I0.0228 J-0.0318
G3 X0.32 Y1.8077 I0.0267 J-0.0374
G3 X0.3149 Y1.8036 I0.0697 J-0.0923
G3 X0.3045 Y1.7933 I0.0589 J-0.0693
G3 X0.3005 Y1.7882 I0.0955 J-0.0806
G1 X0.3004
G1 X0.2986 Y1.7857
G1 X0.2985 Y1.7856
G1 X0.2967 Y1.7831
G3 X0.2965 Y1.7829 I0.0032 J-0.0024
G1 X0.2859 Y1.766
G3 Y1.7618 I0.0034 J-0.0021
G1 X0.2983 Y1.7418
G1 X0.3102 Y1.7228
G1 Y1.6993
G1 Y1.6769
G1 X0.3021 Y1.6718
G1 X0.292 Y1.6656
G3 X0.2901 Y1.6622 I0.0021 J-0.0034
G1 Y1.6443
G1 Y1.6264
G3 X0.2914 Y1.6234 I0.004 J0.0
G1 X0.3098 Y1.6068
G1 X0.3282 Y1.5902
G3 X0.3308 Y1.5891 I0.0027 J0.003
G0 Z0.125
G0 X0.5148 Y1.8127
G0 Z0.0135
G1 F20.0 Z-0.0065
G3 F40.0 X0.5155 Y1.8121 I0.0195 J0.0237
G3 X0.5164 Y1.8113 I0.0123 J0.0144
G3 X0.5232 Y1.8065 I0.04 J0.0491
G3 X0.5233 I0.0021 J0.0034
G3 X0.5342 Y1.8018 I0.0246 J0.0423
G3 X0.5395 Y1.8005 I0.0139 J0.0454
G3 X0.5451 Y1.8 I0.0058 J0.0311
G1 X0.5452
G3 X0.5508 Y1.8005 I-0.0002 J0.0318
G3 X0.556 Y1.8018 I-0.0088 J0.0473
G3 X0.567 Y1.8065 I-0.0136 J0.0469
G3 X0.5717 Y1.8097 I-0.0233 J0.0393
G1 X0.5727 Y1.8104
G1 Y1.8105
G1 X0.5757 Y1.8129
G3 X0.5761 Y1.8132 I-0.0025 J0.0031
G1 X0.5881 Y1.8252
G3 X0.5893 Y1.8281 I-0.0028 J0.0028
G1 Y1.8455
G1 Y1.8588
G1 X0.663 Y1.857
G1 X0.7408 Y1.8552
G3 X0.7449 Y1.8592 I0.0001 J0.004
G1 Y1.8843
G1 Y1.9094
G3 X0.7408 Y1.9134 I-0.004 J0.0
G1 X0.6658 Y1.9119
G1 X0.5928 Y1.9104
G1 X0.5807 Y1.9277
G1 X0.5673 Y1.9468
G3 X0.5641 Y1.9485 I-0.0033 J-0.0023
G1 X0.5466
G1 X0.5291
G3 X0.5262 Y1.9473 I0.0 J-0.004
G1 X0.5142 Y1.9353
G1 X0.5021 Y1.9233
G3 X0.501 Y1.9204 I0.0028 J-0.0028
G1 Y1.8742
G1 Y1.8281
G3 X0.5021 Y1.8252 I0.004 J0.0
G1 X0.5142 Y1.8132
G3 X0.5144 Y1.813 I0.0028 J0.0028
G3 X0.5148 Y1.8127 I0.0198 J0.0234
G0 Z0.125
G0 X0.4654 Y2.1414
G0 Z0.0135
G1 F20.0 Z-0.0065
G3 F40.0 X0.4688 Y2.1453 I-0.0006 J0.004
G1 Y2.2056
G1 Y2.2618
G1 X0.4937
G1 X0.5207
G1 X0.532 Y2.2482
G1 X0.5445 Y2.2331
G3 X0.5476 Y2.2317 I0.0031 J0.0026
G1 X0.5644
G1 X0.5813
G3 X0.5841 Y2.2329 I0.0 J0.004
G1 X0.5967 Y2.2454
G1 X0.6081 Y2.2568
G1 X0.6737
G1 X0.7409
G3 X0.7449 Y2.2608 I0.0 J0.004
G1 Y2.2859
G1 Y2.311
G3 X0.7409 Y2.315 I-0.004 J0.0
G1 X0.6737
G1 X0.6081
G1 X0.5967 Y2.3264
G1 X0.5841 Y2.3389
G3 X0.5813 Y2.3401 I-0.0028 J-0.0028
G1 X0.5644
G1 X0.5476
G3 X0.5445 Y2.3386 I0.0 J-0.004
G1 X0.532 Y2.3236
G1 X0.5207 Y2.31
G1 X0.4937
G1 X0.4688
G1 Y2.3446
G1 Y2.3814
G1 X0.4876 Y2.3984
G1 X0.5077 Y2.4165
G3 X0.509 Y2.4195 I-0.0027 J0.003
G1 Y2.4465
G1 Y2.4735
G3 X0.5077 Y2.4765 I-0.004 J0.0
G1 X0.4893 Y2.4931
G1 X0.4709 Y2.5097
G3 X0.4683 Y2.5108 I-0.0027 J-0.003
G1 X0.443
G1 X0.4177
G3 X0.4148 Y2.5094 I0.0 J-0.004
G1 X0.3966 Y2.4894
G1 X0.3796 Y2.4706
G1 X0.3644
G1 X0.3492
G1 X0.3322 Y2.4894
G1 X0.3141 Y2.5094
G3 X0.3111 Y2.5108 I-0.003 J-0.0027
G1 X0.2841
G1 X0.2571
G3 X0.2541 Y2.5094 I0.0 J-0.004
G1 X0.2375 Y2.4911
G1 X0.2209 Y2.4727
G3 X0.2199 Y2.47 I0.003 J-0.0027
G1 Y2.4448
G1 Y2.4195
G3 X0.2212 Y2.4165 I0.004 J0.0
G1 X0.2395 Y2.3999
G1 X0.2579 Y2.3833
G3 X0.2606 Y2.3823 I0.0027 J0.003
G1 X0.2858
G1 X0.3111
G3 X0.3141 Y2.3836 I0.0 J0.004
G1 X0.3322 Y2.4037
G1 X0.3492 Y2.4224
G1 X0.3642
G1 X0.3793
G1 X0.3999 Y2.4005
G1 X0.4207 Y2.3784
G1 Y2.2827
G1 Y2.1895
G1 X0.4058
G1 X0.3888
G1 X0.3775 Y2.2031
G1 X0.365 Y2.2182
G3 X0.362 Y2.2196 I-0.0031 J-0.0026
G1 X0.3447
G1 X0.3274
G3 X0.3244 Y2.2183 I0.0 J-0.004
G1 X0.3078 Y2.1999
G1 X0.2912 Y2.1816
G3 X0.2901 Y2.1789 I0.003 J-0.0027
G1 Y2.1637
G1 Y2.1484
G3 X0.2914 Y2.1455 I0.004 J0.0
G1 X0.3098 Y2.1289
G1 X0.3282 Y2.1122
G3 X0.3309 Y2.1112 I0.0027 J0.003
G1 X0.3464
G1 X0.362
G3 X0.365 Y2.1126 I0.0 J0.004
G1 X0.3775 Y2.1277
G1 X0.3888 Y2.1413
G1 X0.4259
G1 X0.4648
G3 X0.4654 Y2.1414 I0.0 J0.004
G0 Z0.125
G0 X0.5438 Y2.3646
G0 Z0.0135
G1 F20.0 Z-0.0065
G2 F40.0 X0.5411 Y2.3683 I0.0013 J0.0038
G1 Y2.4576
G1 Y2.5429
G1 X0.3644
G1 X0.1877
G1 Y2.4481
G1 Y2.351
G1 X0.2065 Y2.334
G1 X0.2265 Y2.3159
G2 X0.2279 Y2.3129 I-0.0027 J-0.003
G1 Y2.2859
G1 Y2.2589
G2 X0.2265 Y2.2559 I-0.004 J0.0
G1 X0.2058 Y2.2371
G1 X0.1866 Y2.2198
G1 X0.1926 Y2.188
G1 X0.199 Y2.1541
G2 X0.198 Y2.1507 I-0.0039 J-0.0007
G1 X0.1807 Y2.1316
G1 X0.1635 Y2.1125
G2 X0.1605 Y2.1112 I-0.003 J0.0027
G1 X0.1453
G1 X0.1301
G2 X0.1274 Y2.1122 I0.0 J0.004
G1 X0.109 Y2.1289
G1 X0.0906 Y2.1455
G2 X0.0893 Y2.1484 I0.0027 J0.003
G1 Y2.1662
G1 Y2.184
G2 X0.0909 Y2.1872 I0.004 J0.0
G1 X0.1157 Y2.2067
G1 X0.1368 Y2.2233
G1 X0.1205 Y2.238
G1 X0.1007 Y2.2559
G2 X0.0994 Y2.2589 I0.0027 J0.003
G1 Y2.2859
G1 Y2.3129
G2 X0.1007 Y2.3159 I0.004 J0.0
G1 X0.1208 Y2.334
G1 X0.1395 Y2.351
G1 Y2.4682
G1 Y2.5871
G2 X0.1435 Y2.5911 I0.004 J0.0
G1 X0.3644
G1 X0.5853
G2 X0.5893 Y2.5871 I0.0 J-0.004
G1 Y2.4967
G1 Y2.4104
G1 X0.6027 Y2.4105
G1 X0.6071 Y2.4108
G1 X0.6115 Y2.4111
G3 X0.6144 Y2.4114 I-0.0121 J0.1426
G3 X0.6173 Y2.4117 I-0.005 J0.0556
G2 X0.6174 I0.0006 J-0.004
G3 X0.6203 Y2.4121 I-0.0064 J0.0571
G2 X0.6204 I0.0006 J-0.0039
G3 X0.6223 Y2.4124 I-0.0078 J0.0566
G3 X0.6249 Y2.4129 I-0.0167 J0.1064
G1 X0.6285 Y2.4135
G1 X0.631 Y2.4141
G1 X0.6336 Y2.4146
G3 X0.6387 Y2.4158 I-0.0525 J0.2425
G3 X0.642 Y2.4166 I-0.0574 J0.2526
G1 X0.6616 Y2.4218
G1 Y2.4411
G1 Y2.4617
G1 X0.6428 Y2.4787
G1 X0.6228 Y2.4969
G2 X0.6215 Y2.4998 I0.0027 J0.003
G1 Y2.5251
G1 Y2.5504
G2 X0.6225 Y2.553 I0.004 J0.0
G1 X0.6391 Y2.5714
G1 X0.6557 Y2.5898
G2 X0.6587 Y2.5911 I0.003 J-0.0027
G1 X0.6839
G1 X0.7092
G2 X0.7119 Y2.59 I0.0 J-0.004
G1 X0.7303 Y2.5734
G1 X0.7486 Y2.5568
G2 X0.7499 Y2.5538 I-0.0027 J-0.003
G1 Y2.5268
G1 Y2.4998
G2 X0.7486 Y2.4969 I-0.004 J0.0
G1 X0.7285 Y2.4787
G1 X0.7098 Y2.4617
G1 Y2.4411
G1 Y2.4218
G1 X0.7269 Y2.4174
G1 X0.7469 Y2.4121
G2 X0.7499 Y2.4082 I-0.001 J-0.0039
G1 Y2.3878
G1 Y2.3674
G2 X0.748 Y2.364 I-0.004 J0.0
G1 X0.7373 Y2.3574
G1 X0.7266 Y2.3507
G2 X0.7242 Y2.3501 I-0.0021 J0.0034
G1 X0.6345 Y2.3572
G1 X0.5448 Y2.3643
G2 X0.5438 Y2.3646 I0.0003 J0.004
G0 Z0.125
G0 X0.5814 Y2.7237
G0 Z0.0135
G1 F20.0 Z-0.0065
G3 F40.0 X0.5819 Y2.7236 I0.0004 J0.004
G1 X0.6071
G1 X0.6324
G3 X0.6353 Y2.725 I0.0 J0.004
G1 X0.652 Y2.7433
G1 X0.6686 Y2.7617
G3 X0.6696 Y2.7644 I-0.003 J0.0027
G1 Y2.79
G1 Y2.8155
G3 X0.6682 Y2.8186 I-0.004 J0.0
G1 X0.6531 Y2.8311
G1 X0.6395 Y2.8424
G1 Y2.8682
G1 Y2.894
G1 X0.6531 Y2.9053
G1 X0.6682 Y2.9178
G3 X0.6696 Y2.9209 I-0.0026 J0.0031
G1 Y2.9485
G1 Y2.9762
G3 X0.6682 Y2.9793 I-0.004 J0.0
G1 X0.6531 Y2.9918
G1 X0.6395 Y3.0031
G1 Y3.0301
G1 Y3.055
G1 X0.9467
G1 X1.254
G1 Y2.9385
G1 Y2.822
G1 X1.2497
G2 X1.2473 Y2.8227 I0.0143 J0.0529
G1 X1.2472
G2 X1.2447 Y2.8237 I0.0056 J0.0184
G2 X1.2414 Y2.8257 I0.0077 J0.0166
G1 X1.2405 Y2.8264
G2 X1.2381 Y2.8284 I0.0263 J0.0333
G3 X1.2379 Y2.8286 I-0.0027 J-0.0029
G2 X1.2377 Y2.8287 I0.0011 J0.0014
G3 X1.2374 Y2.829 I-0.0029 J-0.0028
G2 X1.2373 Y2.8291 I0.0012 J0.0015
G3 X1.2371 Y2.8293 I-0.0029 J-0.0028
G2 X1.2356 Y2.8308 I0.0463 J0.0493
G2 X1.2309 Y2.8357 I0.162 J0.1602
G1 X1.2184 Y2.8507
G3 X1.2154 Y2.8521 I-0.0031 J-0.0026
G1 X1.188
G1 X1.1607
G3 X1.1577 Y2.8508 I0.0 J-0.004
G1 X1.1411 Y2.8324
G1 X1.1245 Y2.8141
G3 X1.1235 Y2.8114 I0.003 J-0.0027
G1 Y2.7861
G1 Y2.7609
G3 X1.1248 Y2.7579 I0.004 J0.0
G1 X1.1431 Y2.7413
G1 X1.1615 Y2.7247
G3 X1.1642 Y2.7236 I0.0027 J0.003
G1 X1.1898
G1 X1.2154
G3 X1.2184 Y2.7251 I0.0 J0.004
G1 X1.2309 Y2.7401
G1 X1.2422 Y2.7538
G1 X1.2672
G1 X1.2941
G3 X1.2969 Y2.7549 I0.0 J0.004
G1 X1.309 Y2.767
G1 X1.321 Y2.779
G3 X1.3222 Y2.7819 I-0.0028 J0.0028
G1 Y2.9204
G1 Y3.055
G1 X1.5793
G1 X1.8363
G1 Y2.6122
G1 Y2.1694
G1 X1.7562
G1 X1.6739
G1 X1.6627 Y2.183
G1 X1.6502 Y2.1981
G3 X1.6471 Y2.1995 I-0.0031 J-0.0026
G1 X1.6298
G1 X1.6125
G3 X1.6095 Y2.1982 I0.0 J-0.004
G1 X1.5929 Y2.1798
G1 X1.5763 Y2.1615
G3 X1.5753 Y2.1588 I0.003 J-0.0027
G1 Y2.1436
G1 Y2.1284
G3 X1.5766 Y2.1254 I0.004 J0.0
G1 X1.5949 Y2.1088
G1 X1.6133 Y2.0922
G3 X1.616 Y2.0911 I0.0027 J0.003
G1 X1.6315
G1 X1.6471
G3 X1.6502 Y2.0926 I0.0 J0.004
G1 X1.6627 Y2.1076
G1 X1.6739 Y2.1212
G1 X1.7562
G1 X1.8363
G1 Y1.9937
G1 Y1.8662
G1 X1.7073 Y1.8684
G1 X1.6695 Y1.8689
G1 X1.6317 Y1.8694
G3 X1.5965 Y1.8696 I-0.0576 J-4.8641
G3 X1.5877 Y1.8697 I-0.011 J-1.3635
G3 X1.5745 I-0.011 J-1.6303
G3 X1.5613 I-0.0061 J-2.0192
G1 X1.5488
G1 X1.5301 Y1.8696
G1 X1.5115 Y1.8694
G1 X1.5114
G1 X1.4487 Y1.8682
G3 X1.4447 Y1.8642 I0.0001 J-0.004
G1 Y1.7249
G1 Y1.5874
G1 X1.4311 Y1.5761
G1 X1.4161 Y1.5636
G3 X1.4146 Y1.5605 I0.0026 J-0.0031
G1 Y1.5429
G1 Y1.5253
G3 X1.4161 Y1.5222 I0.004 J0.0
G1 X1.4311 Y1.5097
G1 X1.4447 Y1.4984
G1 Y1.4513
G1 Y1.4024
G3 X1.4487 Y1.3984 I0.004 J0.0
G1 X1.4773
G1 X1.5041
G1 X1.5211 Y1.3796
G1 X1.5392 Y1.3595
G3 X1.5422 Y1.3582 I0.003 J0.0027
G1 X1.5692
G1 X1.5962
G3 X1.5992 Y1.3595 I0.0 J0.004
G1 X1.6158 Y1.3779
G1 X1.6324 Y1.3962
G3 X1.6335 Y1.3989 I-0.003 J0.0027
G1 Y1.4242
G1 Y1.4494
G3 X1.6321 Y1.4524 I-0.004 J0.0
G1 X1.6138 Y1.469
G1 X1.5954 Y1.4856
G3 X1.5927 Y1.4867 I-0.0027 J-0.003
G1 X1.5675
G1 X1.5422
G3 X1.5392 Y1.4854 I0.0 J-0.004
G1 X1.5211 Y1.4653
G2 X1.511 Y1.4554 I-0.2295 J0.224
G2 X1.5067 Y1.4517 I-0.0459 J0.0489
G2 X1.5023 Y1.4488 I-0.0191 J0.0243
G2 X1.4994 Y1.4475 I-0.0122 J0.0234
G3 X1.4993 I0.0014 J-0.0037
G2 X1.4978 Y1.4469 I-0.0087 J0.0209
G1 X1.4967 Y1.4465
G1 X1.4929
G1 Y1.4714
G1 Y1.4984
G1 X1.5065 Y1.5097
G1 X1.5216 Y1.5222
G3 X1.523 Y1.5253 I-0.0026 J0.0031
G1 Y1.5429
G1 Y1.5605
G3 X1.5216 Y1.5636 I-0.004 J0.0
G1 X1.5065 Y1.5761
G1 X1.4929 Y1.5874
G1 Y1.7048
G1 Y1.82
G1 X1.51
G1 X1.5292
G1 X1.5478 Y1.7965
G1 X1.5675 Y1.7714
G3 X1.5707 Y1.7698 I0.0031 J0.0025
G1 X1.5893
G1 X1.6079
G3 X1.6111 Y1.7714 I0.0 J0.004
G1 X1.6308 Y1.7965
G1 X1.6493 Y1.82
G1 X1.7438
G1 X1.8363
G1 Y1.2668
G1 Y0.7136
G1 X1.6903
G1 X1.5425
G1 X1.5375 Y0.7217
G1 X1.5313 Y0.7318
G3 X1.5279 Y0.7337 I-0.0034 J-0.0021
G1 X1.5096
G1 X1.4914
G3 X1.4883 Y0.7322 I0.0 J-0.004
G1 X1.4745 Y0.7156
G1 X1.4607 Y0.699
G3 X1.4598 Y0.6964 I0.0031 J-0.0026
G1 X1.4633 Y0.5671
G1 X1.4668 Y0.4399
G1 X1.4423 Y0.4206
G1 X1.4161 Y0.4
G3 X1.4146 Y0.3969 I0.0025 J-0.0031
G1 Y0.3788
G1 Y0.3607
G3 X1.4161 Y0.3576 I0.004 J0.0
G1 X1.4311 Y0.3451
G1 X1.4447 Y0.3338
G1 Y0.2779
G1 Y0.222
G1 X1.4311 Y0.2107
G1 X1.4161 Y0.1982
G3 X1.4146 Y0.1951 I0.0026 J-0.0031
G1 Y0.1778
G1 Y0.1605
G3 X1.4159 Y0.1575 I0.004 J0.0
G1 X1.4343 Y0.1409
G1 X1.4526 Y0.1243
G3 X1.4553 Y0.1233 I0.0027 J0.003
G1 X1.4706
G1 X1.4858
G3 X1.4887 Y0.1246 I0.0 J0.004
G1 X1.5054 Y0.143
G1 X1.522 Y0.1613
G3 X1.523 Y0.164 I-0.003 J0.0027
G1 Y0.1796
G1 Y0.1951
G3 X1.5216 Y0.1982 I-0.004 J0.0
G1 X1.5065 Y0.2107
G1 X1.4929 Y0.222
G1 Y0.2771
G1 Y0.3324
G1 X1.5043 Y0.3438
G1 X1.5168 Y0.3564
G3 X1.518 Y0.3593 I-0.0028 J0.0028
G1 X1.5144 Y0.49
G1 X1.5109 Y0.6186
G1 X1.5279 Y0.6314
G1 X1.5455 Y0.6447
G1 X1.632 Y0.645
G1 X1.7158 Y0.6453
G1 Y0.6141
G1 Y0.58
G1 X1.7039 Y0.5609
G1 X1.6915 Y0.541
G3 Y0.5367 I0.0034 J-0.0021
G1 X1.7021 Y0.5199
G3 X1.7022 Y0.5197 I0.0034 J0.0021
G3 X1.7032 Y0.5184 I0.0682 J0.049
G3 X1.704 Y0.5172 I0.0399 J0.0285
G3 X1.7047 Y0.5163 I0.0317 J0.0227
G3 X1.7061 Y0.5145 I0.0372 J0.0266
G3 X1.7101 Y0.5094 I0.0907 J0.0685
G3 X1.7205 Y0.4991 I0.0696 J0.0593
G3 X1.7256 Y0.495 I0.0793 J0.094
G1 X1.7281 Y0.4931
G1 X1.7307 Y0.4912
G3 X1.7309 Y0.4911 I0.0024 J0.0032
G1 X1.7478 Y0.4804
G3 X1.7521 I0.0021 J0.0034
G1 X1.769 Y0.4911
G3 X1.7692 Y0.4912 I-0.0021 J0.0034
G3 X1.7705 Y0.4922 I-0.0491 J0.0684
G3 X1.7716 Y0.493 I-0.0286 J0.0401
G3 X1.7726 Y0.4937 I-0.0229 J0.0318
G3 X1.7743 Y0.495 I-0.0267 J0.0374
G3 X1.7794 Y0.4991 I-0.0697 J0.0923
G3 X1.7897 Y0.5094 I-0.0589 J0.0693
G1 X1.7898 Y0.5095
G3 X1.7938 Y0.5145 I-0.0954 J0.0805
G1 X1.7957 Y0.5171
G1 X1.7976 Y0.5196
G3 X1.7978 Y0.5199 I-0.0032 J0.0024
G1 X1.8084 Y0.5367
G3 Y0.541 I-0.0034 J0.0021
G1 X1.7959 Y0.5609
G1 X1.7841 Y0.58
G1 Y0.6141
G1 Y0.6454
G1 X1.8282
G1 X1.8764
G3 X1.8793 Y0.6465 I0.0 J0.004
G1 X1.8913 Y0.6586
G1 X1.9034 Y0.6706
G3 X1.9045 Y0.6735 I-0.0028 J0.0028
G1 Y1.8851
G1 Y3.0967
G3 X1.9031 Y3.0997 I-0.004 J0.0
G1 X1.8894 Y3.1111
G1 X1.8758 Y3.1224
G3 X1.8732 Y3.1233 I-0.0026 J-0.0031
G1 X1.2267 Y3.1208
G1 X0.5803 Y3.1182
G3 X0.5763 Y3.1144 I0.0 J-0.004
G1 X0.5733 Y3.0575
G1 X0.5704 Y3.0023
G1 X0.5572 Y2.9914
G1 X0.5426 Y2.9793
G3 X0.5411 Y2.9762 I0.0026 J-0.0031
G1 Y2.9485
G1 Y2.9209
G3 X0.5426 Y2.9178 I0.004 J0.0
G1 X0.5576 Y2.9053
G1 X0.5713 Y2.894
G1 Y2.8682
G1 Y2.8424
G1 X0.5576 Y2.8311
G1 X0.5426 Y2.8186
G3 X0.5411 Y2.8155 I0.0026 J-0.0031
G1 Y2.7882
G1 Y2.7609
G3 X0.5424 Y2.7579 I0.004 J0.0
G1 X0.5608 Y2.7413
G1 X0.5792 Y2.7247
G3 X0.5814 Y2.7237 I0.0027 J0.003
G0 Z0.125
G0 X0.4916 Y2.804
G0 Z0.0135
G1 F20.0 Z-0.0065
G1 F40.0 X0.5062 Y2.8204
G3 X0.5072 Y2.823 I-0.003 J0.0027
G1 Y2.8883
G1 Y2.9535
G3 X0.5062 Y2.9562 I-0.004 J0.0
G1 X0.4904 Y2.9738
G1 X0.4747 Y2.9913
G3 X0.4717 Y2.9927 I-0.003 J-0.0027
G1 X0.4447
G1 X0.4177
G3 X0.4147 Y2.9913 I0.0 J-0.004
G1 X0.3991 Y2.9738
G1 X0.3835 Y2.9562
G3 X0.3825 Y2.9536 I0.003 J-0.0027
G1 X0.3822 Y2.8867
G1 X0.382 Y2.8198
G3 X0.3833 Y2.8168 I0.004 J0.0
G1 X0.4009 Y2.8008
G1 X0.4185 Y2.7849
G3 X0.4212 Y2.7839 I0.0027 J0.003
G1 X0.4465
G1 X0.4717
G3 X0.4747 Y2.7852 I0.0 J0.004
G1 X0.4904 Y2.8028
G1 X0.4916 Y2.804
G0 Z0.125
G0 X0.3465 Y2.8225
G0 Z0.0135
G1 F20.0 Z-0.0065
G3 F40.0 Y2.823 I-0.004 J0.0005
G1 Y2.8883
G1 Y2.9535
G3 X0.3455 Y2.9562 I-0.004 J0.0
G1 X0.3298 Y2.9738
G1 X0.3141 Y2.9913
G3 X0.3111 Y2.9927 I-0.003 J-0.0027
G1 X0.2841
G1 X0.2571
G3 X0.2541 Y2.9913 I0.0 J-0.004
G1 X0.2385 Y2.9738
G1 X0.2228 Y2.9562
G3 X0.2218 Y2.9536 I0.003 J-0.0027
G1 X0.2216 Y2.8867
G1 X0.2214 Y2.8198
G3 X0.2227 Y2.8168 I0.004 J0.0
G1 X0.2403 Y2.8008
G1 X0.2579 Y2.7849
G3 X0.2606 Y2.7839 I0.0027 J0.003
G1 X0.2858
G1 X0.3111
G3 X0.3141 Y2.7852 I0.0 J0.004
G1 X0.3298 Y2.8028
G1 X0.3455 Y2.8204
G3 X0.3465 Y2.8225 I-0.003 J0.0027
G0 Z0.125
G0 X0.9284 Y2.4137
G0 Z0.0135
G1 F20.0 Z-0.0065
G3 F40.0 X0.9277 Y2.4119 I0.0033 J-0.0023
G1 X0.9246 Y2.3903
G1 X0.9215 Y2.3687
G3 X0.9234 Y2.3647 I0.004 J-0.0006
G1 X0.9315 Y2.3597
G3 X0.9333 Y2.3591 I0.0021 J0.0034
G3 X0.964 Y2.3574 I0.0815 J1.1562
G3 X0.9731 Y2.3571 I0.0178 J0.4203
G1 X0.9811 Y2.3569
G3 X1.0089 Y2.357 I0.0116 J0.9774
G1 X1.0227 Y2.3573
G3 X1.0297 Y2.3574 I-0.0204 J1.0945
G3 X1.0332 Y2.3575 I-0.0035 J0.2324
G2 X1.0366 Y2.3576 I0.0057 J-0.1751
G1 X1.0858 Y2.3586
G1 X1.1351 Y2.3597
G1 X1.3284 Y2.3652
G3 X1.3323 Y2.3692 I-0.0001 J0.004
G1 Y2.458
G1 Y2.5429
G1 X1.519
G1 X1.7058
G1 Y2.4481
G1 Y2.351
G1 X1.688 Y2.3349
G1 X1.6711 Y2.3196
G1 X1.6526 Y2.3312
G1 X1.6315 Y2.3443
G3 X1.6272 I-0.0021 J-0.0034
G1 X1.6104 Y2.3337
G3 X1.6102 Y2.3336 I0.0021 J-0.0034
G3 X1.6089 Y2.3326 I0.0487 J-0.0678
G3 X1.6078 Y2.3318 I0.0284 J-0.0398
G3 X1.6068 Y2.3311 I0.0227 J-0.0317
G3 X1.605 Y2.3298 I0.0266 J-0.0371
G3 X1.6 Y2.3257 I0.0684 J-0.0906
G3 X1.5896 Y2.3153 I0.0593 J-0.0696
G3 X1.5856 Y2.3102 I0.094 J-0.0793
G1 X1.5855
G1 X1.5837 Y2.3077
G1 X1.5836
G1 X1.5818 Y2.3051
G3 X1.5816 Y2.3049 I0.0032 J-0.0024
G1 X1.571 Y2.288
G3 Y2.2837 I0.0034 J-0.0021
G1 X1.5816 Y2.2668
G3 X1.5817 Y2.2666 I0.0034 J0.0021
G3 X1.5827 Y2.2654 I0.0683 J0.0491
G3 X1.5835 Y2.2642 I0.04 J0.0286
G3 X1.5842 Y2.2633 I0.0318 J0.0228
G3 X1.5856 Y2.2615 I0.0374 J0.0267
G3 X1.5896 Y2.2564 I0.0923 J0.0697
G3 X1.6 Y2.2461 I0.0693 J0.0589
G3 X1.6051 Y2.242 I0.0806 J0.0955
G1 X1.6076 Y2.2401
G1 X1.6101 Y2.2382
G3 X1.6104 Y2.2381 I0.0024 J0.0032
G1 X1.6272 Y2.2274
G3 X1.6315 I0.0021 J0.0034
G1 X1.6526 Y2.2406
G1 X1.6711 Y2.2521
G1 X1.6863 Y2.2384
G1 X1.7036 Y2.2227
G3 X1.7063 Y2.2216 I0.0027 J0.003
G1 X1.7316
G1 X1.7569
G3 X1.7598 Y2.223 I0.0 J0.004
G1 X1.7764 Y2.2413
G1 X1.7931 Y2.2597
G3 X1.7941 Y2.2624 I-0.003 J0.0027
G1 Y2.2876
G1 Y2.3129
G3 X1.7928 Y2.3159 I-0.004 J0.0
G1 X1.7727 Y2.334
G1 X1.7539 Y2.351
G1 Y2.4682
G1 Y2.5871
G3 X1.7499 Y2.5911 I-0.004 J0.0
G1 X1.519
G1 X1.2881
G3 X1.2841 Y2.5871 I0.0 J-0.004
G1 Y2.4954
G1 Y2.4077
G1 X1.11 Y2.4115
G1 X0.9318 Y2.4154
G3 X0.9284 Y2.4137 I-0.0001 J-0.004
G0 Z0.125
G0 X0.9315 Y2.315
G0 Z0.0135
G1 F20.0 Z-0.0065
G3 F40.0 X0.9277 Y2.3115 I0.0001 J-0.004
G1 X0.9248 Y2.2911
G1 X0.9218 Y2.2706
G3 X0.923 Y2.2672 I0.004 J-0.0006
G1 X0.9305 Y2.2597
G1 X0.938 Y2.2522
G3 X0.941 Y2.251 I0.0028 J0.0028
G1 X1.0621 Y2.2578
G1 X1.1812 Y2.2644
G1 X1.1935 Y2.2495
G1 X1.2072 Y2.2331
G3 X1.2102 Y2.2317 I0.0031 J0.0026
G1 X1.2279
G1 X1.2455
G3 X1.2486 Y2.2331 I0.0 J0.004
G1 X1.2611 Y2.2482
G1 X1.2723 Y2.2618
G1 X1.3596
G1 X1.4487
G3 X1.4527 Y2.2658 I0.0 J0.004
G1 Y2.3243
G1 Y2.381
G1 X1.4747 Y2.4017
G1 X1.4968 Y2.4224
G1 X1.5106
G1 X1.5242
G1 X1.5411 Y2.4037
G1 X1.5593 Y2.3836
G3 X1.5623 Y2.3823 I0.003 J0.0027
G1 X1.5893
G1 X1.6163
G3 X1.6193 Y2.3836 I0.0 J0.004
G1 X1.6359 Y2.402
G1 X1.6525 Y2.4203
G3 X1.6535 Y2.423 I-0.003 J0.0027
G1 Y2.4483
G1 Y2.4735
G3 X1.6522 Y2.4765 I-0.004 J0.0
G1 X1.6339 Y2.4931
G1 X1.6155 Y2.5097
G3 X1.6128 Y2.5108 I-0.0027 J-0.003
G1 X1.5875
G1 X1.5623
G3 X1.5593 Y2.5094 I0.0 J-0.004
G1 X1.5411 Y2.4894
G1 X1.5242 Y2.4706
G1 X1.509
G1 X1.4938
G1 X1.4768 Y2.4894
G1 X1.4586 Y2.5094
G3 X1.4557 Y2.5108 I-0.003 J-0.0027
G1 X1.4287
G1 X1.4016
G3 X1.3987 Y2.5094 I0.0 J-0.004
G1 X1.3821 Y2.4911
G1 X1.3654 Y2.4727
G3 X1.3644 Y2.47 I0.003 J-0.0027
G1 Y2.4448
G1 Y2.4195
G3 X1.3657 Y2.4165 I0.004 J0.0
G1 X1.3858 Y2.3984
G1 X1.4046 Y2.3814
G1 Y2.3446
G1 Y2.31
G1 X1.3395
G1 X1.2723
G1 X1.2611 Y2.3236
G1 X1.2486 Y2.3386
G3 X1.2455 Y2.3401 I-0.0031 J-0.0026
G1 X1.2279
G1 X1.2102
G3 X1.2072 Y2.3386 I0.0 J-0.004
G1 X1.1938 Y2.3225
G1 X1.1817 Y2.3079
G1 X1.0577 Y2.3114
G1 X0.9318 Y2.315
G3 X0.9315 I-0.0001 J-0.004
G0 Z0.125
G0 X0.9317 Y2.2146
G0 Z0.0135
G1 F20.0 Z-0.0065
G2 F40.0 X0.9318 I0.0 J-0.004
G1 X1.0573 Y2.211
G1 X1.1828 Y2.2074
G2 X1.1848 Y2.2068 I-0.0001 J-0.004
G1 X1.1945 Y2.2008
G1 X1.1961 Y2.2002
G1 X1.198 Y2.1995
G3 X1.2017 Y2.1984 I0.0139 J0.0393
G1 X1.2018
G3 X1.2025 Y2.1982 I0.0026 J0.0095
G2 X1.2027 I-0.0007 J-0.0039
G3 X1.2034 Y2.198 I0.0017 J0.007
G2 X1.2036 I-0.0006 J-0.004
G3 X1.204 Y2.1979 I0.001 J0.0045
G1 X1.2041
G3 X1.2067 Y2.1976 I0.0105 J0.0705
G3 X1.212 Y2.1973 I0.0053 J0.0568
G1 X1.2137
G1 X1.2136
G1 X1.2153 Y2.1974
G1 X1.2186 Y2.1975
G1 X1.2209 Y2.1977
G1 X1.2238 Y2.1979
G1 X1.2451 Y2.2006
G2 X1.2487 Y2.1991 I0.0005 J-0.004
G1 X1.2689 Y2.1735
G1 X1.2879 Y2.1493
G1 X1.3874
G1 X1.4889
G2 X1.4929 Y2.1453 I0.0 J-0.004
G1 Y2.0851
G1 Y2.0288
G1 X1.5379
G1 X1.585
G1 X1.5963 Y2.0425
G1 X1.6088 Y2.0575
G2 X1.6118 Y2.059 I0.0031 J-0.0026
G1 X1.6274
G1 X1.6429
G2 X1.6456 Y2.0579 I0.0 J-0.004
G1 X1.664 Y2.0413
G1 X1.6823 Y2.0247
G2 X1.6837 Y2.0217 I-0.0027 J-0.003
G1 Y2.0065
G1 Y1.9913
G2 X1.6826 Y1.9886 I-0.004 J0.0
G1 X1.666 Y1.9702
G1 X1.6494 Y1.9519
G2 X1.6464 Y1.9506 I-0.003 J0.0027
G1 X1.6291
G1 X1.6118
G2 X1.6088 Y1.952 I0.0 J0.004
G1 X1.5963 Y1.9671
G1 X1.585 Y1.9807
G1 X1.5178
G1 X1.4487
G2 X1.4447 Y1.9847 I0.0 J0.004
G1 Y2.046
G1 Y2.1032
G1 X1.3289 Y2.0997
G1 X1.209 Y2.0961
G2 X1.2061 Y2.0973 I-0.0001 J0.004
G1 X1.1712 Y2.1311
G1 X1.1375 Y2.1638
G1 X1.0437 Y2.1567
G1 X0.948 Y2.1496
G2 X0.9456 Y2.1502 I-0.0003 J0.004
G1 X0.9345 Y2.157
G1 X0.9234 Y2.1639
G2 X0.9215 Y2.1679 I0.0021 J0.0034
G1 X0.9246 Y2.1895
G1 X0.9277 Y2.2111
G2 X0.9317 Y2.2146 I0.004 J-0.0006
G0 Z0.125
G0 X1.0619 Y2.4631
G0 Z0.0135
G1 F20.0 Z-0.0065
G3 F40.0 X1.0638 Y2.4626 I0.0019 J0.0035
G1 X1.0886
G1 X1.1134
G3 X1.1162 Y2.4638 I0.0 J0.004
G1 X1.1283 Y2.4758
G1 X1.1375 Y2.485
G1 X1.1467 Y2.4758
G1 X1.1588 Y2.4638
G3 X1.1616 Y2.4626 I0.0028 J0.0028
G1 X1.1881
G1 X1.2147
G3 X1.2177 Y2.4639 I0.0 J0.004
G1 X1.2343 Y2.4823
G1 X1.2509 Y2.5006
G3 X1.2519 Y2.5033 I-0.003 J0.0027
G1 Y2.5286
G1 Y2.5538
G3 X1.2506 Y2.5568 I-0.004 J0.0
G1 X1.2323 Y2.5734
G1 X1.2139 Y2.59
G3 X1.2112 Y2.5911 I-0.0027 J-0.003
G1 X1.1864
G1 X1.1616
G3 X1.1588 Y2.5899 I0.0 J-0.004
G1 X1.1467 Y2.5779
G1 X1.1375 Y2.5686
G1 X1.1283 Y2.5779
G1 X1.1162 Y2.5899
G3 X1.1134 Y2.5911 I-0.0028 J-0.0028
G1 X1.0868
G1 X1.0603
G3 X1.0573 Y2.5898 I0.0 J-0.004
G1 X1.0407 Y2.5714
G1 X1.0241 Y2.553
G3 X1.0231 Y2.5504 I0.003 J-0.0027
G1 Y2.5251
G1 Y2.4998
G3 X1.0244 Y2.4969 I0.004 J0.0
G1 X1.0427 Y2.4803
G1 X1.0611 Y2.4636
G3 X1.0619 Y2.4631 I0.0027 J0.003
G0 Z0.125
G0 X1.3754 Y2.8094
G0 Z0.0135
G1 F20.0 Z-0.0065
G1 F40.0 X1.3848 Y2.8008
G1 X1.4024 Y2.7849
G3 X1.4051 Y2.7839 I0.0027 J0.003
G1 X1.4304
G1 X1.4557
G3 X1.4586 Y2.7852 I0.0 J0.004
G1 X1.4744 Y2.8028
G1 X1.4901 Y2.8204
G3 X1.4911 Y2.823 I-0.003 J0.0027
G1 Y2.8883
G1 Y2.9535
G3 X1.4901 Y2.9562 I-0.004 J0.0
G1 X1.4744 Y2.9738
G1 X1.4586 Y2.9913
G3 X1.4557 Y2.9927 I-0.003 J-0.0027
G1 X1.4287
G1 X1.4016
G3 X1.3987 Y2.9913 I0.0 J-0.004
G1 X1.383 Y2.9738
G1 X1.3674 Y2.9562
G3 X1.3664 Y2.9536 I0.003 J-0.0027
G1 X1.3662 Y2.8867
G1 X1.3659 Y2.8198
G3 X1.3672 Y2.8168 I0.004 J0.0
G1 X1.3754 Y2.8094
G0 Z0.125
G0 X1.5266 Y2.8195
G0 Z0.0135
G1 F20.0 Z-0.0065
G3 F40.0 X1.5279 Y2.8168 I0.004 J0.0003
G1 X1.5455 Y2.8008
G1 X1.5631 Y2.7849
G3 X1.5658 Y2.7839 I0.0027 J0.003
G1 X1.591
G1 X1.6163
G3 X1.6193 Y2.7852 I0.0 J0.004
G1 X1.635 Y2.8028
G1 X1.6507 Y2.8204
G3 X1.6517 Y2.823 I-0.003 J0.0027
G1 Y2.8883
G1 Y2.9535
G3 X1.6507 Y2.9562 I-0.004 J0.0
G1 X1.635 Y2.9738
G1 X1.6193 Y2.9913
G3 X1.6163 Y2.9927 I-0.003 J-0.0027
G1 X1.5893
G1 X1.5623
G3 X1.5593 Y2.9913 I0.0 J-0.004
G1 X1.5437 Y2.9738
G1 X1.528 Y2.9562
G3 X1.527 Y2.9536 I0.003 J-0.0027
G1 X1.5268 Y2.8867
G1 X1.5266 Y2.8198
G3 Y2.8195 I0.004 J0.0
G0 Z0.125
G0 X1.212 Y1.863
G0 Z0.0135
G1 F20.0 Z-0.0065
G3 F40.0 X1.2109 Y1.8632 I-0.0012 J-0.0038
G1 X1.1517 Y1.8662
G1 X1.094 Y1.8692
G1 X1.0688 Y1.8933
G1 X1.0426 Y1.9184
G3 X1.0396 Y1.9195 I-0.0028 J-0.0029
G1 X0.9855 Y1.9165
G1 X0.9314 Y1.9134
G3 X0.9277 Y1.9099 I0.0002 J-0.004
G1 X0.9248 Y1.8895
G1 X0.9218 Y1.869
G3 X0.923 Y1.8656 I0.004 J-0.0006
G1 X0.9301 Y1.8584
G1 X0.9372 Y1.8513
G3 X0.94 Y1.8502 I0.0028 J0.0028
G1 X0.9916
G1 X1.0415
G1 X1.0748 Y1.8158
G1 X1.1093 Y1.7802
G3 X1.1124 Y1.779 I0.0029 J0.0028
G1 X1.1617 Y1.782
G1 X1.211 Y1.7849
G3 X1.2141 Y1.7868 I-0.0002 J0.004
G1 X1.2251 Y1.8043
G1 X1.2362 Y1.8219
G3 Y1.8262 I-0.0034 J0.0021
G1 X1.2251 Y1.8437
G1 X1.2141 Y1.8613
G3 X1.212 Y1.863 I-0.0034 J-0.0021
G0 Z0.125
G0 X1.1524 Y1.7622
G0 Z0.0135
G1 F20.0 Z-0.0065
G2 F40.0 X1.1539 Y1.7607 I-0.002 J-0.0034
G1 X1.1649 Y1.7412
G1 X1.1672 Y1.7378
G1 X1.1696 Y1.7343
G1 X1.1712 Y1.732
G3 X1.1734 Y1.7291 I0.094 J0.0672
G3 X1.1851 Y1.7157 I0.111 J0.0856
G1 X1.1869 Y1.7139
G1 Y1.714
G1 X1.1886 Y1.7122
G3 X1.1922 Y1.7089 I0.2443 J0.2563
G3 X1.1946 Y1.7067 I0.0885 J0.094
G1 X1.1947 Y1.7066
G3 X1.1978 Y1.7038 I0.1431 J0.1542
G1 X1.2204 Y1.6851
G2 X1.2218 Y1.682 I-0.0026 J-0.0031
G1 Y1.666
G1 Y1.6499
G2 X1.2208 Y1.6472 I-0.004 J0.0
G1 X1.2042 Y1.6289
G1 X1.1875 Y1.6105
G2 X1.1846 Y1.6092 I-0.003 J0.0027
G1 X1.1673
G1 X1.15
G2 X1.1469 Y1.6106 I0.0 J0.004
G1 X1.1344 Y1.6257
G1 X1.1231 Y1.6393
G1 X1.085
G1 X1.0469
G1 X1.0284 Y1.6157
G1 X1.0087 Y1.5906
G2 X1.0055 Y1.5891 I-0.0031 J0.0025
G1 X0.9895
G1 X0.9734
G2 X0.9707 Y1.5902 I0.0 J0.004
G1 X0.9524 Y1.6068
G1 X0.934 Y1.6234
G2 X0.9327 Y1.6264 I0.0027 J0.003
G1 Y1.6436
G1 Y1.6609
G2 X0.9341 Y1.664 I0.004 J0.0
G1 X0.9492 Y1.6765
G1 X0.9628 Y1.6878
G1 Y1.7187
G1 Y1.7483
G1 X0.9449 Y1.753
G1 X0.9241 Y1.7585
G2 X0.9211 Y1.7629 I0.001 J0.0039
G1 X0.9244 Y1.7862
G1 X0.9277 Y1.8095
G2 X0.9317 Y1.813 I0.004 J-0.0006
G1 X0.9869
G1 X1.0421
G2 X1.0461 Y1.8095 I0.0 J-0.004
G1 X1.0494 Y1.7862
G1 X1.0527 Y1.7629
G2 X1.0497 Y1.7585 I-0.004 J-0.0006
G1 X1.0289 Y1.753
G1 X1.011 Y1.7483
G1 Y1.7174
G1 Y1.6875
G1 X1.0471
G1 X1.0833
G1 Y1.7124
G1 Y1.7413
G2 X1.0847 Y1.7443 I0.004 J0.0
G1 X1.0993 Y1.7564
G1 X1.1139 Y1.7685
G2 X1.1172 Y1.7694 I0.0026 J-0.0031
G1 X1.1342 Y1.766
G1 X1.1512 Y1.7627
G2 X1.1524 Y1.7622 I-0.0008 J-0.0039
G0 Z0.125
G0 X1.5251 Y1.6877
G0 Z0.0135
G1 F20.0 Z-0.0065
G3 F40.0 Y1.6869 I0.0039 J-0.0008
G1 Y1.6617
G1 Y1.6364
G3 X1.5264 Y1.6334 I0.004 J0.0
G1 X1.5464 Y1.6153
G1 X1.5652 Y1.5983
G1 Y1.5781
G1 Y1.5561
G3 X1.5665 Y1.5531 I0.004 J0.0
G1 X1.5849 Y1.5365
G1 X1.6032 Y1.5199
G3 X1.6059 Y1.5188 I0.0027 J0.003
G1 X1.6312
G1 X1.6565
G3 X1.6594 Y1.5202 I0.0 J0.004
G1 X1.676 Y1.5385
G1 X1.6927 Y1.5569
G3 X1.6937 Y1.5596 I-0.003 J0.0027
G1 Y1.5848
G1 Y1.6101
G3 X1.6924 Y1.6131 I-0.004 J0.0
G1 X1.6723 Y1.6312
G1 X1.6535 Y1.6482
G1 Y1.6684
G1 Y1.6904
G3 X1.6522 Y1.6934 I-0.004 J0.0
G1 X1.6339 Y1.71
G1 X1.6155 Y1.7266
G3 X1.6128 Y1.7276 I-0.0027 J-0.003
G1 X1.5875
G1 X1.5623
G3 X1.5593 Y1.7263 I0.0 J-0.004
G1 X1.5427 Y1.708
G1 X1.5261 Y1.6896
G3 X1.5251 Y1.6877 I0.003 J-0.0027
G0 Z0.125
G0 X1.6656 Y1.6964
G0 Z0.0135
G1 F20.0 Z-0.0065
G3 F40.0 X1.6669 Y1.6937 I0.004 J0.0002
G1 X1.6853 Y1.6771
G3 X1.6855 Y1.6769 I0.0027 J0.003
G1 X1.6881 Y1.6748
G3 X1.6923 Y1.6715 I0.0851 J0.104
G1 X1.6943 Y1.6699
G1 X1.6944
G1 X1.6954 Y1.6692
G1 X1.6955 Y1.6691
G1 X1.6965 Y1.6684
G3 X1.702 Y1.6649 I0.0412 J0.0586
G3 X1.7083 Y1.6619 I0.0199 J0.0341
G3 X1.7129 Y1.6605 I0.014 J0.0375
G1 X1.7139 Y1.6602
G1 X1.714
G1 X1.7172 Y1.6595
G3 X1.7181 Y1.6594 I0.0009 J0.0039
G1 X1.7259
G1 Y1.5386
G1 Y1.4173
G1 X1.7018 Y1.4145
G1 X1.6742 Y1.4114
G3 X1.6707 Y1.4079 I0.0005 J-0.004
G1 X1.6677 Y1.3875
G1 X1.6648 Y1.367
G3 X1.6659 Y1.3636 I0.004 J-0.0006
G1 X1.6731 Y1.3564
G1 X1.6802 Y1.3493
G3 X1.683 Y1.3482 I0.0028 J0.0028
G1 X1.7318
G1 X1.7807
G3 X1.7844 Y1.3507 I0.0 J0.004
G1 X1.7907 Y1.3671
G1 X1.797 Y1.3835
G3 X1.7967 Y1.3871 I-0.0037 J0.0014
G1 X1.785 Y1.4057
G1 X1.774 Y1.4233
G1 Y1.5522
G1 Y1.6801
G1 X1.7822 Y1.6851
G1 X1.7922 Y1.6913
G3 X1.7941 Y1.6947 I-0.0021 J0.0034
G1 Y1.7227
G1 Y1.7506
G3 X1.7928 Y1.7536 I-0.004 J0.0
G1 X1.7744 Y1.7702
G1 X1.7561 Y1.7868
G3 X1.7534 Y1.7879 I-0.0027 J-0.003
G1 X1.7281
G1 X1.7028
G3 X1.6999 Y1.7866 I0.0 J-0.004
G1 X1.6833 Y1.7682
G1 X1.6666 Y1.7498
G3 X1.6656 Y1.7472 I0.003 J-0.0027
G1 Y1.7219
G1 Y1.6966
G3 Y1.6964 I0.004 J0.0
G0 Z0.125
G0 X1.6929 Y1.3122
G0 Z0.0135
G1 F20.0 Z-0.0065
G1 F40.0 X1.6705 Y1.3106
G1 X1.5689 Y1.3034
G3 X1.5652 Y1.2994 I0.0003 J-0.004
G1 Y1.1902
G1 Y1.0851
G1 X1.5403
G1 X1.5133
G1 X1.502 Y1.0987
G1 X1.4895 Y1.1138
G3 X1.4864 Y1.1152 I-0.0031 J-0.0026
G1 X1.4691
G1 X1.4518
G3 X1.4489 Y1.1139 I0.0 J-0.004
G1 X1.4323 Y1.0955
G1 X1.4156 Y1.0772
G3 X1.4146 Y1.0745 I0.003 J-0.0027
G1 Y1.0593
G1 Y1.044
G3 X1.4159 Y1.0411 I0.004 J0.0
G1 X1.4343 Y1.0245
G1 X1.4526 Y1.0078
G3 X1.4553 Y1.0068 I0.0027 J0.003
G1 X1.4709
G1 X1.4864
G3 X1.4895 Y1.0082 I0.0 J0.004
G1 X1.502 Y1.0233
G1 X1.5133 Y1.0369
G1 X1.5604
G1 X1.6094
G3 X1.6134 Y1.0409 I0.0 J0.004
G1 Y1.1514
G1 Y1.2577
G1 X1.6968 Y1.2553
G1 X1.7843 Y1.2528
G3 X1.7883 Y1.256 I0.0001 J0.004
G1 X1.7921 Y1.2746
G1 X1.7959 Y1.2933
G3 X1.7948 Y1.2969 I-0.0039 J0.0008
G1 X1.7849 Y1.3067
G1 X1.7751 Y1.3166
G3 X1.772 Y1.3178 I-0.0028 J-0.0028
G1 X1.6929 Y1.3122
G0 Z0.125
G0 X1.6986 Y1.212
G0 Z0.0135
G1 F20.0 Z-0.0065
G1 F40.0 X1.6744 Y1.2106
G3 X1.6707 Y1.2071 I0.0002 J-0.004
G1 X1.6677 Y1.1867
G1 X1.6648 Y1.1662
G3 X1.6659 Y1.1628 I0.004 J-0.0006
G1 X1.6731 Y1.1556
G3 X1.6738 Y1.1551 I0.0028 J0.0028
G3 X1.6747 Y1.1545 I0.0122 J0.0196
G3 X1.6811 Y1.1512 I0.0273 J0.0448
G3 X1.6812 I0.0016 J0.0037
G3 X1.6872 Y1.1493 I0.014 J0.0351
G3 X1.6902 Y1.1488 I0.0098 J0.0437
G3 X1.6916 Y1.1486 I0.0235 J0.1527
G3 X1.6924 Y1.1485 I0.0024 J0.0143
G3 X1.6932 Y1.1484 I0.0019 J0.0118
G3 X1.6997 Y1.1478 I0.0141 J0.116
G3 X1.7006 Y1.1477 I0.0016 J0.0173
G1 X1.7062 Y1.1474
G3 X1.7064 I0.0002 J0.004
G1 X1.7259
G1 Y1.0672
G1 Y0.985
G1 X1.7122 Y0.9737
G1 X1.6972 Y0.9612
G3 X1.6957 Y0.9581 I0.0026 J-0.0031
G1 Y0.9408
G1 Y0.9236
G3 X1.697 Y0.9206 I0.004 J0.0
G1 X1.7154 Y0.904
G1 X1.7338 Y0.8874
G3 X1.7365 Y0.8863 I0.0027 J0.003
G1 X1.7517
G1 X1.7669
G3 X1.7699 Y0.8876 I0.0 J0.004
G1 X1.7865 Y0.906
G1 X1.8031 Y0.9244
G3 X1.8041 Y0.927 I-0.003 J0.0027
G1 Y0.9426
G1 Y0.9581
G3 X1.8027 Y0.9612 I-0.004 J0.0
G1 X1.7876 Y0.9737
G1 X1.774 Y0.985
G1 Y1.0624
G1 Y1.1404
G1 X1.785 Y1.1581
G1 X1.7967 Y1.1767
G3 X1.797 Y1.1803 I-0.0034 J0.0021
G1 X1.7905 Y1.1972
G1 X1.784 Y1.2141
G3 X1.78 Y1.2167 I-0.0037 J-0.0014
G1 X1.7272 Y1.2136
G1 X1.6986 Y1.212
G0 Z0.125
G0 X1.6503 Y0.9645
G0 Z0.0135
G1 F20.0 Z-0.0065
G3 F40.0 X1.6495 Y0.9646 I-0.0008 J-0.0039
G1 X1.5303
G1 X1.4129
G1 X1.4016 Y0.9782
G1 X1.3891 Y0.9933
G3 X1.386 Y0.9947 I-0.0031 J-0.0026
G1 X1.3687
G1 X1.3514
G3 X1.3485 Y0.9934 I0.0 J-0.004
G1 X1.3319 Y0.975
G1 X1.3152 Y0.9567
G3 X1.3142 Y0.954 I0.003 J-0.0027
G1 Y0.9379
G1 Y0.9219
G3 X1.3157 Y0.9188 I0.004 J0.0
G1 X1.3408 Y0.899
G1 X1.3644 Y0.8805
G1 Y0.6996
G1 Y0.5187
G1 X1.3421 Y0.5011
G1 X1.3182 Y0.4823
G3 X1.3167 Y0.479 I0.0025 J-0.0031
G1 X1.3217 Y0.3906
G1 X1.3267 Y0.3043
G1 X1.3119 Y0.292
G1 X1.2956 Y0.2785
G3 X1.2941 Y0.2754 I0.0026 J-0.0031
G1 Y0.2581
G1 Y0.2408
G3 X1.2954 Y0.2379 I0.004 J0.0
G1 X1.3138 Y0.2213
G1 X1.3322 Y0.2046
G3 X1.3349 Y0.2036 I0.0027 J0.003
G1 X1.3501
G1 X1.3653
G3 X1.3683 Y0.2049 I0.0 J0.004
G1 X1.3849 Y0.2233
G1 X1.4015 Y0.2416
G3 X1.4025 Y0.2443 I-0.003 J0.0027
G1 Y0.2599
G1 Y0.2754
G3 X1.4011 Y0.2785 I-0.004 J0.0
G1 X1.386 Y0.291
G1 X1.3724 Y0.3023
G1 Y0.3503
G1 Y0.3983
G1 X1.3927 Y0.4147
G1 X1.4144 Y0.4322
G3 X1.4159 Y0.4354 I-0.0025 J0.0031
G1 X1.4135 Y0.6779
G1 X1.4111 Y0.9164
G1 X1.5082
G1 X1.6054
G1 Y0.8915
G1 Y0.8645
G1 X1.5918 Y0.8532
G1 X1.5767 Y0.8407
G3 X1.5753 Y0.8377 I0.0026 J-0.0031
G1 Y0.8204
G1 Y0.8031
G3 X1.5766 Y0.8001 I0.004 J0.0
G1 X1.5949 Y0.7835
G1 X1.6133 Y0.7669
G3 X1.616 Y0.7658 I0.0027 J0.003
G1 X1.6312
G1 X1.6464
G3 X1.6494 Y0.7672 I0.0 J0.004
G1 X1.666 Y0.7855
G1 X1.6826 Y0.8039
G3 X1.6837 Y0.8066 I-0.003 J0.0027
G1 Y0.8221
G1 Y0.8377
G3 X1.6822 Y0.8407 I-0.004 J0.0
G1 X1.6671 Y0.8532
G1 X1.6535 Y0.8645
G1 Y0.9116
G1 Y0.9606
G3 X1.6503 Y0.9645 I-0.004 J0.0
G0 Z0.125
G0 X1.2437 Y0.4116
G0 Z0.0135
G1 F20.0 Z-0.0065
G3 F40.0 X1.2413 Y0.4124 I-0.0024 J-0.0032
G1 X1.2258
G1 X1.2102
G3 X1.2072 Y0.411 I0.0 J-0.004
G1 X1.1936 Y0.3946
G1 X1.1813 Y0.3799
G1 X1.106 Y0.385
G1 X1.0286 Y0.3903
G3 X1.0254 Y0.389 I-0.0003 J-0.004
G1 X1.0097 Y0.3716
G3 X1.0095 Y0.3714 I0.003 J-0.0027
G3 X1.0074 Y0.3688 I0.2058 J-0.1623
G1 Y0.3687
G1 X1.0059 Y0.3667
G3 X1.0014 Y0.3603 I0.0707 J-0.0543
G3 X0.9979 Y0.3542 I0.0517 J-0.0332
G3 X0.9953 Y0.3476 I0.0411 J-0.0204
G3 X0.9939 Y0.3422 I0.0497 J-0.0153
G1 X0.9937 Y0.3409
G1 X0.9936
G1 X0.993 Y0.3371
G3 X0.9929 Y0.3364 I0.0039 J-0.0007
G1 Y0.3212
G3 X0.9942 Y0.3182 I0.004 J0.0
G1 X1.0126 Y0.3016
G1 X1.031 Y0.285
G3 X1.0337 Y0.2839 I0.0027 J0.003
G1 X1.0497
G1 X1.0658
G3 X1.0689 Y0.2854 I0.0 J0.004
G1 X1.0886 Y0.3105
G1 X1.1072 Y0.3341
G1 X1.1452
G1 X1.1834
G1 X1.1947 Y0.3205
G1 X1.2072 Y0.3054
G3 X1.2102 Y0.304 I0.0031 J0.0026
G1 X1.2275
G1 X1.2448
G3 X1.2478 Y0.3053 I0.0 J0.004
G1 X1.2644 Y0.3237
G1 X1.281 Y0.342
G3 X1.2821 Y0.3447 I-0.003 J0.0027
G1 Y0.3599
G1 Y0.3752
G3 X1.2807 Y0.3781 I-0.004 J0.0
G1 X1.2624 Y0.3948
G1 X1.244 Y0.4114
G3 X1.2437 Y0.4116 I-0.0027 J-0.003
G0 Z0.125
G0 X1.2414 Y0.2317
G0 Z0.0135
G1 F20.0 Z-0.0065
G1 F40.0 X1.2413
G1 X1.2258
G1 X1.2102
G3 X1.2072 Y0.2302 I0.0 J-0.004
G1 X1.1947 Y0.2152
G1 X1.1834 Y0.2016
G1 X1.1375
G1 X1.0916
G1 X1.0803 Y0.2152
G1 X1.0678 Y0.2302
G3 X1.0648 Y0.2317 I-0.0031 J-0.0026
G1 X1.0475
G1 X1.0302
G3 X1.0272 Y0.2304 I0.0 J-0.004
G1 X1.0106 Y0.212
G1 X0.994 Y0.1936
G3 X0.9929 Y0.191 I0.003 J-0.0027
G1 Y0.1757
G1 Y0.1605
G3 X0.9942 Y0.1575 I0.004 J0.0
G1 X1.0126 Y0.1409
G1 X1.031 Y0.1243
G3 X1.0337 Y0.1233 I0.0027 J0.003
G1 X1.0492
G1 X1.0648
G3 X1.0678 Y0.1247 I0.0 J0.004
G1 X1.0803 Y0.1398
G1 X1.0916 Y0.1534
G1 X1.1375
G1 X1.1834
G1 X1.1947 Y0.1398
G1 X1.2072 Y0.1247
G3 X1.2102 Y0.1233 I0.0031 J0.0026
G1 X1.2275
G1 X1.2448
G3 X1.2478 Y0.1246 I0.0 J0.004
G1 X1.2644 Y0.143
G1 X1.281 Y0.1613
G3 X1.2821 Y0.164 I-0.003 J0.0027
G1 Y0.1792
G1 Y0.1944
G3 X1.2807 Y0.1974 I-0.004 J0.0
G1 X1.2624 Y0.214
G1 X1.244 Y0.2306
G3 X1.2414 Y0.2317 I-0.0027 J-0.003
G0 Z0.125
M5
M30
