( Made using CamBam - http://www.cambam.co.uk )
( statevariablepcb.gif 12/27/2014 2:04:08 PM )
( T1 : 0.04 )
( T2 : 0.031 )
( T3 : 0.0039 )
G20 G90 G64 G40
G0 Z0.125
( T1 : 0.04 )
T1 M6
( Drill1 )
G17
M3 S1000
G0 X1.5894 Y2.9298
G98
G81 X1.5894 Y2.9298 Z-0.075 R0.125 F20.0
G81 X1.4291 Y2.9275 Z-0.075
G81 X1.145 Y2.9481 Z-0.075
G81 X0.987 Y2.9504 Z-0.075
G81 X0.8037 Y2.9481 Z-0.075
G81 X0.6045 Z-0.075
G81 X0.4464 Y2.9298 Z-0.075
G81 X0.2861 Z-0.075
G81 X1.1886 Y2.529 Z-0.075
G81 X1.6306 Y1.583 Z-0.075
G81 X0.6846 Y1.3242 Z-0.075
G81 X0.2861 Y1.4226 Z-0.075
G81 X0.2632 Y0.156 Z-0.075
G80
( Drill2 )
G0 Z0.125
( T2 : 0.031 )
T2 M6
M3 S1000
G0 X0.2838 Y2.8473
G98
G81 X0.2838 Y2.8473 Z-0.075 R0.125 F20.0
G81 X0.4464 Z-0.075
G81 X0.6045 Y2.7855 Z-0.075
G81 X0.8037 Y2.7878 Z-0.075
G81 X0.987 Z-0.075
G81 X1.1863 Z-0.075
G81 X1.4291 Y2.8473 Z-0.075
G81 X1.5894 Z-0.075
G81 Y2.4465 Z-0.075
G81 X1.4291 Z-0.075
G81 X1.6283 Y2.2862 Z-0.075
G81 X1.7314 Z-0.075
G81 X1.6306 Y2.1465 Z-0.075
G81 X1.6283 Y2.0067 Z-0.075
G81 X1.5894 Y1.8235 Z-0.075
G81 X1.5917 Y1.6632 Z-0.075
G81 X1.7314 Y1.725 Z-0.075
G81 X1.4703 Y1.544 Z-0.075
G81 X1.5688 Y1.4249 Z-0.075
G81 X1.7291 Y1.3837 Z-0.075
G81 X1.7268 Y1.2829 Z-0.075
G81 Y1.1821 Z-0.075
G81 X1.7497 Y0.9416 Z-0.075
G81 X1.6306 Y0.8202 Z-0.075
G81 X1.5092 Y0.6782 Z-0.075
G81 X1.3695 Y0.4583 Z-0.075
G81 X1.468 Y0.3782 Z-0.075
G81 X1.6306 Y0.4194 Z-0.075
G81 X1.7497 Y0.5385 Z-0.075
G81 X1.4703 Y0.1789 Z-0.075
G81 X1.3489 Y0.2591 Z-0.075
G81 X1.2298 Y0.1766 Z-0.075
G81 Y0.3576 Z-0.075
G81 X1.0488 Y0.3392 Z-0.075
G81 X0.9893 Y0.4812 Z-0.075
G81 X0.987 Y0.5797 Z-0.075
G81 X0.9847 Y0.6805 Z-0.075
G81 Y0.779 Z-0.075
G81 X0.987 Y0.8798 Z-0.075
G81 Y0.9806 Z-0.075
G81 Y1.0814 Z-0.075
G81 Y1.1821 Z-0.075
G81 X1.0878 Y1.4226 Z-0.075
G81 X1.1656 Z-0.075
G81 X1.2687 Y1.5418 Z-0.075
G81 X1.1679 Y1.6632 Z-0.075
G81 X1.1267 Y1.725 Z-0.075
G81 Y1.8258 Z-0.075
G81 X1.1886 Z-0.075
G81 X1.2275 Y2.0067 Z-0.075
G81 Y2.1442 Z-0.075
G81 Y2.2862 Z-0.075
G81 X0.9824 Y2.2839 Z-0.075
G81 X0.9847 Y2.3847 Z-0.075
G81 X1.0878 Y2.5267 Z-0.075
G81 X0.9847 Y2.1831 Z-0.075
G81 Y2.0846 Z-0.075
G81 X0.987 Y1.9838 Z-0.075
G81 X0.9847 Y1.883 Z-0.075
G81 Y1.7845 Z-0.075
G81 Y1.6448 Z-0.075
G81 X0.6846 Y1.5051 Z-0.075
G81 Y1.4226 Z-0.075
G81 Y1.1821 Z-0.075
G81 Y1.0814 Z-0.075
G81 Y0.9806 Z-0.075
G81 Y0.8821 Z-0.075
G81 Y0.779 Z-0.075
G81 Y0.6828 Z-0.075
G81 X0.6823 Y0.5774 Z-0.075
G81 X0.6846 Y0.4812 Z-0.075
G81 X0.6457 Y0.3369 Z-0.075
G81 Y0.1766 Z-0.075
G81 X0.4052 Y0.3782 Z-0.075
G81 X0.2609 Y0.2591 Z-0.075
G81 Y0.6599 Z-0.075
G81 X0.4029 Y0.779 Z-0.075
G81 Y0.9393 Z-0.075
G81 X0.4052 Y1.1203 Z-0.075
G81 X0.2861 Y1.5051 Z-0.075
G81 X0.3434 Y1.6448 Z-0.075
G81 Y1.7639 Z-0.075
G81 X0.1418 Z-0.075
G81 X0.1441 Y2.1648 Z-0.075
G81 X0.1647 Y2.2885 Z-0.075
G81 X0.2861 Y2.4465 Z-0.075
G81 X0.4441 Z-0.075
G81 X0.5655 Y2.2862 Z-0.075
G81 X0.6869 Y2.2885 Z-0.075
G81 Y2.387 Z-0.075
G81 Y2.5267 Z-0.075
G81 Y2.1877 Z-0.075
G81 Y2.0869 Z-0.075
G81 Y1.9861 Z-0.075
G81 Y1.8853 Z-0.075
G81 X0.6846 Y1.7868 Z-0.075
G81 X0.5449 Y1.7433 Z-0.075
G81 Y1.8464 Z-0.075
G81 Y1.9059 Z-0.075
G81 Y2.0846 Z-0.075
G81 X0.3434 Y2.1648 Z-0.075
G81 X1.3672 Y1.1821 Z-0.075
G81 X1.4657 Y1.0607 Z-0.075
G81 X1.3695 Y0.9416 Z-0.075
G81 X1.2092 Y0.6782 Z-0.075
G81 X1.0488 Y0.1789 Z-0.075
G80
( Engrave1 )
G0 Z0.125
( T3 : 0.0039 )
T3 M6
M3 S1000
G0 X0.9568 Y0.0148
G0 Z0.0735
G1 F20.0 Z-0.004
G1 F40.0 X1.8905
G3 X1.8925 Y0.0168 I0.0 J0.002
G1 Y0.2277
G1 Y0.4385
G3 X1.8905 Y0.4405 I-0.002 J0.0
G1 X1.7813
G1 X1.673
G1 X1.6611 Y0.4549
G1 X1.6486 Y0.4699
G3 X1.6471 Y0.4706 I-0.0015 J-0.0013
G1 X1.6298
G1 X1.6125
G3 X1.611 Y0.47 I0.0 J-0.002
G1 X1.5944 Y0.4516
G1 X1.5778 Y0.4333
G3 X1.5773 Y0.4319 I0.0015 J-0.0013
G1 Y0.4167
G1 Y0.4015
G3 X1.5779 Y0.4 I0.002 J0.0
G1 X1.5963 Y0.3834
G1 X1.6146 Y0.3668
G3 X1.616 Y0.3662 I0.0013 J0.0015
G1 X1.6315
G1 X1.6471
G3 X1.6486 Y0.367 I0.0 J0.002
G1 X1.6611 Y0.382
G1 X1.673 Y0.3964
G1 X1.7612
G1 X1.8483
G1 Y0.2277
G1 Y0.059
G1 X0.9568
G1 X0.0652
G1 Y1.3522
G1 Y2.6453
G1 X0.4247
G1 X0.7841
G1 Y2.3769
G1 Y2.1086
G1 X0.7083 Y2.1103
G1 X0.6305 Y2.1122
G3 X0.6285 Y2.1102 I0.0 J-0.002
G1 Y2.0851
G1 Y2.06
G3 X0.6305 Y2.058 I0.002 J0.0
G1 X0.7083 Y2.0598
G1 X0.7841 Y2.0616
G1 Y1.5329
G1 Y1.0042
G1 X0.7087 Y1.0059
G1 X0.6312 Y1.0078
G3 X0.6292 Y1.0062 I0.0 J-0.002
G1 X0.6254 Y0.9875
G1 X0.6216 Y0.9689
G3 X0.6222 Y0.9671 I0.002 J-0.0004
G1 X0.6323 Y0.957
G1 X0.6424 Y0.9469
G3 X0.6439 Y0.9463 I0.0014 J0.0014
G1 X0.7352 Y0.9535
G1 X0.8264 Y0.9607
G3 X0.8283 Y0.9627 I-0.0002 J0.002
G1 Y1.8436
G1 Y2.7236
G1 X0.8477 Y2.7412
G1 X0.8678 Y2.7594
G3 X0.8684 Y2.7609 I-0.0013 J0.0015
G1 Y2.7879
G1 Y2.8149
G3 X0.8678 Y2.8164 I-0.002 J0.0
G1 X0.8477 Y2.8345
G1 X0.8283 Y2.8521
G1 Y2.8682
G1 Y2.8843
G1 X0.8477 Y2.9019
G1 X0.8678 Y2.92
G3 X0.8684 Y2.9215 I-0.0013 J0.0015
G1 Y2.9485
G1 Y2.9755
G3 X0.8678 Y2.977 I-0.002 J0.0
G1 X0.8494 Y2.9936
G1 X0.831 Y3.0102
G3 X0.8297 Y3.0108 I-0.0013 J-0.0015
G1 X0.8044
G1 X0.7792
G3 X0.7777 Y3.0101 I0.0 J-0.002
G1 X0.7611 Y2.9917
G1 X0.7444 Y2.9734
G3 X0.7439 Y2.972 I0.0015 J-0.0013
G1 Y2.9468
G1 Y2.9215
G3 X0.7446 Y2.92 I0.002 J0.0
G1 X0.7647 Y2.9019
G1 X0.7841 Y2.8843
G1 Y2.8682
G1 Y2.8521
G1 X0.7647 Y2.8345
G1 X0.7446 Y2.8164
G3 X0.7439 Y2.8149 I0.0013 J-0.0015
G1 Y2.7879
G1 Y2.7609
G3 X0.7446 Y2.7594 I0.002 J0.0
G1 X0.7647 Y2.7412
G1 X0.7841 Y2.7236
G1 Y2.706
G1 Y2.6895
G1 X0.4046
G1 X0.0231
G3 X0.0211 Y2.6875 I0.0 J-0.002
G1 Y1.3522
G1 Y0.0168
G3 X0.0231 Y0.0148 I0.002 J0.0
G1 X0.9568
G0 Z0.125
G0 X1.0325 Y0.1256
G0 Z0.0735
G1 F20.0 Z-0.004
G3 F40.0 X1.0337 Y0.1253 I0.0011 J0.0017
G1 X1.0492
G1 X1.0648
G3 X1.0663 Y0.126 I0.0 J0.002
G1 X1.0788 Y0.1411
G1 X1.0907 Y0.1554
G1 X1.1375
G1 X1.1843
G1 X1.1962 Y0.1411
G1 X1.2087 Y0.126
G3 X1.2102 Y0.1253 I0.0015 J0.0013
G1 X1.2275
G1 X1.2448
G3 X1.2463 Y0.1259 I0.0 J0.002
G1 X1.2629 Y0.1443
G1 X1.2795 Y0.1627
G3 X1.2801 Y0.164 I-0.0015 J0.0013
G1 Y0.1792
G1 Y0.1944
G3 X1.2794 Y0.1959 I-0.002 J0.0
G1 X1.261 Y0.2125
G1 X1.2427 Y0.2292
G3 X1.2413 Y0.2297 I-0.0013 J-0.0015
G1 X1.2258
G1 X1.2102
G3 X1.2087 Y0.229 I0.0 J-0.002
G1 X1.1962 Y0.2139
G1 X1.1843 Y0.1996
G1 X1.1375
G1 X1.0907
G1 X1.0788 Y0.2139
G1 X1.0663 Y0.229
G3 X1.0648 Y0.2297 I-0.0015 J-0.0013
G1 X1.0475
G1 X1.0302
G3 X1.0287 Y0.229 I0.0 J-0.002
G1 X1.0121 Y0.2107
G1 X0.9954 Y0.1923
G3 X0.9949 Y0.191 I0.0015 J-0.0013
G1 Y0.1757
G1 Y0.1605
G3 X0.9956 Y0.159 I0.002 J0.0
G1 X1.014 Y0.1424
G1 X1.0323 Y0.1258
G3 X1.0325 Y0.1256 I0.0013 J0.0015
G0 Z0.125
G0 X1.0336 Y0.2859
G0 Z0.0735
G1 F20.0 Z-0.004
G1 F40.0 X1.0337
G1 X1.0497
G1 X1.0658
G3 X1.0673 Y0.2867 I0.0 J0.002
G1 X1.0871 Y0.3118
G1 X1.1062 Y0.3361
G1 X1.1452
G1 X1.1843
G1 X1.1962 Y0.3218
G1 X1.2087 Y0.3067
G3 X1.2102 Y0.306 I0.0015 J0.0013
G1 X1.2275
G1 X1.2448
G3 X1.2463 Y0.3067 I0.0 J0.002
G1 X1.2629 Y0.325
G1 X1.2795 Y0.3434
G3 X1.2801 Y0.3447 I-0.0015 J0.0013
G1 Y0.3599
G1 Y0.3752
G3 X1.2794 Y0.3767 I-0.002 J0.0
G1 X1.261 Y0.3933
G1 X1.2427 Y0.4099
G3 X1.2413 Y0.4104 I-0.0013 J-0.0015
G1 X1.2258
G1 X1.2102
G3 X1.2087 Y0.4097 I0.0 J-0.002
G1 X1.1951 Y0.3933
G1 X1.1822 Y0.3778
G1 X1.1059 Y0.383
G1 X1.0285 Y0.3883
G3 X1.0269 Y0.3877 I-0.0001 J-0.002
G1 X1.0112 Y0.3703
G3 X1.0111 Y0.3702 I0.0015 J-0.0013
G3 X1.009 Y0.3675 I0.2043 J-0.161
G1 X1.0075 Y0.3655
G3 X1.003 Y0.3592 I0.0691 J-0.0531
G3 X0.9997 Y0.3534 I0.05 J-0.0322
G3 X0.9972 Y0.347 I0.0393 J-0.0196
G3 X0.9959 Y0.3418 I0.0478 J-0.0147
G1 X0.9956 Y0.3406
G1 Y0.3405
G1 X0.995 Y0.3367
G3 X0.9949 Y0.3364 I0.002 J-0.0003
G1 Y0.3212
G3 X0.9956 Y0.3197 I0.002 J0.0
G1 X1.014 Y0.3031
G1 X1.0323 Y0.2864
G3 X1.0336 Y0.2859 I0.0013 J0.0015
G0 Z0.125
G0 X1.0384 Y0.4517
G0 Z0.0735
G1 F20.0 Z-0.004
G1 F40.0 X1.0414 Y0.4516
G3 X1.0434 Y0.4532 I0.0001 J0.002
G1 X1.0472 Y0.4718
G1 X1.051 Y0.4905
G3 X1.0504 Y0.4923 I-0.002 J0.0004
G1 X1.0406 Y0.5021
G1 X1.0307 Y0.512
G3 X1.0292 Y0.5126 I-0.0014 J-0.0014
G1 X0.9276 Y0.5054
G1 X0.8261 Y0.4982
G3 X0.8243 Y0.4962 I0.0001 J-0.002
G1 Y0.4272
G1 Y0.3602
G1 X0.7572
G1 X0.6891
G1 X0.6772 Y0.3745
G1 X0.6647 Y0.3896
G3 X0.6632 Y0.3903 I-0.0015 J-0.0013
G1 X0.6459
G1 X0.6286
G3 X0.6271 Y0.3897 I0.0 J-0.002
G1 X0.6105 Y0.3713
G1 X0.5938 Y0.3529
G3 X0.5933 Y0.3516 I0.0015 J-0.0013
G1 Y0.3364
G1 Y0.3212
G3 X0.594 Y0.3197 I0.002 J0.0
G1 X0.6124 Y0.3031
G1 X0.6307 Y0.2864
G3 X0.6321 Y0.2859 I0.0013 J0.0015
G1 X0.6476
G1 X0.6632
G3 X0.6647 Y0.2866 I0.0 J0.002
G1 X0.6772 Y0.3017
G1 X0.6891 Y0.316
G1 X0.7773
G1 X0.8664
G3 X0.8684 Y0.318 I0.0 J0.002
G1 Y0.3883
G1 Y0.4566
G1 X0.9539 Y0.4541
G1 X1.0384 Y0.4517
G0 Z0.125
G0 X1.0313 Y0.5512
G0 Z0.0735
G1 F20.0 Z-0.004
G1 F40.0 X1.0423 Y0.552
G3 X1.0441 Y0.554 I-0.0001 J0.002
G1 Y0.5791
G1 Y0.6042
G3 X1.0421 Y0.6062 I-0.002 J0.0
G1 X0.9869
G1 X0.9317
G3 X0.9297 Y0.6045 I0.0 J-0.002
G1 X0.9265 Y0.5818
G1 X0.9233 Y0.5592
G3 X0.9245 Y0.557 I0.002 J-0.0003
G1 X0.9391 Y0.5514
G3 X0.9394 Y0.5513 I0.0007 J0.0019
G3 X0.9411 Y0.551 I0.014 J0.0644
G3 X0.9426 Y0.5507 I0.0082 J0.0368
G3 X0.9439 Y0.5505 I0.0063 J0.0286
G3 X0.945 Y0.5502 I0.0053 J0.0243
G1 X0.9489 Y0.5495
G3 X0.951 Y0.5492 I0.006 J0.031
G3 X0.953 Y0.5489 I0.0068 J0.0419
G3 X0.9636 Y0.5481 I0.014 J0.1111
G3 X0.9743 Y0.548 I0.0067 J0.1977
G1 X0.9803 Y0.5481
G3 X0.9815 Y0.5482 I-0.0003 J0.0311
G1 X0.9899 Y0.5485
G3 X0.992 Y0.5486 I-0.0017 J0.0683
G3 X0.9952 Y0.5487 I-0.0029 J0.1043
G3 X0.9984 Y0.5488 I-0.0063 J0.1804
G1 X1.0313 Y0.5512
G0 Z0.125
G0 X1.0853 Y0.5587
G0 Z0.0735
G1 F20.0 Z-0.004
G3 F40.0 X1.0873 Y0.557 I0.002 J0.0003
G1 X1.2078
G1 X1.3283
G3 X1.3303 Y0.559 I0.0 J0.002
G1 Y0.7196
G1 Y0.8803
G3 X1.3283 Y0.8823 I-0.002 J0.0
G1 X1.2781
G1 X1.2299
G1 Y1.1649
G1 Y1.4494
G3 X1.2292 Y1.4509 I-0.002 J0.0
G1 X1.2116 Y1.4667
G1 X1.194 Y1.4824
G3 X1.1927 Y1.4829 I-0.0013 J-0.0015
G1 X1.1275
G1 X1.0622
G3 X1.0609 Y1.4824 I0.0 J-0.002
G1 X1.0433 Y1.4667
G1 X1.0257 Y1.4509
G3 X1.0251 Y1.4494 I0.0013 J-0.0015
G1 Y1.4224
G1 Y1.3954
G3 X1.0257 Y1.3939 I0.002 J0.0
G1 X1.045 Y1.3765
G1 X1.0644 Y1.359
G3 X1.0658 Y1.3585 I0.0013 J0.0015
G1 X1.0992 Y1.3608
G2 X1.1043 Y1.3611 I0.0351 J-0.614
G2 X1.1198 Y1.3618 I0.0549 J-1.0396
G1 X1.1252 Y1.3619
G2 X1.1334 Y1.3621 I0.0104 J-0.3651
G2 X1.1375 I0.003 J-0.1912
G2 X1.1416 I0.0013 J-0.1772
G2 X1.1462 Y1.362 I-0.0024 J-0.3494
G1 X1.1531 Y1.3619
G1 X1.16 Y1.3617
G1 X1.1857 Y1.3603
G1 Y1.1012
G1 Y0.8401
G3 X1.1877 Y0.8381 I0.002 J0.0
G1 X1.2379
G1 X1.2861
G1 Y0.7196
G1 Y0.6012
G1 X1.2078
G1 X1.1295
G1 Y0.6483
G1 Y0.6974
G3 X1.1276 Y0.6994 I-0.002 J0.0
G1 X1.0379 Y0.7065
G1 X0.9482 Y0.7136
G3 X0.947 Y0.7133 I-0.0002 J-0.002
G1 X0.9363 Y0.7067
G1 X0.9256 Y0.7001
G3 X0.9247 Y0.6984 I0.0011 J-0.0017
G1 Y0.6786
G1 Y0.6588
G3 X0.9259 Y0.6569 I0.002 J0.0
G1 X0.9416 Y0.6509
G1 X0.9573 Y0.6449
G3 X0.9583 Y0.6447 I0.0007 J0.0019
G1 X1.0229 Y0.6513
G1 X1.0853 Y0.6577
G1 Y0.6095
G1 Y0.559
G3 Y0.5587 I0.002 J0.0
G0 Z0.125
G0 X1.1681 Y0.6503
G0 Z0.0735
G1 F20.0 Z-0.004
G1 F40.0 X1.1746 Y0.6444
G1 X1.193 Y0.6278
G3 X1.1943 Y0.6273 I0.0013 J0.0015
G1 X1.2095
G1 X1.2247
G3 X1.2262 Y0.6279 I0.0 J0.002
G1 X1.2428 Y0.6463
G1 X1.2595 Y0.6647
G3 X1.26 Y0.666 I-0.0015 J0.0013
G1 Y0.6816
G1 Y0.6971
G3 X1.2592 Y0.6986 I-0.002 J0.0
G1 X1.2442 Y0.7111
G1 X1.2299 Y0.723
G1 Y0.761
G1 Y0.8
G3 X1.2279 Y0.802 I-0.002 J0.0
G1 X1.13 Y0.8035
G3 X1.108 Y0.8037 I-0.0809 J-8.5541
G3 X1.0915 Y0.8038 I-0.0465 J-4.8852
G3 X1.0667 Y0.804 I-0.0495 J-5.2516
G3 X1.042 Y0.8042 I-0.0485 J-6.3402
G1 X1.0078 Y0.8043
G1 X0.9822
G1 X0.9438
G3 X0.9053 I-0.0002 J-15.267
G3 X0.8859 Y0.8042 I0.0005 J-5.5035
G3 X0.8689 I0.0038 J-5.7004
G3 X0.8391 Y0.8041 I0.0065 J-8.6864
G3 X0.8167 I0.0138 J-9.1215
G3 X0.7832 Y0.804 I0.0266 J-14.741
G3 X0.7497 Y0.8039 I0.0819 J-32.118
G1 X0.4682 Y0.8026
G1 X0.4509 Y0.8217
G1 X0.4331 Y0.8415
G3 X0.4316 Y0.8421 I-0.0015 J-0.0013
G1 X0.4046
G1 X0.3776
G3 X0.3761 Y0.8415 I0.0 J-0.002
G1 X0.3579 Y0.8214
G1 X0.3403 Y0.802
G1 X0.3127
G1 X0.2861
G1 Y0.9506
G1 Y1.0992
G1 X0.3127
G1 X0.3403
G1 X0.3579 Y1.0797
G1 X0.3761 Y1.0597
G3 X0.3776 Y1.059 I0.0015 J0.0013
G1 X0.4046
G1 X0.4316
G3 X0.4331 Y1.0597 I0.0 J0.002
G1 X0.4497 Y1.078
G1 X0.4663 Y1.0964
G3 X0.4668 Y1.0977 I-0.0015 J0.0013
G1 Y1.123
G1 Y1.1482
G3 X0.4662 Y1.1497 I-0.002 J0.0
G1 X0.4461 Y1.1679
G1 X0.4267 Y1.1855
G1 Y1.2433
G1 Y1.302
G3 X0.4247 Y1.304 I-0.002 J0.0
G1 X0.3142
G1 X0.2058
G1 Y1.4425
G1 Y1.5811
G1 X0.2339
G1 X0.264
G3 X0.266 Y1.5831 I0.0 J0.002
G1 Y1.8137
G1 Y2.0424
G1 X0.4222 Y2.0452
G1 X0.5803 Y2.0479
G3 X0.5823 Y2.0498 I0.0 J0.002
G1 X0.5853 Y2.1069
G1 X0.5881 Y2.162
G1 X0.6632 Y2.1602
G1 X0.7402 Y2.1584
G3 X0.7422 Y2.16 I0.0 J0.002
G1 X0.746 Y2.1786
G1 X0.7498 Y2.1973
G3 X0.7492 Y2.1991 I-0.002 J0.0004
G1 X0.7391 Y2.2092
G1 X0.729 Y2.2193
G3 X0.7274 Y2.2199 I-0.0014 J-0.0014
G1 X0.6362 Y2.2126
G1 X0.545 Y2.2054
G3 X0.5431 Y2.2034 I0.0002 J-0.002
G1 Y2.1698
G1 Y2.137
G1 X0.5182 Y2.1121
G1 X0.4932 Y2.0871
G1 X0.3589
G1 X0.2239
G3 X0.2219 Y2.0851 I0.0 J-0.002
G1 Y1.8542
G1 Y1.6252
G1 X0.1937
G1 X0.1636
G3 X0.1616 Y1.6232 I0.0 J-0.002
G1 Y1.4425
G1 Y1.2618
G3 X0.1636 Y1.2598 I0.002 J0.0
G1 X0.2741
G1 X0.3825
G1 Y1.2234
G1 Y1.1858
G1 X0.3599 Y1.1646
G1 X0.3372 Y1.1433
G1 X0.291
G1 X0.2439
G3 X0.2419 Y1.1413 I0.0 J-0.002
G1 Y0.932
G1 Y0.7236
G1 X0.2225 Y0.7061
G1 X0.2024 Y0.6879
G3 X0.2018 Y0.6864 I0.0013 J-0.0015
G1 Y0.6594
G1 Y0.6324
G3 X0.2024 Y0.6309 I0.002 J0.0
G1 X0.2208 Y0.6143
G1 X0.2392 Y0.5977
G3 X0.2405 Y0.5972 I0.0013 J0.0015
G1 X0.2658
G1 X0.291
G3 X0.2925 Y0.5978 I0.0 J0.002
G1 X0.3091 Y0.6162
G1 X0.3257 Y0.6345
G3 X0.3263 Y0.6359 I-0.0015 J0.0013
G1 Y0.6611
G1 Y0.6864
G3 X0.3256 Y0.6879 I-0.002 J0.0
G1 X0.3055 Y0.7061
G1 X0.2861 Y0.7236
G1 Y0.7413
G1 Y0.7578
G1 X0.3127
G1 X0.3403
G1 X0.3579 Y0.7384
G1 X0.3761 Y0.7183
G3 X0.3776 Y0.7176 I0.0015 J0.0013
G1 X0.4046
G1 X0.4316
G3 X0.4331 Y0.7183 I0.0 J0.002
G1 X0.45 Y0.7371
G1 X0.4664 Y0.7552
G1 X0.8266 Y0.7549
G1 X1.1857 Y0.7547
G1 Y0.7394
G1 Y0.723
G1 X1.1714 Y0.7111
G1 X1.1563 Y0.6986
G3 X1.1556 Y0.6971 I0.0013 J-0.0015
G1 Y0.6798
G1 Y0.6625
G3 X1.1562 Y0.661 I0.002 J0.0
G1 X1.1681 Y0.6503
G0 Z0.125
G0 X1.3664
G0 Z0.0735
G1 F20.0 Z-0.004
G1 F40.0 Y0.5177
G1 X1.3433 Y0.4995
G1 X1.3195 Y0.4808
G3 X1.3187 Y0.4791 I0.0012 J-0.0016
G1 X1.3237 Y0.3907
G1 X1.3287 Y0.3034
G1 X1.3132 Y0.2905
G1 X1.2969 Y0.277
G3 X1.2961 Y0.2754 I0.0013 J-0.0015
G1 Y0.2581
G1 Y0.2408
G3 X1.2968 Y0.2393 I0.002 J0.0
G1 X1.3152 Y0.2227
G1 X1.3335 Y0.2061
G3 X1.3349 Y0.2056 I0.0013 J0.0015
G1 X1.3501
G1 X1.3653
G3 X1.3668 Y0.2063 I0.0 J0.002
G1 X1.3834 Y0.2246
G1 X1.4 Y0.243
G3 X1.4005 Y0.2443 I-0.0015 J0.0013
G1 Y0.2599
G1 Y0.2754
G3 X1.3998 Y0.277 I-0.002 J0.0
G1 X1.3847 Y0.2895
G1 X1.3704 Y0.3014
G1 Y0.3503
G1 Y0.3992
G1 X1.3914 Y0.4162
G1 X1.4131 Y0.4338
G3 X1.4139 Y0.4354 I-0.0013 J0.0016
G1 X1.4115 Y0.6779
G1 X1.4091 Y0.9184
G1 X1.5082
G1 X1.6074
G1 Y0.8915
G1 Y0.8636
G1 X1.593 Y0.8517
G1 X1.578 Y0.8392
G3 X1.5773 Y0.8377 I0.0013 J-0.0015
G1 Y0.8204
G1 Y0.8031
G3 X1.5779 Y0.8016 I0.002 J0.0
G1 X1.5963 Y0.785
G1 X1.6146 Y0.7684
G3 X1.616 Y0.7678 I0.0013 J0.0015
G1 X1.6312
G1 X1.6464
G3 X1.6479 Y0.7685 I0.0 J0.002
G1 X1.6645 Y0.7869
G1 X1.6811 Y0.8052
G3 X1.6817 Y0.8066 I-0.0015 J0.0013
G1 Y0.8221
G1 Y0.8377
G3 X1.6809 Y0.8392 I-0.002 J0.0
G1 X1.6659 Y0.8517
G1 X1.6515 Y0.8636
G1 Y0.9116
G1 Y0.9606
G3 X1.6495 Y0.9626 I-0.002 J0.0
G1 X1.5303
G1 X1.412
G1 X1.4001 Y0.9769
G1 X1.3876 Y0.992
G3 X1.386 Y0.9927 I-0.0015 J-0.0013
G1 X1.3687
G1 X1.3514
G3 X1.35 Y0.9921 I0.0 J-0.002
G1 X1.3333 Y0.9737
G1 X1.3167 Y0.9553
G3 X1.3162 Y0.954 I0.0015 J-0.0013
G1 Y0.9379
G1 Y0.9219
G3 X1.317 Y0.9203 I0.002 J0.0
G1 X1.3421 Y0.9006
G1 X1.3664 Y0.8814
G1 Y0.6996
G1 Y0.6503
G0 Z0.125
G0 X1.463 Y0.6529
G0 Z0.0735
G1 F20.0 Z-0.004
G1 F40.0 X1.4653 Y0.5672
G1 X1.4689 Y0.439
G1 X1.4435 Y0.419
G1 X1.4174 Y0.3985
G3 X1.4166 Y0.3969 I0.0012 J-0.0016
G1 Y0.3788
G1 Y0.3607
G3 X1.4173 Y0.3591 I0.002 J0.0
G1 X1.4324 Y0.3466
G1 X1.4467 Y0.3347
G1 Y0.2779
G1 Y0.221
G1 X1.4324 Y0.2091
G1 X1.4173 Y0.1966
G3 X1.4166 Y0.1951 I0.0013 J-0.0015
G1 Y0.1778
G1 Y0.1605
G3 X1.4173 Y0.159 I0.002 J0.0
G1 X1.4356 Y0.1424
G1 X1.454 Y0.1258
G3 X1.4553 Y0.1253 I0.0013 J0.0015
G1 X1.4706
G1 X1.4858
G3 X1.4873 Y0.1259 I0.0 J0.002
G1 X1.5039 Y0.1443
G1 X1.5205 Y0.1627
G3 X1.521 Y0.164 I-0.0015 J0.0013
G1 Y0.1796
G1 Y0.1951
G3 X1.5203 Y0.1966 I-0.002 J0.0
G1 X1.5052 Y0.2091
G1 X1.4909 Y0.221
G1 Y0.2771
G1 Y0.3333
G1 X1.5029 Y0.3452
G1 X1.5154 Y0.3578
G3 X1.516 Y0.3593 I-0.0014 J0.0014
G1 X1.5124 Y0.4899
G1 X1.5089 Y0.6195
G1 X1.5267 Y0.633
G1 X1.5448 Y0.6467
G1 X1.632 Y0.647
G1 X1.7178 Y0.6474
G1 Y0.6141
G1 Y0.5794
G1 X1.7056 Y0.5599
G1 X1.6932 Y0.5399
G3 Y0.5378 I0.0017 J-0.0011
G1 X1.7038 Y0.5209
G3 X1.7039 Y0.5208 I0.0017 J0.0011
G3 X1.7048 Y0.5195 I0.0666 J0.0478
G3 X1.7056 Y0.5184 I0.0383 J0.0273
G3 X1.7064 Y0.5175 I0.0301 J0.0216
G3 X1.7076 Y0.5157 I0.0355 J0.0254
G3 X1.7116 Y0.5107 I0.0892 J0.0672
G3 X1.7218 Y0.5006 I0.0681 J0.058
G3 X1.7268 Y0.4966 I0.078 J0.0925
G1 X1.7293 Y0.4947
G1 X1.7318 Y0.4929
G3 X1.732 Y0.4928 I0.0012 J0.0016
G1 X1.7489 Y0.4821
G3 X1.751 I0.0011 J0.0017
G1 X1.7679 Y0.4928
G3 X1.768 I-0.0011 J0.0017
G3 X1.7693 Y0.4938 I-0.048 J0.0668
G3 X1.7704 Y0.4946 I-0.0274 J0.0384
G3 X1.7714 Y0.4953 I-0.0217 J0.0302
G3 X1.7731 Y0.4966 I-0.0256 J0.0358
G3 X1.7781 Y0.5006 I-0.0685 J0.0908
G3 X1.7882 Y0.5107 I-0.0576 J0.0678
G3 X1.7922 Y0.5157 I-0.0939 J0.0792
G1 X1.7941 Y0.5183
G1 X1.796 Y0.5208
G3 X1.7961 Y0.5209 I-0.0016 J0.0012
G1 X1.8067 Y0.5378
G3 Y0.5399 I-0.0017 J0.0011
G1 X1.7942 Y0.5599
G1 X1.7821 Y0.5794
G1 Y0.6141
G1 Y0.6474
G1 X1.8282
G1 X1.8764
G3 X1.8779 Y0.6479 I0.0 J0.002
G1 X1.8899 Y0.66
G1 X1.9019 Y0.672
G3 X1.9025 Y0.6735 I-0.0014 J0.0014
G1 Y1.8851
G1 Y3.0967
G3 X1.9018 Y3.0982 I-0.002 J0.0
G1 X1.8881 Y3.1095
G1 X1.8745 Y3.1209
G3 X1.8732 Y3.1213 I-0.0013 J-0.0015
G1 X1.2267 Y3.1188
G1 X0.5803 Y3.1162
G3 X0.5783 Y3.1143 I0.0 J-0.002
G1 X0.5753 Y3.0574
G1 X0.5723 Y3.0014
G1 X0.5584 Y2.9898
G1 X0.5439 Y2.9777
G3 X0.5431 Y2.9762 I0.0013 J-0.0015
G1 Y2.9485
G1 Y2.9209
G3 X0.5439 Y2.9193 I0.002 J0.0
G1 X0.5589 Y2.9068
G1 X0.5733 Y2.8949
G1 Y2.8682
G1 Y2.8415
G1 X0.5589 Y2.8296
G1 X0.5439 Y2.8171
G3 X0.5431 Y2.8155 I0.0013 J-0.0015
G1 Y2.7882
G1 Y2.7609
G3 X0.5438 Y2.7594 I0.002 J0.0
G1 X0.5622 Y2.7428
G1 X0.5805 Y2.7262
G3 X0.5819 Y2.7256 I0.0013 J0.0015
G1 X0.6071
G1 X0.6324
G3 X0.6339 Y2.7263 I0.0 J0.002
G1 X0.6505 Y2.7447
G1 X0.6671 Y2.763
G3 X0.6676 Y2.7644 I-0.0015 J0.0013
G1 Y2.79
G1 Y2.8155
G3 X0.6669 Y2.8171 I-0.002 J0.0
G1 X0.6518 Y2.8296
G1 X0.6375 Y2.8415
G1 Y2.8682
G1 Y2.8949
G1 X0.6518 Y2.9068
G1 X0.6669 Y2.9193
G3 X0.6676 Y2.9209 I-0.0013 J0.0015
G1 Y2.9485
G1 Y2.9762
G3 X0.6669 Y2.9777 I-0.002 J0.0
G1 X0.6518 Y2.9902
G1 X0.6375 Y3.0021
G1 Y3.0301
G1 Y3.057
G1 X0.9467
G1 X1.256
G1 Y2.9385
G1 Y2.82
G1 X1.2494
G2 X1.2467 Y2.8208 I0.0146 J0.0549
G1 X1.2466
G2 X1.2439 Y2.8219 I0.0061 J0.0203
G2 X1.2402 Y2.8241 I0.0085 J0.0184
G1 X1.2393 Y2.8248
G2 X1.2367 Y2.8269 I0.0275 J0.0349
G3 X1.2366 Y2.827 I-0.0014 J-0.0015
G2 X1.2363 Y2.8273 I0.0024 J0.0029
G3 X1.2361 Y2.8275 I-0.0014 J-0.0014
G2 X1.2358 Y2.8277 I0.0025 J0.003
G3 Y2.8278 I-0.0014 J-0.0014
G2 X1.2341 Y2.8294 I0.0476 J0.0508
G2 X1.2294 Y2.8344 I0.1634 J0.1616
G1 X1.2169 Y2.8494
G3 X1.2154 Y2.8501 I-0.0015 J-0.0013
G1 X1.188
G1 X1.1607
G3 X1.1592 Y2.8495 I0.0 J-0.002
G1 X1.1426 Y2.8311
G1 X1.126 Y2.8127
G3 X1.1255 Y2.8114 I0.0015 J-0.0013
G1 Y2.7861
G1 Y2.7609
G3 X1.1261 Y2.7594 I0.002 J0.0
G1 X1.1445 Y2.7428
G1 X1.1628 Y2.7262
G3 X1.1642 Y2.7256 I0.0013 J0.0015
G1 X1.1898
G1 X1.2154
G3 X1.2169 Y2.7264 I0.0 J0.002
G1 X1.2294 Y2.7414
G1 X1.2413 Y2.7558
G1 X1.2672
G1 X1.2941
G3 X1.2955 Y2.7563 I0.0 J0.002
G1 X1.3076 Y2.7684
G1 X1.3196 Y2.7804
G3 X1.3202 Y2.7819 I-0.0014 J0.0014
G1 Y2.9204
G1 Y3.057
G1 X1.5793
G1 X1.8383
G1 Y2.6122
G1 Y2.1674
G1 X1.7562
G1 X1.673
G1 X1.6611 Y2.1817
G1 X1.6486 Y2.1968
G3 X1.6471 Y2.1975 I-0.0015 J-0.0013
G1 X1.6298
G1 X1.6125
G3 X1.611 Y2.1969 I0.0 J-0.002
G1 X1.5944 Y2.1785
G1 X1.5778 Y2.1601
G3 X1.5773 Y2.1588 I0.0015 J-0.0013
G1 Y2.1436
G1 Y2.1284
G3 X1.5779 Y2.1269 I0.002 J0.0
G1 X1.5963 Y2.1103
G1 X1.6146 Y2.0936
G3 X1.616 Y2.0931 I0.0013 J0.0015
G1 X1.6315
G1 X1.6471
G3 X1.6486 Y2.0938 I0.0 J0.002
G1 X1.6611 Y2.1089
G1 X1.673 Y2.1232
G1 X1.7562
G1 X1.8383
G1 Y1.9937
G1 Y1.8642
G1 X1.7073 Y1.8664
G1 X1.6695 Y1.8669
G1 X1.6317 Y1.8674
G3 X1.5965 Y1.8676 I-0.0575 J-4.8621
G3 X1.5877 Y1.8677 I-0.011 J-1.3615
G3 X1.5745 I-0.011 J-1.6283
G3 X1.5613 I-0.0061 J-2.0172
G1 X1.5489
G1 X1.5488
G1 X1.5302 Y1.8676
G1 X1.5115 Y1.8674
G1 X1.5114
G1 X1.4487 Y1.8662
G3 X1.4467 Y1.8642 I0.0 J-0.002
G1 Y1.7249
G1 Y1.5865
G1 X1.4324 Y1.5746
G1 X1.4173 Y1.5621
G3 X1.4166 Y1.5605 I0.0013 J-0.0015
G1 Y1.5429
G1 Y1.5253
G3 X1.4173 Y1.5238 I0.002 J0.0
G1 X1.4324 Y1.5113
G1 X1.4467 Y1.4994
G1 Y1.4513
G1 Y1.4024
G3 X1.4487 Y1.4004 I0.002 J0.0
G1 X1.4773
G1 X1.505
G1 X1.5225 Y1.3809
G1 X1.5407 Y1.3609
G3 X1.5422 Y1.3602 I0.0015 J0.0013
G1 X1.5692
G1 X1.5962
G3 X1.5977 Y1.3609 I0.0 J0.002
G1 X1.6143 Y1.3792
G1 X1.6309 Y1.3976
G3 X1.6315 Y1.3989 I-0.0015 J0.0013
G1 Y1.4242
G1 Y1.4494
G3 X1.6308 Y1.4509 I-0.002 J0.0
G1 X1.6124 Y1.4675
G1 X1.5941 Y1.4842
G3 X1.5927 Y1.4847 I-0.0013 J-0.0015
G1 X1.5675
G1 X1.5422
G3 X1.5407 Y1.484 I0.0 J-0.002
G1 X1.5226 Y1.464
G2 X1.5123 Y1.4539 I-0.231 J0.2254
G2 X1.5079 Y1.4501 I-0.0473 J0.0504
G2 X1.5032 Y1.447 I-0.0203 J0.0259
G2 X1.5001 Y1.4456 I-0.0131 J0.0252
G1 X1.5
G2 X1.4985 Y1.445 I-0.0095 J0.0228
G1 X1.4984
G1 X1.497 Y1.4445
G1 X1.4909
G1 Y1.4714
G1 Y1.4994
G1 X1.5052 Y1.5113
G1 X1.5203 Y1.5238
G3 X1.521 Y1.5253 I-0.0013 J0.0015
G1 Y1.5429
G1 Y1.5605
G3 X1.5203 Y1.5621 I-0.002 J0.0
G1 X1.5052 Y1.5746
G1 X1.4909 Y1.5865
G1 Y1.7048
G1 Y1.822
G1 X1.51
G1 X1.5302
G1 X1.5494 Y1.7977
G1 X1.5691 Y1.7726
G3 X1.5707 Y1.7718 I0.0016 J0.0012
G1 X1.5893
G1 X1.6079
G3 X1.6095 Y1.7726 I0.0 J0.002
G1 X1.6292 Y1.7977
G1 X1.6484 Y1.822
G1 X1.7438
G1 X1.8383
G1 Y1.2668
G1 Y0.7116
G1 X1.6903
G1 X1.5414
G1 X1.5358 Y0.7207
G1 X1.5296 Y0.7307
G3 X1.5279 Y0.7317 I-0.0017 J-0.0011
G1 X1.5096
G1 X1.4914
G3 X1.4898 Y0.731 I0.0 J-0.002
G1 X1.476 Y0.7144
G1 X1.4623 Y0.6978
G3 X1.4618 Y0.6964 I0.0015 J-0.0013
G1 X1.463 Y0.6529
G0 Z0.125
G0 Y1.0088
G0 Z0.0735
G1 F20.0 Z-0.004
G1 F40.0 X1.4709
G1 X1.4864
G3 X1.488 Y1.0095 I0.0 J0.002
G1 X1.5005 Y1.0246
G1 X1.5124 Y1.0389
G1 X1.5604
G1 X1.6094
G3 X1.6114 Y1.0409 I0.0 J0.002
G1 Y1.1514
G1 Y1.2598
G1 X1.6968 Y1.2573
G1 X1.7844 Y1.2548
G3 X1.7864 Y1.2564 I0.0001 J0.002
G1 X1.7902 Y1.275
G1 X1.7939 Y1.2937
G3 X1.7934 Y1.2955 I-0.002 J0.0004
G1 X1.7835 Y1.3053
G1 X1.7737 Y1.3152
G3 X1.7721 Y1.3158 I-0.0014 J-0.0014
G1 X1.6706 Y1.3086
G1 X1.5691 Y1.3014
G3 X1.5672 Y1.2994 I0.0001 J-0.002
G1 Y1.1902
G1 Y1.0831
G1 X1.5403
G1 X1.5124
G1 X1.5005 Y1.0974
G1 X1.488 Y1.1125
G3 X1.4864 Y1.1132 I-0.0015 J-0.0013
G1 X1.4691
G1 X1.4518
G3 X1.4504 Y1.1125 I0.0 J-0.002
G1 X1.4337 Y1.0942
G1 X1.4171 Y1.0758
G3 X1.4166 Y1.0745 I0.0015 J-0.0013
G1 Y1.0593
G1 Y1.044
G3 X1.4173 Y1.0425 I0.002 J0.0
G1 X1.4356 Y1.0259
G1 X1.454 Y1.0093
G3 X1.4553 Y1.0088 I0.0013 J0.0015
G1 X1.463
G0 Z0.125
G0 X1.3865 Y1.1296
G0 Z0.0735
G1 F20.0 Z-0.004
G3 F40.0 X1.3869 Y1.1299 I-0.0011 J0.0017
G1 X1.4035 Y1.1483
G1 X1.4201 Y1.1667
G3 X1.4206 Y1.168 I-0.0015 J0.0013
G1 Y1.1836
G1 Y1.1991
G3 X1.4199 Y1.2006 I-0.002 J0.0
G1 X1.4048 Y1.2131
G1 X1.3905 Y1.225
G1 Y1.6245
G1 Y2.0248
G3 X1.3885 Y2.0268 I-0.002 J0.0
G1 X1.3295
G1 X1.2714
G1 X1.2591 Y2.0417
G1 X1.2462 Y2.0572
G3 X1.2444 Y2.0579 I-0.0015 J-0.0013
G1 X1.2216 Y2.055
G1 X1.1997 Y2.0521
G1 X1.1707 Y2.0799
G1 X1.141 Y2.1084
G3 X1.1396 Y2.1089 I-0.0014 J-0.0014
G1 X1.0131 Y2.1106
G1 X0.8885 Y2.1122
G1 Y2.3587
G1 Y2.6052
G1 X0.9467
G1 X1.007
G3 X1.009 Y2.6072 I0.0 J0.002
G1 Y2.6658
G1 Y2.7236
G1 X1.0284 Y2.7412
G1 X1.0485 Y2.7594
G3 X1.0491 Y2.7609 I-0.0013 J0.0015
G1 Y2.7879
G1 Y2.8149
G3 X1.0485 Y2.8164 I-0.002 J0.0
G1 X1.0284 Y2.8345
G1 X1.009 Y2.8521
G1 Y2.8682
G1 Y2.8843
G1 X1.0267 Y2.9003
G1 X1.0445 Y2.9164
G1 X1.0693
G1 X1.0939
G1 X1.1058 Y2.9021
G1 X1.1183 Y2.887
G3 X1.1199 Y2.8863 I0.0015 J0.0013
G1 X1.1472
G1 X1.1745
G3 X1.176 Y2.8869 I0.0 J0.002
G1 X1.1926 Y2.9053
G1 X1.2093 Y2.9237
G3 X1.2098 Y2.925 I-0.0015 J0.0013
G1 Y2.9503
G1 Y2.9755
G3 X1.2091 Y2.977 I-0.002 J0.0
G1 X1.1908 Y2.9936
G1 X1.1724 Y3.0102
G3 X1.1711 Y3.0108 I-0.0013 J-0.0015
G1 X1.1455
G1 X1.1199
G3 X1.1183 Y3.01 I0.0 J-0.002
G1 X1.1058 Y2.995
G1 X1.0939 Y2.9806
G1 X1.0672
G1 X1.0405
G1 X1.0286 Y2.995
G1 X1.0161 Y3.01
G3 X1.0146 Y3.0108 I-0.0015 J-0.0013
G1 X0.9872
G1 X0.9599
G3 X0.9584 Y3.0101 I0.0 J-0.002
G1 X0.9418 Y2.9917
G1 X0.9252 Y2.9734
G3 X0.9247 Y2.972 I0.0015 J-0.0013
G1 Y2.9468
G1 Y2.9215
G3 X0.9253 Y2.92 I0.002 J0.0
G1 X0.9454 Y2.9019
G1 X0.9648 Y2.8843
G1 Y2.8682
G1 Y2.8521
G1 X0.9454 Y2.8345
G1 X0.9253 Y2.8164
G3 X0.9247 Y2.8149 I0.0013 J-0.0015
G1 Y2.7879
G1 Y2.7609
G3 X0.9253 Y2.7594 I0.002 J0.0
G1 X0.9454 Y2.7412
G1 X0.9648 Y2.7236
G1 Y2.6859
G1 Y2.6493
G1 X0.9066
G1 X0.8463
G3 X0.8443 Y2.6473 I0.0 J-0.002
G1 Y1.805
G1 Y0.9627
G3 X0.8462 Y0.9607 I0.002 J0.0
G1 X0.9374 Y0.9535
G1 X1.0286 Y0.9463
G3 X1.0302 Y0.9469 I0.0002 J0.002
G1 X1.0403 Y0.957
G1 X1.0504 Y0.9671
G3 X1.051 Y0.9689 I-0.0014 J0.0014
G1 X1.0472 Y0.9875
G1 X1.0434 Y1.0062
G3 X1.0414 Y1.0078 I-0.002 J-0.0004
G1 X0.9639 Y1.0059
G1 X0.8885 Y1.0042
G1 Y1.531
G1 Y2.058
G1 X0.9966
G1 X1.1059
G1 X1.1586 Y2.0058
G1 X1.212 Y1.9531
G3 X1.2134 Y1.9526 I0.0014 J0.0014
G1 X1.2294
G1 X1.2455
G3 X1.247 Y1.9533 I0.0 J0.002
G1 X1.2595 Y1.9683
G1 X1.2714 Y1.9827
G1 X1.3094
G1 X1.3463
G1 Y1.6044
G1 Y1.225
G1 X1.332 Y1.2131
G1 X1.3169 Y1.2006
G3 X1.3162 Y1.1991 I0.0013 J-0.0015
G1 Y1.1818
G1 Y1.1645
G3 X1.3169 Y1.163 I0.002 J0.0
G1 X1.3352 Y1.1464
G1 X1.3536 Y1.1298
G3 X1.3549 Y1.1293 I0.0013 J0.0015
G1 X1.3702
G1 X1.3854
G3 X1.3865 Y1.1296 I0.0 J0.002
G0 Z0.125
G0 X1.1495
G0 Z0.0735
G1 F20.0 Z-0.004
G1 F40.0 Y1.302
G3 X1.1475 Y1.304 I-0.002 J0.0
G1 X1.0672
G1 X0.9889
G1 Y1.4124
G1 Y1.5208
G1 X1.1061
G1 X1.2245
G1 X1.2364 Y1.5065
G1 X1.2489 Y1.4914
G3 X1.2504 Y1.4907 I0.0015 J0.0013
G1 X1.2677
G1 X1.285
G3 X1.2865 Y1.4915 I0.0 J0.002
G1 X1.3008 Y1.509
G1 X1.315 Y1.5266
G3 X1.3155 Y1.5279 I-0.0016 J0.0013
G1 X1.312 Y1.7262
G1 X1.3086 Y1.9245
G3 X1.3066 Y1.9264 I-0.002 J0.0
G1 X1.245
G1 X1.1842
G1 X1.1437 Y1.9662
G1 X1.1026 Y2.0065
G3 X1.1013 Y2.0071 I-0.0014 J-0.0014
G1 X1.0165 Y2.0094
G1 X0.9317 Y2.0118
G3 X0.9297 Y2.0098 I-0.0001 J-0.002
G1 Y1.9847
G1 Y1.9596
G3 X0.9317 Y1.9576 I0.002 J0.0
G1 X1.0038
G1 X1.0752
G1 X1.1084 Y1.9255
G1 X1.1421 Y1.8929
G3 X1.1435 Y1.8923 I0.0014 J0.0014
G1 X1.2057
G1 X1.266
G1 Y1.7478
G1 Y1.6023
G1 X1.2441 Y1.584
G1 X1.2221 Y1.5657
G1 X1.0848 Y1.5653
G1 X0.9467 Y1.565
G3 X0.9447 Y1.563 I0.0 J-0.002
G1 Y1.4124
G1 Y1.2618
G3 X0.9467 Y1.2598 I0.002 J0.0
G1 X1.0271
G1 X1.1054
G1 Y1.0811
G1 Y0.9024
G1 X1.0196 Y0.9049
G1 X0.9317 Y0.9074
G3 X0.9297 Y0.9057 I-0.0001 J-0.002
G1 X0.9266 Y0.884
G1 X0.9235 Y0.8624
G3 X0.9245 Y0.8604 I0.002 J-0.0003
G1 X0.9354 Y0.8536
G1 X0.9463 Y0.8469
G3 X0.9475 Y0.8466 I0.0011 J0.0017
G1 X1.0476 Y0.8537
G1 X1.1477 Y0.8608
G3 X1.1495 Y0.8628 I-0.0001 J0.002
G1 Y1.0824
G1 Y1.1296
G0 Z0.125
G0 X1.0441 Y1.1066
G0 Z0.0735
G1 F20.0 Z-0.004
G3 F40.0 X1.0421 Y1.1082 I-0.002 J-0.0004
G1 X0.9869
G1 X0.9317
G3 X0.9297 Y1.1065 I0.0 J-0.002
G1 X0.9265 Y1.0838
G1 X0.9233 Y1.0612
G3 X0.9245 Y1.059 I0.002 J-0.0003
G1 X0.9391 Y1.0534
G3 X0.9394 Y1.0533 I0.0007 J0.0019
G3 X0.9411 Y1.053 I0.014 J0.0644
G3 X0.9426 Y1.0527 I0.0082 J0.0368
G3 X0.9439 Y1.0525 I0.0063 J0.0286
G3 X0.945 Y1.0522 I0.0053 J0.0243
G1 X0.9489 Y1.0515
G3 X0.951 Y1.0512 I0.006 J0.031
G3 X0.953 Y1.0509 I0.0068 J0.0419
G3 X0.9636 Y1.0501 I0.014 J0.1111
G3 X0.9743 Y1.05 I0.0067 J0.1977
G1 X0.9803 Y1.0501
G3 X0.9815 Y1.0502 I-0.0003 J0.0311
G1 X0.9899 Y1.0505
G3 X0.992 Y1.0506 I-0.0017 J0.0683
G3 X0.9952 Y1.0507 I-0.0029 J0.1043
G3 X0.9984 Y1.0508 I-0.0063 J0.1803
G1 X1.0423 Y1.054
G3 X1.0441 Y1.056 I-0.0001 J0.002
G1 Y1.0811
G1 Y1.1062
G3 Y1.1066 I-0.002 J0.0
G0 Z0.125
G0 X1.0406 Y1.1543
G0 Z0.0735
G1 F20.0 Z-0.004
G1 F40.0 X1.0423 Y1.1544
G3 X1.0441 Y1.1564 I-0.0001 J0.002
G1 Y1.1815
G1 Y1.2066
G3 X1.0421 Y1.2086 I-0.002 J0.0
G1 X0.9869
G1 X0.9317
G3 X0.9297 Y1.2069 I0.0 J-0.002
G1 X0.9265 Y1.1842
G1 X0.9233 Y1.1616
G3 X0.9245 Y1.1594 I0.002 J-0.0003
G1 X0.9391 Y1.1538
G3 X0.9394 Y1.1537 I0.0007 J0.0019
G3 X0.9411 Y1.1534 I0.014 J0.0644
G3 X0.9426 Y1.1531 I0.0082 J0.0368
G3 X0.9439 Y1.1529 I0.0063 J0.0286
G3 X0.945 Y1.1526 I0.0053 J0.0243
G1 X0.9489 Y1.1519
G3 X0.951 Y1.1516 I0.006 J0.031
G3 X0.953 Y1.1513 I0.0068 J0.0419
G3 X0.9636 Y1.1505 I0.014 J0.1111
G3 X0.9743 Y1.1504 I0.0067 J0.1977
G1 X0.9803 Y1.1505
G3 X0.9815 Y1.1506 I-0.0003 J0.0311
G1 X0.9899 Y1.1509
G3 X0.992 Y1.151 I-0.0017 J0.0683
G3 X0.9952 Y1.1511 I-0.0029 J0.1043
G3 X0.9984 Y1.1512 I-0.0063 J0.1803
G1 X1.0406 Y1.1543
G0 Z0.125
G0 X0.7429 Y1.1564
G0 Z0.0735
G1 F20.0 Z-0.004
G1 F40.0 Y1.1815
G1 Y1.2066
G3 X0.7409 Y1.2086 I-0.002 J0.0
G1 X0.6857
G1 X0.6305
G3 X0.6285 Y1.2069 I0.0 J-0.002
G1 X0.6253 Y1.1842
G1 X0.6221 Y1.1616
G3 X0.6233 Y1.1594 I0.002 J-0.0003
G1 X0.6379 Y1.1538
G3 X0.6382 Y1.1537 I0.0007 J0.0019
G3 X0.6399 Y1.1534 I0.0141 J0.0644
G3 X0.6414 Y1.1531 I0.0082 J0.0368
G3 X0.6427 Y1.1529 I0.0063 J0.0286
G3 X0.6438 Y1.1526 I0.0053 J0.0243
G1 X0.6477 Y1.1519
G3 X0.6498 Y1.1516 I0.006 J0.031
G3 X0.6518 Y1.1513 I0.0068 J0.0419
G3 X0.6624 Y1.1505 I0.014 J0.1111
G3 X0.6731 Y1.1504 I0.0067 J0.1977
G1 X0.6791 Y1.1505
G3 X0.6803 Y1.1506 I-0.0003 J0.0311
G1 X0.6887 Y1.1509
G3 X0.6908 Y1.151 I-0.0017 J0.0683
G3 X0.694 Y1.1511 I-0.0029 J0.1043
G3 X0.6972 Y1.1512 I-0.0063 J0.1801
G1 X0.7411 Y1.1544
G3 X0.7429 Y1.1564 I-0.0001 J0.002
G0 Z0.125
G0 X0.741 Y1.1082
G0 Z0.0735
G1 F20.0 Z-0.004
G1 F40.0 X0.7409
G1 X0.6857
G1 X0.6305
G3 X0.6285 Y1.1065 I0.0 J-0.002
G1 X0.6253 Y1.0838
G1 X0.6221 Y1.0612
G3 X0.6233 Y1.059 I0.002 J-0.0003
G1 X0.6379 Y1.0534
G3 X0.6382 Y1.0533 I0.0007 J0.0019
G3 X0.6399 Y1.053 I0.0141 J0.0644
G3 X0.6414 Y1.0527 I0.0082 J0.0368
G3 X0.6427 Y1.0525 I0.0063 J0.0286
G3 X0.6438 Y1.0522 I0.0053 J0.0243
G1 X0.6477 Y1.0515
G3 X0.6498 Y1.0512 I0.006 J0.031
G3 X0.6518 Y1.0509 I0.0068 J0.0419
G3 X0.6624 Y1.0501 I0.014 J0.1111
G3 X0.6731 Y1.05 I0.0067 J0.1977
G1 X0.6791 Y1.0501
G3 X0.6803 Y1.0502 I-0.0003 J0.0311
G1 X0.6887 Y1.0505
G3 X0.6908 Y1.0506 I-0.0017 J0.0683
G3 X0.694 Y1.0507 I-0.0029 J0.1043
G3 X0.6972 Y1.0508 I-0.0063 J0.1801
G1 X0.7411 Y1.054
G3 X0.7429 Y1.056 I-0.0001 J0.002
G1 Y1.0811
G1 Y1.1062
G3 X0.741 Y1.1082 I-0.002 J0.0
G0 Z0.125
G0 X0.7131 Y1.2598
G0 Z0.0735
G1 F20.0 Z-0.004
G3 F40.0 X0.7142 Y1.2605 I-0.0004 J0.002
G1 X0.7308 Y1.2788
G1 X0.7474 Y1.2972
G3 X0.7479 Y1.2985 I-0.0015 J0.0013
G1 Y1.322
G1 Y1.3456
G3 X0.7474 Y1.3469 I-0.002 J0.0
G1 X0.7317 Y1.3643
G1 X0.7169 Y1.3806
G1 X0.7293 Y1.4003
G1 X0.7424 Y1.4214
G3 Y1.4235 I-0.0017 J0.0011
G1 X0.7291 Y1.4448
G1 X0.7167 Y1.4647
G1 X0.7264 Y1.4744
G3 X0.7266 Y1.4746 I-0.0014 J0.0014
G3 X0.7273 Y1.4755 I-0.0249 J0.02
G3 X0.728 Y1.4764 I-0.0146 J0.0119
G3 X0.7285 Y1.4771 I-0.0117 J0.0094
G3 X0.729 Y1.4778 I-0.0103 J0.0082
G3 X0.7322 Y1.4826 I-0.0371 J0.0281
G3 X0.7363 Y1.4931 I-0.0338 J0.0193
G3 X0.7366 Y1.4944 I-0.0131 J0.0036
G3 X0.7371 Y1.4967 I-0.0328 J0.0071
G1 X0.7373 Y1.4983
G1 Y1.4984
G1 X0.7376 Y1.5008
G1 Y1.5009
G1 X0.7379 Y1.5033
G3 Y1.5035 I-0.002 J0.0002
G1 Y1.5204
G3 X0.7372 Y1.5219 I-0.002 J0.0
G1 X0.7221 Y1.5344
G1 X0.7078 Y1.5463
G1 Y1.6484
G1 Y1.7499
G1 X0.7272 Y1.7549
G1 X0.748 Y1.7604
G3 X0.7495 Y1.7626 I-0.0005 J0.0019
G1 X0.7462 Y1.7859
G1 X0.7429 Y1.8093
G3 X0.7409 Y1.811 I-0.002 J-0.0003
G1 X0.6857
G1 X0.6305
G3 X0.6285 Y1.8093 I0.0 J-0.002
G1 X0.6253 Y1.7867
G1 X0.6223 Y1.7658
G1 X0.6046
G2 X0.6032 Y1.7659 I0.0047 J0.0519
G1 X0.6031 Y1.766
G2 X0.6018 Y1.7661 I0.0024 J0.0283
G1 X0.6017
G2 X0.6006 Y1.7662 I0.0018 J0.0214
G2 X0.5924 Y1.7675 I0.0092 J0.0893
G2 X0.5786 Y1.7718 I0.0147 J0.0706
G2 X0.5723 Y1.7748 I0.0483 J0.1115
G1 X0.5691 Y1.7764
G1 X0.566 Y1.778
G1 X0.5461 Y1.7905
G3 X0.544 Y1.7904 I-0.0011 J-0.0017
G1 X0.5265 Y1.7795
G1 X0.5089 Y1.7685
G3 X0.508 Y1.7671 I0.0011 J-0.0017
G1 X0.5051 Y1.7479
G1 X0.5022 Y1.7287
G3 X0.5028 Y1.727 I0.002 J-0.0003
G1 X0.5152 Y1.7146
G1 X0.5277 Y1.7021
G3 X0.5291 Y1.7016 I0.0014 J0.0014
G1 X0.5465
G1 X0.564
G3 X0.5657 Y1.7025 I0.0 J0.002
G1 X0.5719 Y1.7125
G1 X0.5776 Y1.7216
G1 X0.621
G1 X0.6636
G1 Y1.6345
G1 Y1.5463
G1 X0.6493 Y1.5344
G1 X0.6342 Y1.5219
G3 X0.6335 Y1.5204 I0.0013 J-0.0015
G1 Y1.5035
G3 Y1.5034 I0.002 J0.0
G3 X0.6336 Y1.5021 I0.0406 J0.0037
G3 X0.6342 Y1.4976 I0.1329 J0.0141
G3 X0.6346 Y1.4953 I0.0367 J0.0049
G1 X0.6348 Y1.4943
G1 Y1.4942
G1 X0.635 Y1.4931
G3 X0.6391 Y1.4826 I0.0391 J0.0093
G3 X0.6405 Y1.4805 I0.0222 J0.0122
G1 X0.6415 Y1.479
G1 Y1.4789
G1 X0.6423 Y1.4779
G1 Y1.4778
G1 X0.6448 Y1.4746
G3 X0.6449 Y1.4744 I0.0016 J0.0012
G1 X0.6547 Y1.4647
G1 X0.6422 Y1.4448
G1 X0.629 Y1.4235
G3 Y1.4214 I0.0017 J-0.0011
G1 X0.6421 Y1.4003
G1 X0.6544 Y1.3806
G1 X0.6397 Y1.3643
G1 X0.624 Y1.3469
G3 X0.6235 Y1.3456 I0.0015 J-0.0013
G1 Y1.3203
G1 Y1.295
G3 X0.6241 Y1.2935 I0.002 J0.0
G1 X0.6425 Y1.2769
G1 X0.6608 Y1.2603
G3 X0.6622 Y1.2598 I0.0013 J0.0015
G1 X0.6874
G1 X0.7127
G3 X0.7131 I0.0 J0.002
G0 Z0.125
G0 X0.5672
G0 Z0.0735
G1 F20.0 Z-0.004
G1 F40.0 Y1.3823
G3 X0.5652 Y1.3843 I-0.002 J0.0
G1 X0.515
G1 X0.4668
G1 Y1.6747
G1 Y1.965
G1 X0.6028 Y1.9613
G1 X0.7409 Y1.9576
G3 X0.7429 Y1.9596 I0.0001 J0.002
G1 Y1.9847
G1 Y2.0098
G3 X0.7409 Y2.0118 I-0.002 J0.0
G1 X0.6882 Y2.0114
G3 X0.6677 Y2.0112 I0.062 J-6.4016
G3 X0.6472 Y2.0109 I0.0568 J-5.3989
G1 X0.6188 Y2.0105
G1 X0.5904 Y2.01
G3 X0.5602 Y2.0095 I0.1426 J-8.6268
G3 X0.53 Y2.0089 I0.2386 J-13.3954
G1 X0.4246 Y2.0068
G3 X0.4227 Y2.0048 I0.0 J-0.002
G1 Y1.6734
G1 Y1.3421
G3 X0.4247 Y1.3401 I0.002 J0.0
G1 X0.4749
G1 X0.5231
G1 Y1.1514
G1 Y0.9626
G1 X0.4965
G1 X0.4688
G1 X0.4512 Y0.982
G1 X0.4331 Y1.0021
G3 X0.4316 Y1.0028 I-0.0015 J-0.0013
G1 X0.4046
G1 X0.3776
G3 X0.3761 Y1.0021 I0.0 J-0.002
G1 X0.3595 Y0.9837
G1 X0.3428 Y0.9654
G3 X0.3423 Y0.964 I0.0015 J-0.0013
G1 Y0.9388
G1 Y0.9135
G3 X0.343 Y0.912 I0.002 J0.0
G1 X0.3614 Y0.8954
G1 X0.3797 Y0.8788
G3 X0.3811 Y0.8783 I0.0013 J0.0015
G1 X0.4063
G1 X0.4316
G3 X0.4331 Y0.8789 I0.0 J0.002
G1 X0.4512 Y0.899
G1 X0.4688 Y0.9184
G1 X0.4965
G1 X0.5231
G1 Y0.8916
G1 Y0.8628
G3 X0.5249 Y0.8608 I0.002 J0.0
G1 X0.6264 Y0.8536
G1 X0.728 Y0.8464
G3 X0.7295 Y0.847 I0.0001 J0.002
G1 X0.7394 Y0.8568
G1 X0.7492 Y0.8667
G3 X0.7498 Y0.8685 I-0.0014 J0.0014
G1 X0.746 Y0.8871
G1 X0.7422 Y0.9058
G3 X0.7402 Y0.9074 I-0.002 J-0.0004
G1 X0.6527 Y0.9049
G1 X0.5672 Y0.9024
G1 Y1.1413
G1 Y1.2598
G0 Z0.125
G0 X0.3289 Y1.4028
G0 Z0.0735
G1 F20.0 Z-0.004
G3 F40.0 X0.333 Y1.4111 I-0.048 J0.0288
G3 X0.3356 Y1.4215 I-0.0388 J0.0152
G3 X0.3358 Y1.4269 I-0.0346 J0.004
G3 X0.3351 Y1.4324 I-0.0298 J-0.0013
G3 X0.3333 Y1.4375 I-0.0301 J-0.0075
G3 X0.3315 Y1.441 I-0.0461 J-0.0213
G3 X0.3284 Y1.4459 I-0.0549 J-0.0315
G3 X0.3275 Y1.4471 I-0.0532 J-0.0365
G3 X0.3263 Y1.4488 I-0.0661 J-0.0463
G1 X0.325 Y1.4506
G3 X0.3248 Y1.4508 I-0.0016 J-0.0012
G1 X0.3151 Y1.4605
G1 X0.3276 Y1.4805
G1 X0.3409 Y1.5018
G3 Y1.5039 I-0.0017 J0.0011
G1 X0.3302 Y1.5208
G3 Y1.5209 I-0.0017 J-0.0011
G3 X0.3292 Y1.5221 I-0.0663 J-0.0477
G3 X0.3284 Y1.5233 I-0.0382 J-0.0273
G3 X0.3277 Y1.5242 I-0.0301 J-0.0215
G3 X0.3264 Y1.5259 I-0.0355 J-0.0254
G3 X0.3224 Y1.5309 I-0.0891 J-0.0672
G3 X0.3123 Y1.5411 I-0.0681 J-0.058
G3 X0.3073 Y1.5451 I-0.078 J-0.0925
G1 X0.3072
G1 X0.3047 Y1.547
G1 X0.3022 Y1.5488
G3 X0.3021 Y1.5489 I-0.0012 J-0.0016
G1 X0.2852 Y1.5596
G3 X0.283 I-0.0011 J-0.0017
G1 X0.2661 Y1.5489
G3 X0.266 Y1.5488 I0.0011 J-0.0017
G3 X0.2647 Y1.5479 I0.0479 J-0.0667
G3 X0.2636 Y1.5471 I0.0274 J-0.0384
G3 X0.2627 Y1.5464 I0.0217 J-0.0302
G3 X0.2609 Y1.5451 I0.0256 J-0.0358
G3 X0.2559 Y1.5411 I0.0684 J-0.0907
G3 X0.2458 Y1.5309 I0.0576 J-0.0678
G3 X0.2418 Y1.526 I0.0939 J-0.0793
G1 Y1.5259
G1 X0.2399 Y1.5234
G1 X0.238 Y1.5209
G3 Y1.5208 I0.0016 J-0.0012
G1 X0.2273 Y1.5039
G3 Y1.5018 I0.0017 J-0.0011
G1 X0.2406 Y1.4805
G1 X0.2531 Y1.4605
G1 X0.2433 Y1.4508
G3 X0.2432 Y1.4506 I0.0014 J-0.0014
G3 X0.2425 Y1.4497 I0.0251 J-0.0203
G3 X0.2418 Y1.4488 I0.0148 J-0.012
G3 X0.2376 Y1.4427 I0.0439 J-0.0347
G1 X0.2375 Y1.4426
G3 X0.2334 Y1.4323 I0.0341 J-0.0195
G3 X0.2331 Y1.431 I0.013 J-0.0036
G3 X0.2327 Y1.4288 I0.0348 J-0.0076
G3 X0.2319 Y1.4222 I0.1075 J-0.017
G3 Y1.422 I0.002 J-0.0002
G1 Y1.4055
G3 X0.2326 Y1.404 I0.002 J0.0
G1 X0.2509 Y1.3874
G1 X0.2693 Y1.3708
G3 X0.2706 Y1.3702 I0.0013 J0.0015
G1 X0.2858
G1 X0.3011
G3 X0.3025 Y1.3709 I0.0 J0.002
G1 X0.3192 Y1.3893
G3 Y1.3894 I-0.0015 J0.0013
G3 X0.3231 Y1.3944 I-0.2668 J0.2113
G3 X0.3286 Y1.4023 I-0.0758 J0.0583
G3 X0.3289 Y1.4028 I-0.0477 J0.0293
G0 Z0.125
G0 X0.1455
G0 Z0.0735
G1 F20.0 Z-0.004
G1 F40.0 Y1.7047
G1 X0.1699 Y1.7239
G1 X0.195 Y1.7436
G3 X0.1957 Y1.7452 I-0.0012 J0.0016
G1 Y1.763
G1 Y1.7808
G3 X0.1951 Y1.7823 I-0.002 J0.0
G1 X0.1767 Y1.7989
G1 X0.1584 Y1.8155
G3 X0.157 Y1.816 I-0.0013 J-0.0015
G1 X0.1418
G1 X0.1266
G3 X0.1251 Y1.8153 I0.0 J-0.002
G1 X0.1085 Y1.797
G1 X0.0918 Y1.7786
G3 X0.0914 Y1.7769 I0.0015 J-0.0013
G1 X0.0938 Y1.7628
G2 X0.0942 Y1.7374 I-8.4871 J-0.1542
G2 X0.0945 Y1.7182 I-4.5837 J-0.0844
G1 Y1.7181
G2 X0.0947 Y1.7037 I-3.455 J-0.0618
G2 X0.0951 Y1.6821 I-4.0018 J-0.071
G2 X0.0954 Y1.6605 I-4.3046 J-0.0703
G2 X0.0957 Y1.6287 I-9.656 J-0.132
G1 X0.096 Y1.6008
G1 X0.0962 Y1.5764
G1 X0.0966 Y1.5337
G1 X0.0967 Y1.5017
G1 X0.097 Y1.4537
G2 X0.0971 Y1.4296 I-24.5773 J-0.1222
G2 X0.0972 Y1.4056 I-6.9712 J-0.0426
G3 X0.0973 Y1.3836 I5.6044 J0.0138
G3 X0.0974 Y1.363 I5.6094 J0.0148
G3 X0.0975 Y1.3436 I5.6137 J0.0158
G3 X0.0976 Y1.3255 I5.6174 J0.0167
G3 Y1.3085 I5.6206 J0.0175
G3 X0.0977 Y1.2926 I5.6232 J0.0182
G3 X0.0978 Y1.2776 I5.6255 J0.0189
G3 X0.0979 Y1.2496 I8.0897 J0.0242
G3 X0.098 Y1.2251 I8.0933 J0.0263
G3 X0.0981 Y1.2036 I8.0952 J0.0281
G3 X0.0982 Y1.1849 I8.0957 J0.0297
G3 X0.0984 Y1.152 I11.8474 J0.0411
G3 X0.0985 Y1.1274 I11.8384 J0.0454
G3 X0.0987 Y1.0904 I18.0403 J0.0699
G3 X0.0989 Y1.0535 I30.8039 J0.1327
G1 X0.1015 Y0.3582
G3 X0.1035 Y0.3562 I0.002 J0.0
G1 X0.2224
G1 X0.3403
G1 X0.3579 Y0.3368
G1 X0.3761 Y0.3167
G3 X0.3776 Y0.316 I0.0015 J0.0013
G1 X0.4046
G1 X0.4316
G3 X0.4331 Y0.3167 I0.0 J0.002
G1 X0.4497 Y0.3351
G1 X0.4663 Y0.3534
G3 X0.4668 Y0.3548 I-0.0015 J0.0013
G1 Y0.38
G1 Y0.4053
G3 X0.4662 Y0.4068 I-0.002 J0.0
G1 X0.4461 Y0.4249
G1 X0.4267 Y0.4425
G1 Y0.5003
G1 Y0.557
G1 X0.4849
G1 X0.5451
G3 X0.5471 Y0.559 I0.0 J0.002
G1 Y0.6097
G1 Y0.6583
G1 X0.6426 Y0.6554
G1 X0.7402 Y0.6524
G3 X0.7422 Y0.654 I0.0001 J0.002
G1 X0.746 Y0.6726
G1 X0.7498 Y0.6913
G3 X0.7492 Y0.6931 I-0.002 J0.0004
G1 X0.7396 Y0.7027
G1 X0.73 Y0.7123
G3 X0.7285 Y0.7128 I-0.0014 J-0.0014
G1 X0.6167 Y0.7058
G1 X0.5048 Y0.6987
G3 X0.503 Y0.6967 I0.0001 J-0.002
G1 Y0.6479
G1 Y0.6012
G1 X0.4447
G1 X0.3845
G3 X0.3825 Y0.5992 I0.0 J-0.002
G1 Y0.5206
G1 Y0.4429
G1 X0.3599 Y0.4216
G1 X0.3372 Y0.4004
G1 X0.2408
G1 X0.1455
G1 Y1.052
G1 Y1.4028
G0 Z0.125
G0 X0.3223 Y1.5982
G0 Z0.0735
G1 F20.0 Z-0.004
G1 F40.0 X0.3295 Y1.5916
G3 X0.3309 Y1.5911 I0.0013 J0.0015
G1 X0.3461
G1 X0.3613
G3 X0.3628 Y1.5918 I0.0 J0.002
G1 X0.3794 Y1.6101
G1 X0.396 Y1.6285
G3 X0.3965 Y1.6298 I-0.0015 J0.0013
G1 Y1.646
G3 Y1.6462 I-0.002 J0.0
G3 X0.3963 Y1.6485 I-0.0467 J-0.0037
G3 X0.3951 Y1.6555 I-0.0526 J-0.0053
G3 X0.3936 Y1.66 I-0.0262 J-0.0064
G3 X0.3912 Y1.6642 I-0.0223 J-0.0098
G3 X0.3886 Y1.6673 I-0.0191 J-0.0137
G1 X0.3872 Y1.6686
G1 X0.3859 Y1.6699
G3 X0.3855 Y1.6701 I-0.0014 J-0.0015
G1 X0.3765 Y1.6757
G1 Y1.6993
G1 Y1.7233
G1 X0.3886 Y1.7428
G1 X0.4011 Y1.7628
G3 Y1.7649 I-0.0017 J0.0011
G1 X0.3905 Y1.7818
G3 X0.3904 Y1.7819 I-0.0017 J-0.0011
G3 X0.3895 Y1.7832 I-0.0663 J-0.0477
G3 X0.3886 Y1.7843 I-0.0382 J-0.0273
G3 X0.3879 Y1.7853 I-0.0301 J-0.0215
G3 X0.3866 Y1.787 I-0.0355 J-0.0254
G3 X0.3826 Y1.792 I-0.0891 J-0.0672
G3 X0.3725 Y1.8021 I-0.0681 J-0.058
G3 X0.3675 Y1.8061 I-0.078 J-0.0925
G1 X0.365 Y1.808
G1 X0.3624 Y1.8099
G3 X0.3623 I-0.0012 J-0.0016
G1 X0.3454 Y1.8206
G3 X0.3433 I-0.0011 J-0.0017
G1 X0.3264 Y1.8099
G3 X0.3263 I0.0011 J-0.0017
G3 X0.325 Y1.8089 I0.0479 J-0.0667
G3 X0.3239 Y1.8081 I0.0274 J-0.0384
G3 X0.3229 Y1.8074 I0.0217 J-0.0302
G3 X0.3212 Y1.8061 I0.0256 J-0.0358
G3 X0.3162 Y1.8021 I0.0684 J-0.0907
G3 X0.306 Y1.792 I0.0576 J-0.0678
G3 X0.302 Y1.787 I0.0939 J-0.0793
G1 X0.3002 Y1.7845
G1 X0.3001
G1 X0.2983 Y1.7819
G3 X0.2982 Y1.7818 I0.0016 J-0.0012
G1 X0.2876 Y1.7649
G3 Y1.7628 I0.0017 J-0.0011
G1 X0.3 Y1.7428
G1 X0.3122 Y1.7233
G1 Y1.6993
G1 Y1.6757
G1 X0.3031 Y1.6701
G1 X0.2931 Y1.6639
G3 X0.2921 Y1.6622 I0.0011 J-0.0017
G1 Y1.6443
G1 Y1.6264
G3 X0.2928 Y1.6249 I0.002 J0.0
G1 X0.3112 Y1.6083
G1 X0.3223 Y1.5982
G0 Z0.125
G0 X0.5157 Y1.8145
G0 Z0.0735
G1 F20.0 Z-0.004
G3 F40.0 X0.5168 Y1.8137 I0.0185 J0.0219
G3 X0.5177 Y1.8129 I0.011 J0.0128
G3 X0.5242 Y1.8082 I0.0388 J0.0475
G1 X0.5243
G3 X0.5348 Y1.8037 I0.0236 J0.0406
G3 X0.5398 Y1.8025 I0.0133 J0.0435
G3 X0.5451 Y1.802 I0.0055 J0.0292
G3 X0.5504 Y1.8025 I-0.0002 J0.0298
G3 X0.5554 Y1.8037 I-0.0085 J0.0453
G3 X0.566 Y1.8082 I-0.013 J0.045
G3 X0.5704 Y1.8112 I-0.0223 J0.0375
G1 X0.5715 Y1.812
G1 X0.5745 Y1.8144
G3 X0.5747 Y1.8146 I-0.0012 J0.0016
G1 X0.5867 Y1.8266
G3 X0.5873 Y1.8281 I-0.0014 J0.0014
G1 Y1.8455
G1 Y1.8608
G1 X0.6631 Y1.859
G1 X0.7409 Y1.8572
G3 X0.7429 Y1.8592 I0.0 J0.002
G1 Y1.8843
G1 Y1.9094
G3 X0.7409 Y1.9114 I-0.002 J0.0
G1 X0.6658 Y1.9099
G1 X0.5918 Y1.9084
G1 X0.5791 Y1.9266
G1 X0.5657 Y1.9457
G3 X0.5641 Y1.9465 I-0.0016 J-0.0011
G1 X0.5466
G1 X0.5291
G3 X0.5277 Y1.9459 I0.0 J-0.002
G1 X0.5156 Y1.9339
G1 X0.5036 Y1.9218
G3 X0.503 Y1.9204 I0.0014 J-0.0014
G1 Y1.8742
G1 Y1.8281
G3 X0.5036 Y1.8266 I0.002 J0.0
G1 X0.5156 Y1.8146
G3 X0.5157 Y1.8145 I0.0014 J0.0014
G0 Z0.125
G0 X0.4651 Y2.1433
G0 Z0.0735
G1 F20.0 Z-0.004
G3 F40.0 X0.4668 Y2.1453 I-0.0003 J0.002
G1 Y2.2056
G1 Y2.2638
G1 X0.4937
G1 X0.5217
G1 X0.5336 Y2.2495
G1 X0.5461 Y2.2344
G3 X0.5476 Y2.2337 I0.0015 J0.0013
G1 X0.5644
G1 X0.5813
G3 X0.5827 Y2.2343 I0.0 J0.002
G1 X0.5953 Y2.2468
G1 X0.6072 Y2.2588
G1 X0.6737
G1 X0.7409
G3 X0.7429 Y2.2608 I0.0 J0.002
G1 Y2.2859
G1 Y2.311
G3 X0.7409 Y2.313 I-0.002 J0.0
G1 X0.6737
G1 X0.6072
G1 X0.5953 Y2.3249
G1 X0.5827 Y2.3375
G3 X0.5813 Y2.3381 I-0.0014 J-0.0014
G1 X0.5644
G1 X0.5476
G3 X0.5461 Y2.3374 I0.0 J-0.002
G1 X0.5336 Y2.3223
G1 X0.5217 Y2.308
G1 X0.4937
G1 X0.4668
G1 Y2.3446
G1 Y2.3823
G1 X0.4862 Y2.3999
G1 X0.5063 Y2.418
G3 X0.507 Y2.4195 I-0.0013 J0.0015
G1 Y2.4465
G1 Y2.4735
G3 X0.5063 Y2.475 I-0.002 J0.0
G1 X0.488 Y2.4916
G1 X0.4696 Y2.5082
G3 X0.4683 Y2.5088 I-0.0013 J-0.0015
G1 X0.443
G1 X0.4177
G3 X0.4162 Y2.5081 I0.0 J-0.002
G1 X0.3981 Y2.488
G1 X0.3805 Y2.4686
G1 X0.3644
G1 X0.3483
G1 X0.3308 Y2.488
G1 X0.3126 Y2.5081
G3 X0.3111 Y2.5088 I-0.0015 J-0.0013
G1 X0.2841
G1 X0.2571
G3 X0.2556 Y2.5081 I0.0 J-0.002
G1 X0.239 Y2.4897
G1 X0.2224 Y2.4714
G3 X0.2219 Y2.47 I0.0015 J-0.0013
G1 Y2.4448
G1 Y2.4195
G3 X0.2225 Y2.418 I0.002 J0.0
G1 X0.2409 Y2.4014
G1 X0.2592 Y2.3848
G3 X0.2606 Y2.3843 I0.0013 J0.0015
G1 X0.2858
G1 X0.3111
G3 X0.3126 Y2.3849 I0.0 J0.002
G1 X0.3308 Y2.405
G1 X0.3483 Y2.4244
G1 X0.3642
G1 X0.3801
G1 X0.4014 Y2.4018
G1 X0.4227 Y2.3792
G1 Y2.2827
G1 Y2.1875
G1 X0.4058
G1 X0.3879
G1 X0.376 Y2.2018
G1 X0.3635 Y2.2169
G3 X0.362 Y2.2176 I-0.0015 J-0.0013
G1 X0.3447
G1 X0.3274
G3 X0.3259 Y2.2169 I0.0 J-0.002
G1 X0.3093 Y2.1986
G1 X0.2926 Y2.1802
G3 X0.2921 Y2.1789 I0.0015 J-0.0013
G1 Y2.1637
G1 Y2.1484
G3 X0.2928 Y2.1469 I0.002 J0.0
G1 X0.3112 Y2.1303
G1 X0.3295 Y2.1137
G3 X0.3309 Y2.1132 I0.0013 J0.0015
G1 X0.3464
G1 X0.362
G3 X0.3635 Y2.1139 I0.0 J0.002
G1 X0.376 Y2.129
G1 X0.3879 Y2.1433
G1 X0.4259
G1 X0.4648
G3 X0.4651 I0.0 J0.002
G0 Z0.125
G0 X0.5445 Y2.3664
G0 Z0.0735
G1 F20.0 Z-0.004
G2 F40.0 X0.5431 Y2.3683 I0.0007 J0.0019
G1 Y2.4576
G1 Y2.5449
G1 X0.3644
G1 X0.1857
G1 Y2.4481
G1 Y2.3501
G1 X0.2051 Y2.3325
G1 X0.2252 Y2.3144
G2 X0.2259 Y2.3129 I-0.0013 J-0.0015
G1 Y2.2859
G1 Y2.2589
G2 X0.2252 Y2.2574 I-0.002 J0.0
G1 X0.2044 Y2.2386
G1 X0.1845 Y2.2205
G1 X0.1906 Y2.1877
G1 X0.197 Y2.1537
G2 X0.1965 Y2.152 I-0.002 J-0.0004
G1 X0.1792 Y2.1329
G1 X0.162 Y2.1139
G2 X0.1605 Y2.1132 I-0.0015 J0.0013
G1 X0.1453
G1 X0.1301
G2 X0.1287 Y2.1137 I0.0 J0.002
G1 X0.1104 Y2.1303
G1 X0.092 Y2.147
G2 X0.0913 Y2.1484 I0.0013 J0.0015
G1 Y2.1662
G1 Y2.184
G2 X0.0921 Y2.1856 I0.002 J0.0
G1 X0.1169 Y2.2051
G1 X0.1399 Y2.2232
G1 X0.1218 Y2.2395
G1 X0.102 Y2.2574
G2 X0.1014 Y2.2589 I0.0013 J0.0015
G1 Y2.2859
G1 Y2.3129
G2 X0.102 Y2.3144 I0.002 J0.0
G1 X0.1221 Y2.3325
G1 X0.1415 Y2.3501
G1 Y2.4682
G1 Y2.5871
G2 X0.1435 Y2.5891 I0.002 J0.0
G1 X0.3644
G1 X0.5853
G2 X0.5873 Y2.5871 I0.0 J-0.002
G1 Y2.4967
G1 Y2.4084
G1 X0.6028 Y2.4085
G1 X0.6072 Y2.4088
G1 X0.6117 Y2.4091
G3 X0.6146 Y2.4094 I-0.0122 J0.1446
G3 X0.6176 Y2.4097 I-0.0052 J0.0576
G3 X0.6206 Y2.4101 I-0.0066 J0.0591
G1 Y2.4102
G3 X0.6226 Y2.4105 I-0.0081 J0.0585
G3 X0.6253 Y2.4109 I-0.017 J0.1083
G1 X0.6289 Y2.4116
G1 X0.6314 Y2.4121
G1 X0.634 Y2.4127
G3 X0.6391 Y2.4138 I-0.0529 J0.2444
G3 X0.6425 Y2.4146 I-0.0578 J0.2545
G1 X0.6636 Y2.4203
G1 Y2.4411
G1 Y2.4626
G1 X0.6442 Y2.4802
G1 X0.6241 Y2.4983
G2 X0.6235 Y2.4998 I0.0013 J0.0015
G1 Y2.5251
G1 Y2.5504
G2 X0.624 Y2.5517 I0.002 J0.0
G1 X0.6406 Y2.5701
G1 X0.6572 Y2.5884
G2 X0.6587 Y2.5891 I0.0015 J-0.0013
G1 X0.6839
G1 X0.7092
G2 X0.7106 Y2.5886 I0.0 J-0.002
G1 X0.7289 Y2.5719
G1 X0.7473 Y2.5553
G2 X0.7479 Y2.5538 I-0.0013 J-0.0015
G1 Y2.5268
G1 Y2.4998
G2 X0.7473 Y2.4983 I-0.002 J0.0
G1 X0.7272 Y2.4802
G1 X0.7078 Y2.4626
G1 Y2.4411
G1 Y2.4203
G1 X0.7264 Y2.4154
G1 X0.7464 Y2.4102
G2 X0.7479 Y2.4082 I-0.0005 J-0.0019
G1 Y2.3878
G1 Y2.3674
G2 X0.747 Y2.3657 I-0.002 J0.0
G1 X0.7363 Y2.3591
G1 X0.7255 Y2.3524
G2 X0.7243 Y2.3521 I-0.0011 J0.0017
G1 X0.6347 Y2.3592
G1 X0.545 Y2.3663
G2 X0.5445 Y2.3664 I0.0002 J0.002
G0 Z0.125
G0 X0.9235 Y2.3681
G0 Z0.0735
G1 F20.0 Z-0.004
G3 F40.0 X0.9245 Y2.3664 I0.002 J0.0
G1 X0.9326 Y2.3614
G3 X0.9335 Y2.3611 I0.001 J0.0017
G3 X0.9641 Y2.3594 I0.0814 J1.1542
G3 X0.9732 Y2.3591 I0.0178 J0.4183
G1 X0.9811 Y2.3589
G3 X1.0089 Y2.359 I0.0116 J0.9754
G1 X1.0227 Y2.3593
G3 X1.0296 Y2.3594 I-0.0204 J1.0925
G3 X1.0331 Y2.3595 I-0.0035 J0.2304
G2 X1.0365 Y2.3596 I0.0057 J-0.1771
G1 X1.0366
G1 X1.0858 Y2.3606
G1 X1.135 Y2.3617
G1 X1.3283 Y2.3672
G3 X1.3303 Y2.3692 I-0.0001 J0.002
G1 Y2.458
G1 Y2.5449
G1 X1.519
G1 X1.7078
G1 Y2.4481
G1 Y2.3501
G1 X1.6893 Y2.3334
G1 X1.6713 Y2.3171
G1 X1.6515 Y2.3295
G1 X1.6304 Y2.3427
G3 X1.6283 Y2.3426 I-0.0011 J-0.0017
G1 X1.6115 Y2.332
G3 X1.6114 Y2.3319 I0.0011 J-0.0017
G3 X1.6101 Y2.331 I0.0476 J-0.0662
G3 X1.609 Y2.3302 I0.0273 J-0.0382
G3 X1.608 Y2.3295 I0.0215 J-0.03
G3 X1.6063 Y2.3282 I0.0254 J-0.0355
G3 X1.6013 Y2.3242 I0.0672 J-0.0891
G3 X1.5912 Y2.314 I0.058 J-0.0681
G1 X1.5911
G3 X1.5871 Y2.309 I0.0925 J-0.078
G1 X1.5853 Y2.3065
G1 X1.5852
G1 X1.5834 Y2.304
G3 X1.5833 Y2.3038 I0.0016 J-0.0012
G1 X1.5726 Y2.2869
G3 Y2.2848 I0.0017 J-0.0011
G1 X1.5833 Y2.2679
G3 X1.5834 Y2.2678 I0.0017 J0.0011
G3 X1.5843 Y2.2665 I0.0667 J0.0479
G3 X1.5851 Y2.2654 I0.0384 J0.0274
G3 X1.5859 Y2.2644 I0.0302 J0.0217
G3 X1.5871 Y2.2627 I0.0358 J0.0256
G3 X1.5911 Y2.2577 I0.0907 J0.0685
G1 X1.5912
G3 X1.6013 Y2.2476 I0.0678 J0.0576
G3 X1.6063 Y2.2436 I0.0793 J0.094
G1 X1.6088 Y2.2417
G1 X1.6113 Y2.2398
G3 X1.6115 I0.0012 J0.0016
G1 X1.6283 Y2.2291
G3 X1.6304 I0.0011 J0.0017
G1 X1.6515 Y2.2423
G1 X1.6713 Y2.2546
G1 X1.6876 Y2.2399
G1 X1.705 Y2.2242
G3 X1.7063 Y2.2236 I0.0013 J0.0015
G1 X1.7316
G1 X1.7569
G3 X1.7583 Y2.2243 I0.0 J0.002
G1 X1.775 Y2.2427
G1 X1.7916 Y2.261
G3 X1.7921 Y2.2624 I-0.0015 J0.0013
G1 Y2.2876
G1 Y2.3129
G3 X1.7914 Y2.3144 I-0.002 J0.0
G1 X1.7714 Y2.3325
G1 X1.7519 Y2.3501
G1 Y2.4682
G1 Y2.5871
G3 X1.7499 Y2.5891 I-0.002 J0.0
G1 X1.519
G1 X1.2881
G3 X1.2861 Y2.5871 I0.0 J-0.002
G1 Y2.4954
G1 Y2.4057
G1 X1.1099 Y2.4095
G1 X0.9317 Y2.4134
G3 X0.9297 Y2.4117 I0.0 J-0.002
G1 X0.9266 Y2.39
G1 X0.9235 Y2.3684
G3 Y2.3681 I0.002 J-0.0003
G0 Z0.125
G0 X0.9314 Y2.313
G0 Z0.0735
G1 F20.0 Z-0.004
G3 F40.0 X0.9297 Y2.3113 I0.0003 J-0.002
G1 X0.9268 Y2.2908
G1 X0.9238 Y2.2703
G3 X0.9244 Y2.2686 I0.002 J-0.0003
G1 X0.9319 Y2.2611
G1 X0.9394 Y2.2536
G3 X0.9409 Y2.253 I0.0014 J0.0014
G1 X1.062 Y2.2597
G1 X1.1821 Y2.2664
G1 X1.1951 Y2.2508
G1 X1.2087 Y2.2344
G3 X1.2102 Y2.2337 I0.0015 J0.0013
G1 X1.2279
G1 X1.2455
G3 X1.247 Y2.2344 I0.0 J0.002
G1 X1.2595 Y2.2495
G1 X1.2714 Y2.2638
G1 X1.3596
G1 X1.4487
G3 X1.4507 Y2.2658 I0.0 J0.002
G1 Y2.3243
G1 Y2.3819
G1 X1.4733 Y2.4032
G1 X1.496 Y2.4244
G1 X1.5106
G1 X1.5251
G1 X1.5426 Y2.405
G1 X1.5608 Y2.3849
G3 X1.5623 Y2.3843 I0.0015 J0.0013
G1 X1.5893
G1 X1.6163
G3 X1.6178 Y2.3849 I0.0 J0.002
G1 X1.6344 Y2.4033
G1 X1.651 Y2.4217
G3 X1.6515 Y2.423 I-0.0015 J0.0013
G1 Y2.4483
G1 Y2.4735
G3 X1.6509 Y2.475 I-0.002 J0.0
G1 X1.6325 Y2.4916
G1 X1.6142 Y2.5082
G3 X1.6128 Y2.5088 I-0.0013 J-0.0015
G1 X1.5875
G1 X1.5623
G3 X1.5608 Y2.5081 I0.0 J-0.002
G1 X1.5426 Y2.488
G1 X1.5251 Y2.4686
G1 X1.509
G1 X1.4929
G1 X1.4753 Y2.488
G1 X1.4571 Y2.5081
G3 X1.4557 Y2.5088 I-0.0015 J-0.0013
G1 X1.4287
G1 X1.4016
G3 X1.4002 Y2.5081 I0.0 J-0.002
G1 X1.3835 Y2.4897
G1 X1.3669 Y2.4714
G3 X1.3664 Y2.47 I0.0015 J-0.0013
G1 Y2.4448
G1 Y2.4195
G3 X1.3671 Y2.418 I0.002 J0.0
G1 X1.3872 Y2.3999
G1 X1.4066 Y2.3823
G1 Y2.3446
G1 Y2.308
G1 X1.3395
G1 X1.2714
G1 X1.2595 Y2.3223
G1 X1.247 Y2.3374
G3 X1.2455 Y2.3381 I-0.0015 J-0.0013
G1 X1.2279
G1 X1.2102
G3 X1.2087 Y2.3374 I0.0 J-0.002
G1 X1.1953 Y2.3213
G1 X1.1826 Y2.3059
G1 X1.0577 Y2.3094
G1 X0.9317 Y2.313
G3 X0.9314 I-0.0001 J-0.002
G0 Z0.125
G0 X0.9317 Y2.2126
G0 Z0.0735
G1 F20.0 Z-0.004
G1 F40.0 X1.0572 Y2.209
G1 X1.1827 Y2.2054
G2 X1.1837 Y2.2051 I-0.0001 J-0.002
G1 X1.1936 Y2.199
G1 X1.1954 Y2.1984
G1 X1.1973 Y2.1976
G3 X1.2012 Y2.1965 I0.0146 J0.0412
G3 X1.2021 Y2.1963 I0.0031 J0.0115
G2 X1.2022 Y2.1962 I-0.0004 J-0.002
G3 X1.2031 Y2.1961 I0.0022 J0.009
G2 X1.2032 Y2.196 I-0.0003 J-0.002
G3 X1.2038 I0.0014 J0.0064
G1 Y2.1959
G3 X1.2065 Y2.1956 I0.0108 J0.0725
G3 X1.212 Y2.1953 I0.0055 J0.0588
G1 X1.2137
G1 X1.2154 Y2.1954
G1 X1.2187 Y2.1955
G1 X1.221 Y2.1957
G1 X1.224 Y2.1959
G1 X1.2453 Y2.1986
G2 X1.2472 Y2.1979 I0.0003 J-0.002
G1 X1.2673 Y2.1722
G1 X1.2869 Y2.1473
G1 X1.3874
G1 X1.4889
G2 X1.4909 Y2.1453 I0.0 J-0.002
G1 Y2.0851
G1 Y2.0268
G1 X1.5379
G1 X1.5859
G1 X1.5978 Y2.0412
G1 X1.6103 Y2.0562
G2 X1.6118 Y2.057 I0.0015 J-0.0013
G1 X1.6274
G1 X1.6429
G2 X1.6443 Y2.0564 I0.0 J-0.002
G1 X1.6626 Y2.0398
G1 X1.681 Y2.0232
G2 X1.6817 Y2.0217 I-0.0013 J-0.0015
G1 Y2.0065
G1 Y1.9913
G2 X1.6811 Y1.9899 I-0.002 J0.0
G1 X1.6645 Y1.9716
G1 X1.6479 Y1.9532
G2 X1.6464 Y1.9526 I-0.0015 J0.0013
G1 X1.6291
G1 X1.6118
G2 X1.6103 Y1.9533 I0.0 J0.002
G1 X1.5978 Y1.9683
G1 X1.5859 Y1.9827
G1 X1.5178
G1 X1.4487
G2 X1.4467 Y1.9847 I0.0 J0.002
G1 Y2.046
G1 Y2.1052
G1 X1.3289 Y2.1017
G1 X1.209 Y2.0981
G2 X1.2075 Y2.0987 I-0.0001 J0.002
G1 X1.1726 Y2.1326
G1 X1.1382 Y2.1658
G1 X1.0435 Y2.1587
G1 X0.9479 Y2.1516
G2 X0.9467 Y2.1519 I-0.0001 J0.002
G1 X0.9356 Y2.1587
G1 X0.9245 Y2.1656
G2 X0.9235 Y2.1676 I0.0011 J0.0017
G1 X0.9266 Y2.1892
G1 X0.9297 Y2.2109
G2 X0.9317 Y2.2126 I0.002 J-0.0003
G0 Z0.125
G0 X1.0629 Y2.4648
G0 Z0.0735
G1 F20.0 Z-0.004
G3 F40.0 X1.0638 Y2.4646 I0.0009 J0.0018
G1 X1.0886
G1 X1.1134
G3 X1.1148 Y2.4652 I0.0 J0.002
G1 X1.1269 Y2.4772
G1 X1.1375 Y2.4879
G1 X1.1481 Y2.4772
G1 X1.1602 Y2.4652
G3 X1.1616 Y2.4646 I0.0014 J0.0014
G1 X1.1881
G1 X1.2147
G3 X1.2162 Y2.4653 I0.0 J0.002
G1 X1.2328 Y2.4836
G1 X1.2494 Y2.502
G3 X1.2499 Y2.5033 I-0.0015 J0.0013
G1 Y2.5286
G1 Y2.5538
G3 X1.2493 Y2.5553 I-0.002 J0.0
G1 X1.2309 Y2.5719
G1 X1.2126 Y2.5886
G3 X1.2112 Y2.5891 I-0.0013 J-0.0015
G1 X1.1864
G1 X1.1616
G3 X1.1602 Y2.5885 I0.0 J-0.002
G1 X1.1481 Y2.5764
G1 X1.1375 Y2.5658
G1 X1.1269 Y2.5764
G1 X1.1148 Y2.5885
G3 X1.1134 Y2.5891 I-0.0014 J-0.0014
G1 X1.0868
G1 X1.0603
G3 X1.0588 Y2.5884 I0.0 J-0.002
G1 X1.0422 Y2.5701
G1 X1.0256 Y2.5517
G3 X1.0251 Y2.5504 I0.0015 J-0.0013
G1 Y2.5251
G1 Y2.4998
G3 X1.0257 Y2.4983 I0.002 J0.0
G1 X1.0441 Y2.4817
G1 X1.0624 Y2.4651
G3 X1.0629 Y2.4648 I0.0013 J0.0015
G0 Z0.125
G0 X1.3763 Y2.8112
G0 Z0.0735
G1 F20.0 Z-0.004
G1 F40.0 X1.3862 Y2.8023
G1 X1.4038 Y2.7864
G3 X1.4051 Y2.7859 I0.0013 J0.0015
G1 X1.4304
G1 X1.4557
G3 X1.4572 Y2.7865 I0.0 J0.002
G1 X1.4729 Y2.8041
G1 X1.4886 Y2.8217
G3 X1.4891 Y2.823 I-0.0015 J0.0013
G1 Y2.8883
G1 Y2.9535
G3 X1.4886 Y2.9549 I-0.002 J0.0
G1 X1.4729 Y2.9724
G1 X1.4572 Y2.99
G3 X1.4557 Y2.9907 I-0.0015 J-0.0013
G1 X1.4287
G1 X1.4016
G3 X1.4001 Y2.99 I0.0 J-0.002
G1 X1.3845 Y2.9724
G1 X1.3689 Y2.9549
G3 X1.3684 Y2.9535 I0.0015 J-0.0013
G1 X1.3682 Y2.8866
G1 X1.3679 Y2.8198
G3 X1.3686 Y2.8183 I0.002 J0.0
G1 X1.3763 Y2.8112
G0 Z0.125
G0 X1.5286 Y2.8196
G0 Z0.0735
G1 F20.0 Z-0.004
G3 F40.0 X1.5292 Y2.8183 I0.002 J0.0001
G1 X1.5468 Y2.8023
G1 X1.5644 Y2.7864
G3 X1.5658 Y2.7859 I0.0013 J0.0015
G1 X1.591
G1 X1.6163
G3 X1.6178 Y2.7865 I0.0 J0.002
G1 X1.6335 Y2.8041
G1 X1.6492 Y2.8217
G3 X1.6497 Y2.823 I-0.0015 J0.0013
G1 Y2.8883
G1 Y2.9535
G3 X1.6492 Y2.9549 I-0.002 J0.0
G1 X1.6335 Y2.9724
G1 X1.6178 Y2.99
G3 X1.6163 Y2.9907 I-0.0015 J-0.0013
G1 X1.5893
G1 X1.5623
G3 X1.5608 Y2.99 I0.0 J-0.002
G1 X1.5452 Y2.9724
G1 X1.5295 Y2.9549
G3 X1.529 Y2.9535 I0.0015 J-0.0013
G1 X1.5288 Y2.8866
G1 X1.5286 Y2.8198
G3 Y2.8196 I0.002 J0.0
G0 Z0.125
G0 X1.2113 Y1.8611
G0 Z0.0735
G1 F20.0 Z-0.004
G3 F40.0 X1.2108 Y1.8612 I-0.0006 J-0.0019
G1 X1.1516 Y1.8642
G1 X1.0932 Y1.8673
G1 X1.0674 Y1.8919
G1 X1.0412 Y1.917
G3 X1.0397 Y1.9175 I-0.0014 J-0.0014
G1 X0.9856 Y1.9145
G1 X0.9316 Y1.9114
G3 X0.9297 Y1.9097 I0.0001 J-0.002
G1 X0.9268 Y1.8892
G1 X0.9238 Y1.8687
G3 X0.9244 Y1.867 I0.002 J-0.0003
G1 X0.9315 Y1.8599
G1 X0.9386 Y1.8527
G3 X0.94 Y1.8522 I0.0014 J0.0014
G1 X0.9916
G1 X1.0423
G1 X1.0762 Y1.8172
G1 X1.1107 Y1.7816
G3 X1.1123 Y1.781 I0.0014 J0.0014
G1 X1.1616 Y1.784
G1 X1.2108 Y1.7869
G3 X1.2124 Y1.7878 I-0.0001 J0.002
G1 X1.2234 Y1.8054
G1 X1.2345 Y1.823
G3 Y1.8251 I-0.0017 J0.0011
G1 X1.2234 Y1.8427
G1 X1.2124 Y1.8602
G3 X1.2113 Y1.8611 I-0.0017 J-0.0011
G0 Z0.125
G0 X1.1514 Y1.7605
G0 Z0.0735
G1 F20.0 Z-0.004
G2 F40.0 X1.1521 Y1.7598 I-0.001 J-0.0017
G1 X1.1632 Y1.7402
G1 X1.1655 Y1.7367
G1 X1.1679 Y1.7332
G1 X1.1696 Y1.7308
G3 X1.1718 Y1.7278 I0.0956 J0.0684
G3 X1.1837 Y1.7143 I0.1126 J0.0869
G1 X1.1855 Y1.7125
G1 X1.1873 Y1.7108
G3 X1.1909 Y1.7074 I0.2457 J0.2578
G3 X1.1933 Y1.7052 I0.0899 J0.0955
G3 X1.1965 Y1.7022 I0.1445 J0.1557
G1 X1.2191 Y1.6836
G2 X1.2198 Y1.682 I-0.0013 J-0.0015
G1 Y1.666
G1 Y1.6499
G2 X1.2193 Y1.6486 I-0.002 J0.0
G1 X1.2027 Y1.6302
G1 X1.1861 Y1.6119
G2 X1.1846 Y1.6112 I-0.0015 J0.0013
G1 X1.1673
G1 X1.15
G2 X1.1485 Y1.6119 I0.0 J0.002
G1 X1.136 Y1.627
G1 X1.1241 Y1.6413
G1 X1.085
G1 X1.046
G1 X1.0268 Y1.617
G1 X1.0071 Y1.5919
G2 X1.0055 Y1.5911 I-0.0016 J0.0012
G1 X0.9895
G1 X0.9734
G2 X0.9721 Y1.5916 I0.0 J0.002
G1 X0.9537 Y1.6083
G1 X0.9354 Y1.6249
G2 X0.9347 Y1.6264 I0.0013 J0.0015
G1 Y1.6436
G1 Y1.6609
G2 X0.9354 Y1.6625 I0.002 J0.0
G1 X0.9505 Y1.675
G1 X0.9648 Y1.6869
G1 Y1.7187
G1 Y1.7499
G1 X0.9454 Y1.7549
G1 X0.9246 Y1.7604
G2 X0.9231 Y1.7626 I0.0005 J0.0019
G1 X0.9264 Y1.7859
G1 X0.9297 Y1.8093
G2 X0.9317 Y1.811 I0.002 J-0.0003
G1 X0.9869
G1 X1.0421
G2 X1.0441 Y1.8093 I0.0 J-0.002
G1 X1.0474 Y1.7859
G1 X1.0507 Y1.7626
G2 X1.0492 Y1.7604 I-0.002 J-0.0003
G1 X1.0284 Y1.7549
G1 X1.009 Y1.7499
G1 Y1.7174
G1 Y1.6855
G1 X1.0471
G1 X1.0853
G1 Y1.7124
G1 Y1.7413
G2 X1.086 Y1.7428 I0.002 J0.0
G1 X1.1006 Y1.7549
G1 X1.1152 Y1.767
G2 X1.1168 Y1.7674 I0.0013 J-0.0015
G1 X1.1338 Y1.7641
G1 X1.1508 Y1.7607
G2 X1.1514 Y1.7605 I-0.0004 J-0.002
G0 Z0.125
G0 X1.5271 Y1.6873
G0 Z0.0735
G1 F20.0 Z-0.004
G3 F40.0 Y1.6869 I0.002 J-0.0004
G1 Y1.6617
G1 Y1.6364
G3 X1.5277 Y1.6349 I0.002 J0.0
G1 X1.5478 Y1.6167
G1 X1.5672 Y1.5992
G1 Y1.5781
G1 Y1.5561
G3 X1.5679 Y1.5546 I0.002 J0.0
G1 X1.5862 Y1.538
G1 X1.6046 Y1.5214
G3 X1.6059 Y1.5208 I0.0013 J0.0015
G1 X1.6312
G1 X1.6565
G3 X1.6579 Y1.5215 I0.0 J0.002
G1 X1.6746 Y1.5399
G1 X1.6912 Y1.5582
G3 X1.6917 Y1.5596 I-0.0015 J0.0013
G1 Y1.5848
G1 Y1.6101
G3 X1.691 Y1.6116 I-0.002 J0.0
G1 X1.671 Y1.6297
G1 X1.6515 Y1.6473
G1 Y1.6684
G1 Y1.6904
G3 X1.6509 Y1.6919 I-0.002 J0.0
G1 X1.6325 Y1.7085
G1 X1.6142 Y1.7251
G3 X1.6128 Y1.7256 I-0.0013 J-0.0015
G1 X1.5875
G1 X1.5623
G3 X1.5608 Y1.725 I0.0 J-0.002
G1 X1.5442 Y1.7066
G1 X1.5276 Y1.6883
G3 X1.5271 Y1.6873 I0.0015 J-0.0013
G0 Z0.125
G0 X1.6676 Y1.6965
G0 Z0.0735
G1 F20.0 Z-0.004
G3 F40.0 X1.6683 Y1.6951 I0.002 J0.0001
G1 X1.6866 Y1.6785
G3 X1.6867 I0.0013 J0.0015
G1 X1.6894 Y1.6763
G3 X1.6935 Y1.6731 I0.0838 J0.1025
G1 X1.6955 Y1.6715
G1 X1.6956
G1 X1.6966 Y1.6708
G1 X1.6977 Y1.67
G3 X1.7031 Y1.6666 I0.0401 J0.057
G3 X1.709 Y1.6638 I0.0189 J0.0323
G3 X1.7134 Y1.6625 I0.0133 J0.0356
G1 X1.7144 Y1.6622
G1 X1.7176 Y1.6615
G3 X1.7181 Y1.6614 I0.0004 J0.0019
G1 X1.7279
G1 Y1.5386
G1 Y1.4155
G1 X1.702 Y1.4125
G1 X1.6744 Y1.4094
G3 X1.6727 Y1.4077 I0.0002 J-0.002
G1 X1.6697 Y1.3872
G1 X1.6668 Y1.3667
G3 X1.6674 Y1.365 I0.002 J-0.0003
G1 X1.6745 Y1.3579
G1 X1.6816 Y1.3507
G3 X1.683 Y1.3502 I0.0014 J0.0014
G1 X1.7318
G1 X1.7807
G3 X1.7825 Y1.3514 I0.0 J0.002
G1 X1.7888 Y1.3678
G1 X1.7951 Y1.3842
G3 X1.795 Y1.386 I-0.0019 J0.0007
G1 X1.7833 Y1.4046
G1 X1.772 Y1.4227
G1 Y1.5522
G1 Y1.6812
G1 X1.7811 Y1.6868
G1 X1.7911 Y1.693
G3 X1.7921 Y1.6947 I-0.0011 J0.0017
G1 Y1.7227
G1 Y1.7506
G3 X1.7914 Y1.7521 I-0.002 J0.0
G1 X1.7731 Y1.7687
G1 X1.7547 Y1.7854
G3 X1.7534 Y1.7859 I-0.0013 J-0.0015
G1 X1.7281
G1 X1.7028
G3 X1.7014 Y1.7852 I0.0 J-0.002
G1 X1.6847 Y1.7669
G1 X1.6681 Y1.7485
G3 X1.6676 Y1.7472 I0.0015 J-0.0013
G1 Y1.7219
G1 Y1.6966
G3 Y1.6965 I0.002 J0.0
G0 Z0.125
G0 X1.6956 Y1.2098
G0 Z0.0735
G1 F20.0 Z-0.004
G1 F40.0 X1.6745 Y1.2086
G3 X1.6727 Y1.2069 I0.0001 J-0.002
G1 X1.6697 Y1.1864
G1 X1.6668 Y1.1659
G3 X1.6674 Y1.1642 I0.002 J-0.0003
G1 X1.6745 Y1.1571
G3 X1.6748 Y1.1568 I0.0014 J0.0014
G3 X1.6757 Y1.1563 I0.0112 J0.0179
G3 X1.6819 Y1.1531 I0.0263 J0.0431
G1 Y1.153
G3 X1.6876 Y1.1513 I0.0133 J0.0333
G3 X1.6905 Y1.1507 I0.0094 J0.0417
G3 X1.6919 Y1.1505 I0.0232 J0.1507
G3 X1.6927 Y1.1504 I0.0021 J0.0123
G3 X1.6934 Y1.1503 I0.0016 J0.0098
G3 X1.6999 Y1.1497 I0.0139 J0.114
G3 X1.7007 I0.0015 J0.0153
G1 X1.7063 Y1.1494
G3 X1.7064 I0.0001 J0.002
G1 X1.7279
G1 Y1.0672
G1 Y0.9841
G1 X1.7135 Y0.9722
G1 X1.6985 Y0.9597
G3 X1.6977 Y0.9581 I0.0013 J-0.0015
G1 Y0.9408
G1 Y0.9236
G3 X1.6984 Y0.9221 I0.002 J0.0
G1 X1.7168 Y0.9055
G1 X1.7351 Y0.8888
G3 X1.7365 Y0.8883 I0.0013 J0.0015
G1 X1.7517
G1 X1.7669
G3 X1.7684 Y0.889 I0.0 J0.002
G1 X1.785 Y0.9073
G1 X1.8016 Y0.9257
G3 X1.8021 Y0.927 I-0.0015 J0.0013
G1 Y0.9426
G1 Y0.9581
G3 X1.8014 Y0.9597 I-0.002 J0.0
G1 X1.7863 Y0.9722
G1 X1.772 Y0.9841
G1 Y1.0624
G1 Y1.141
G1 X1.7833 Y1.1591
G1 X1.795 Y1.1778
G3 X1.7951 Y1.1795 I-0.0017 J0.0011
G1 X1.7886 Y1.1965
G1 X1.7821 Y1.2134
G3 X1.7802 Y1.2147 I-0.0019 J-0.0007
G1 X1.7273 Y1.2116
G1 X1.6956 Y1.2098
G0 Z0.125
G0 X0.7426 Y0.6053
G0 Z0.0735
G1 F20.0 Z-0.004
G3 F40.0 X0.7409 Y0.6062 I-0.0017 J-0.0011
G1 X0.6857
G1 X0.6305
G3 X0.6285 Y0.6045 I0.0 J-0.002
G1 X0.6253 Y0.5818
G1 X0.6221 Y0.5592
G3 X0.6233 Y0.557 I0.002 J-0.0003
G1 X0.6379 Y0.5514
G3 X0.6382 Y0.5513 I0.0007 J0.0019
G3 X0.6399 Y0.551 I0.0141 J0.0644
G3 X0.6414 Y0.5507 I0.0082 J0.0368
G3 X0.6427 Y0.5505 I0.0063 J0.0286
G3 X0.6438 Y0.5502 I0.0053 J0.0243
G1 X0.6477 Y0.5495
G3 X0.6498 Y0.5492 I0.006 J0.031
G3 X0.6518 Y0.5489 I0.0068 J0.0419
G3 X0.6624 Y0.5481 I0.014 J0.1111
G3 X0.6731 Y0.548 I0.0067 J0.1977
G1 X0.6791 Y0.5481
G3 X0.6803 Y0.5482 I-0.0003 J0.0311
G1 X0.6887 Y0.5485
G3 X0.6908 Y0.5486 I-0.0017 J0.0683
G3 X0.694 Y0.5487 I-0.0029 J0.1043
G3 X0.6972 Y0.5488 I-0.0063 J0.1802
G1 X0.7411 Y0.552
G3 X0.7429 Y0.554 I-0.0001 J0.002
G1 Y0.5791
G1 Y0.6042
G3 X0.7426 Y0.6053 I-0.002 J0.0
G0 Z0.125
G0 X0.7289 Y0.512
G0 Z0.0735
G1 F20.0 Z-0.004
G3 F40.0 X0.7285 I-0.0003 J-0.002
G1 X0.6167 Y0.505
G1 X0.5048 Y0.4979
G3 X0.503 Y0.4959 I0.0001 J-0.002
G1 Y0.3267
G1 Y0.1574
G3 X0.505 Y0.1554 I0.002 J0.0
G1 X0.5539
G1 X0.602
G1 X0.6139 Y0.1411
G1 X0.6264 Y0.126
G3 X0.6279 Y0.1253 I0.0015 J0.0013
G1 X0.6452
G1 X0.6625
G3 X0.664 Y0.1259 I0.0 J0.002
G1 X0.6806 Y0.1443
G1 X0.6972 Y0.1627
G3 X0.6977 Y0.164 I-0.0015 J0.0013
G1 Y0.1792
G1 Y0.1944
G3 X0.6971 Y0.1959 I-0.002 J0.0
G1 X0.6787 Y0.2125
G1 X0.6604 Y0.2292
G3 X0.659 Y0.2297 I-0.0013 J-0.0015
G1 X0.6435
G1 X0.6279
G3 X0.6264 Y0.229 I0.0 J-0.002
G1 X0.6139 Y0.2139
G1 X0.602 Y0.1996
G1 X0.574
G1 X0.5471
G1 Y0.3286
G1 Y0.4575
G1 X0.6426 Y0.4546
G1 X0.7402 Y0.4516
G3 X0.7422 Y0.4532 I0.0001 J0.002
G1 X0.746 Y0.4718
G1 X0.7498 Y0.4905
G3 X0.7492 Y0.4923 I-0.002 J0.0004
G1 X0.7396 Y0.5019
G1 X0.73 Y0.5115
G3 X0.7289 Y0.512 I-0.0014 J-0.0014
G0 Z0.125
G0 X0.326 Y0.2858
G0 Z0.0735
G1 F20.0 Z-0.004
G3 F40.0 X0.3256 Y0.2863 I-0.0017 J-0.001
G1 X0.3072 Y0.3029
G1 X0.2889 Y0.3195
G3 X0.2875 Y0.32 I-0.0013 J-0.0015
G1 X0.2623
G1 X0.237
G3 X0.2355 Y0.3194 I0.0 J-0.002
G1 X0.2189 Y0.301
G1 X0.2023 Y0.2827
G3 X0.2018 Y0.2813 I0.0015 J-0.0013
G1 Y0.2565
G1 Y0.2317
G3 X0.2024 Y0.2303 I0.002 J0.0
G1 X0.2144 Y0.2182
G1 X0.225 Y0.2076
G1 X0.2144 Y0.197
G1 X0.2024 Y0.1849
G3 X0.2018 Y0.1835 I0.0014 J-0.0014
G1 Y0.1569
G1 Y0.1304
G3 X0.2024 Y0.1289 I0.002 J0.0
G1 X0.2208 Y0.1123
G1 X0.2392 Y0.0957
G3 X0.2405 Y0.0952 I0.0013 J0.0015
G1 X0.2658
G1 X0.291
G3 X0.2925 Y0.0958 I0.0 J0.002
G1 X0.3091 Y0.1142
G1 X0.3257 Y0.1325
G3 X0.3263 Y0.1339 I-0.0015 J0.0013
G1 Y0.1587
G1 Y0.1835
G3 X0.3257 Y0.1849 I-0.002 J0.0
G1 X0.3136 Y0.197
G1 X0.303 Y0.2076
G1 X0.3136 Y0.2182
G1 X0.3257 Y0.2303
G3 X0.3263 Y0.2317 I-0.0014 J0.0014
G1 Y0.2583
G1 Y0.2848
G3 X0.326 Y0.2858 I-0.002 J0.0
G0 Z0.125
G0 X0.3111 Y2.7859
G0 Z0.0735
G1 F20.0 Z-0.004
G3 F40.0 X0.3126 Y2.7865 I0.0 J0.002
G1 X0.3283 Y2.8041
G1 X0.344 Y2.8217
G3 X0.3445 Y2.823 I-0.0015 J0.0013
G1 Y2.8883
G1 Y2.9535
G3 X0.344 Y2.9549 I-0.002 J0.0
G1 X0.3283 Y2.9724
G1 X0.3126 Y2.99
G3 X0.3111 Y2.9907 I-0.0015 J-0.0013
G1 X0.2841
G1 X0.2571
G3 X0.2556 Y2.99 I0.0 J-0.002
G1 X0.24 Y2.9724
G1 X0.2243 Y2.9549
G3 X0.2238 Y2.9535 I0.0015 J-0.0013
G1 X0.2236 Y2.8866
G1 X0.2234 Y2.8198
G3 X0.224 Y2.8183 I0.002 J0.0
G1 X0.2416 Y2.8023
G1 X0.2592 Y2.7864
G3 X0.2606 Y2.7859 I0.0013 J0.0015
G1 X0.2858
G1 X0.3111
G0 Z0.125
G0 X0.3842 Y2.8189
G0 Z0.0735
G1 F20.0 Z-0.004
G3 F40.0 X0.3847 Y2.8183 I0.0018 J0.0008
G1 X0.4023 Y2.8023
G1 X0.4199 Y2.7864
G3 X0.4212 Y2.7859 I0.0013 J0.0015
G1 X0.4465
G1 X0.4717
G3 X0.4732 Y2.7865 I0.0 J0.002
G1 X0.4889 Y2.8041
G1 X0.5047 Y2.8217
G3 X0.5052 Y2.823 I-0.0015 J0.0013
G1 Y2.8883
G1 Y2.9535
G3 X0.5047 Y2.9549 I-0.002 J0.0
G1 X0.4889 Y2.9724
G1 X0.4732 Y2.99
G3 X0.4717 Y2.9907 I-0.0015 J-0.0013
G1 X0.4447
G1 X0.4177
G3 X0.4162 Y2.99 I0.0 J-0.002
G1 X0.4006 Y2.9724
G1 X0.385 Y2.9549
G3 X0.3845 Y2.9535 I0.0015 J-0.0013
G1 X0.3842 Y2.8866
G1 X0.384 Y2.8198
G3 X0.3842 Y2.8189 I0.002 J0.0
G0 Z0.125
M5
M30
