( Made using CamBam - http://www.cambam.co.uk )
( statevariablepcb.gif 11/23/2014 10:46:42 PM )
( T1 : 0.04 )
( T2 : 0.031 )
( T3 : 0.0039 )
G20 G90 G64 G40
G0 Z0.125
( T1 : 0.04 )
T1 M6
( Drill1 )
G17
M3 S1000
G0 X0.319 Y0.195
G98
G81 X0.319 Y0.195 Z-0.075 R0.125 F20.0
G81 X0.4793 Y0.1972 Z-0.075
G81 X0.7633 Y0.1766 Z-0.075
G81 X0.9214 Y0.1743 Z-0.075
G81 X1.1046 Y0.1766 Z-0.075
G81 X1.3039 Z-0.075
G81 X1.4619 Y0.195 Z-0.075
G81 X1.6223 Z-0.075
G81 X0.7198 Y0.5958 Z-0.075
G81 X0.2777 Y1.5418 Z-0.075
G81 X1.2237 Y1.8006 Z-0.075
G81 X1.6223 Y1.7021 Z-0.075
G81 X1.6452 Y2.9688 Z-0.075
G80
( Drill2 )
G0 Z0.125
( T2 : 0.031 )
T2 M6
M3 S1000
G0 X1.6245 Y0.2774
G98
G81 X1.6245 Y0.2774 Z-0.075 R0.125 F20.0
G81 X1.4619 Z-0.075
G81 X1.3039 Y0.3393 Z-0.075
G81 X1.1046 Y0.337 Z-0.075
G81 X0.9214 Z-0.075
G81 X0.7221 Z-0.075
G81 X0.4793 Y0.2774 Z-0.075
G81 X0.319 Z-0.075
G81 Y0.6783 Z-0.075
G81 X0.4793 Z-0.075
G81 X0.28 Y0.8386 Z-0.075
G81 X0.1769 Z-0.075
G81 X0.2777 Y0.9783 Z-0.075
G81 X0.28 Y1.118 Z-0.075
G81 X0.319 Y1.3013 Z-0.075
G81 X0.3167 Y1.4616 Z-0.075
G81 X0.1769 Y1.3998 Z-0.075
G81 X0.4381 Y1.5807 Z-0.075
G81 X0.3396 Y1.6998 Z-0.075
G81 X0.1792 Y1.7411 Z-0.075
G81 X0.1815 Y1.8418 Z-0.075
G81 Y1.9426 Z-0.075
G81 X0.1586 Y2.1831 Z-0.075
G81 X0.2777 Y2.3045 Z-0.075
G81 X0.3991 Y2.4465 Z-0.075
G81 X0.5388 Y2.6664 Z-0.075
G81 X0.4403 Y2.7466 Z-0.075
G81 X0.2777 Y2.7054 Z-0.075
G81 X0.1586 Y2.5863 Z-0.075
G81 X0.4381 Y2.9459 Z-0.075
G81 X0.5595 Y2.8657 Z-0.075
G81 X0.6786 Y2.9482 Z-0.075
G81 Y2.7672 Z-0.075
G81 X0.8595 Y2.7855 Z-0.075
G81 X0.9191 Y2.6435 Z-0.075
G81 X0.9214 Y2.545 Z-0.075
G81 X0.9236 Y2.4442 Z-0.075
G81 Y2.3457 Z-0.075
G81 X0.9214 Y2.245 Z-0.075
G81 Y2.1442 Z-0.075
G81 Y2.0434 Z-0.075
G81 Y1.9426 Z-0.075
G81 X0.8206 Y1.7021 Z-0.075
G81 X0.7427 Z-0.075
G81 X0.6396 Y1.583 Z-0.075
G81 X0.7404 Y1.4616 Z-0.075
G81 X0.7816 Y1.3998 Z-0.075
G81 Y1.299 Z-0.075
G81 X0.7198 Z-0.075
G81 X0.6809 Y1.118 Z-0.075
G81 Y0.9806 Z-0.075
G81 Y0.8386 Z-0.075
G81 X0.9259 Y0.8409 Z-0.075
G81 X0.9236 Y0.7401 Z-0.075
G81 X0.8206 Y0.5981 Z-0.075
G81 X0.9236 Y0.9417 Z-0.075
G81 Y1.0402 Z-0.075
G81 X0.9214 Y1.1409 Z-0.075
G81 X0.9236 Y1.2417 Z-0.075
G81 Y1.3402 Z-0.075
G81 Y1.4799 Z-0.075
G81 X1.2237 Y1.6197 Z-0.075
G81 Y1.7021 Z-0.075
G81 Y1.9426 Z-0.075
G81 Y2.0434 Z-0.075
G81 Y2.1442 Z-0.075
G81 Y2.2427 Z-0.075
G81 Y2.3457 Z-0.075
G81 Y2.442 Z-0.075
G81 X1.226 Y2.5473 Z-0.075
G81 X1.2237 Y2.6435 Z-0.075
G81 X1.2626 Y2.7878 Z-0.075
G81 Y2.9482 Z-0.075
G81 X1.5031 Y2.7466 Z-0.075
G81 X1.6475 Y2.8657 Z-0.075
G81 Y2.4649 Z-0.075
G81 X1.5054 Y2.3457 Z-0.075
G81 Y2.1854 Z-0.075
G81 X1.5031 Y2.0045 Z-0.075
G81 X1.6223 Y1.6197 Z-0.075
G81 X1.565 Y1.4799 Z-0.075
G81 Y1.3608 Z-0.075
G81 X1.7666 Z-0.075
G81 X1.7643 Y0.96 Z-0.075
G81 X1.7437 Y0.8363 Z-0.075
G81 X1.6223 Y0.6783 Z-0.075
G81 X1.4642 Z-0.075
G81 X1.3428 Y0.8386 Z-0.075
G81 X1.2214 Y0.8363 Z-0.075
G81 Y0.7378 Z-0.075
G81 Y0.5981 Z-0.075
G81 Y0.9371 Z-0.075
G81 Y1.0379 Z-0.075
G81 Y1.1386 Z-0.075
G81 Y1.2394 Z-0.075
G81 X1.2237 Y1.3379 Z-0.075
G81 X1.3634 Y1.3814 Z-0.075
G81 Y1.2784 Z-0.075
G81 Y1.2188 Z-0.075
G81 Y1.0402 Z-0.075
G81 X1.565 Y0.96 Z-0.075
G81 X0.5411 Y1.9426 Z-0.075
G81 X0.4426 Y2.064 Z-0.075
G81 X0.5388 Y2.1831 Z-0.075
G81 X0.6992 Y2.4465 Z-0.075
G81 X0.8595 Y2.9459 Z-0.075
G80
( Engrave1 )
G0 Z0.125
( T3 : 0.0039 )
T3 M6
M3 S1000
G0 X0.9516 Y3.1099
G0 Z0.0748
G1 F20.0 Z-0.0027
G1 F40.0 X0.0179
G3 X0.0159 Y3.1079 I0.0 J-0.002
G1 Y2.8971
G1 Y2.6862
G3 X0.0179 Y2.6842 I0.002 J0.0
G1 X0.1271
G1 X0.2353
G1 X0.2472 Y2.6699
G1 X0.2597 Y2.6548
G3 X0.2613 Y2.6541 I0.0015 J0.0013
G1 X0.2786
G1 X0.2959
G3 X0.2973 Y2.6548 I0.0 J0.002
G1 X0.314 Y2.6731
G1 X0.3306 Y2.6915
G3 X0.3311 Y2.6928 I-0.0015 J0.0013
G1 Y2.7081
G1 Y2.7233
G3 X0.3304 Y2.7248 I-0.002 J0.0
G1 X0.3121 Y2.7414
G1 X0.2937 Y2.758
G3 X0.2924 Y2.7585 I-0.0013 J-0.0015
G1 X0.2768
G1 X0.2613
G3 X0.2597 Y2.7578 I0.0 J-0.002
G1 X0.2472 Y2.7427
G1 X0.2353 Y2.7284
G1 X0.1471
G1 X0.06
G1 Y2.8971
G1 Y3.0658
G1 X0.9516
G1 X1.8431
G1 Y1.7726
G1 Y0.4794
G1 X1.4837
G1 X1.1243
G1 Y0.7478
G1 Y1.0162
G1 X1.2 Y1.0144
G1 X1.2778 Y1.0126
G3 X1.2799 Y1.0146 I0.0 J0.002
G1 Y1.0397
G1 Y1.0648
G3 X1.2778 Y1.0668 I-0.002 J0.0
G1 X1.2 Y1.0649
G1 X1.1243 Y1.0632
G1 Y1.5919
G1 Y2.1206
G1 X1.1997 Y2.1188
G1 X1.2772 Y2.117
G3 X1.2792 Y2.1186 I0.0 J0.002
G1 X1.283 Y2.1372
G1 X1.2867 Y2.1559
G3 X1.2862 Y2.1577 I-0.002 J0.0004
G1 X1.2761 Y2.1678
G1 X1.266 Y2.1779
G3 X1.2644 Y2.1785 I-0.0014 J-0.0014
G1 X1.1732 Y2.1712
G1 X1.0819 Y2.164
G3 X1.0801 Y2.162 I0.0002 J-0.002
G1 Y1.2811
G1 Y0.4011
G1 X1.0607 Y0.3835
G1 X1.0406 Y0.3654
G3 X1.0399 Y0.3639 I0.0013 J-0.0015
G1 Y0.3369
G1 Y0.3099
G3 X1.0406 Y0.3084 I0.002 J0.0
G1 X1.0607 Y0.2902
G1 X1.0801 Y0.2726
G1 Y0.2566
G1 Y0.2405
G1 X1.0607 Y0.2229
G1 X1.0406 Y0.2047
G3 X1.0399 Y0.2032 I0.0013 J-0.0015
G1 Y0.1762
G1 Y0.1492
G3 X1.0406 Y0.1477 I0.002 J0.0
G1 X1.059 Y0.1311
G1 X1.0773 Y0.1145
G3 X1.0787 Y0.114 I0.0013 J0.0015
G1 X1.1039
G1 X1.1292
G3 X1.1307 Y0.1147 I0.0 J0.002
G1 X1.1473 Y0.133
G1 X1.1639 Y0.1514
G3 X1.1644 Y0.1527 I-0.0015 J0.0013
G1 Y0.178
G1 Y0.2032
G3 X1.1638 Y0.2047 I-0.002 J0.0
G1 X1.1437 Y0.2229
G1 X1.1243 Y0.2405
G1 Y0.2566
G1 Y0.2726
G1 X1.1437 Y0.2902
G1 X1.1638 Y0.3084
G3 X1.1644 Y0.3099 I-0.0013 J0.0015
G1 Y0.3369
G1 Y0.3639
G3 X1.1638 Y0.3654 I-0.002 J0.0
G1 X1.1437 Y0.3835
G1 X1.1243 Y0.4011
G1 Y0.4188
G1 Y0.4353
G1 X1.5038
G1 X1.8853
G3 X1.8873 Y0.4373 I0.0 J0.002
G1 Y1.7726
G1 Y3.1079
G3 X1.8853 Y3.1099 I-0.002 J0.0
G1 X0.9516
G0 Z0.125
G0 X0.8758 Y2.9991
G0 Z0.0748
G1 F20.0 Z-0.0027
G3 F40.0 X0.8747 Y2.9995 I-0.0011 J-0.0017
G1 X0.8591
G1 X0.8436
G3 X0.8421 Y2.9988 I0.0 J-0.002
G1 X0.8296 Y2.9837
G1 X0.8177 Y2.9694
G1 X0.7709
G1 X0.7241
G1 X0.7122 Y2.9837
G1 X0.6997 Y2.9988
G3 X0.6981 Y2.9995 I-0.0015 J-0.0013
G1 X0.6808
G1 X0.6635
G3 X0.662 Y2.9988 I0.0 J-0.002
G1 X0.6454 Y2.9805
G1 X0.6288 Y2.9621
G3 X0.6283 Y2.9608 I0.0015 J-0.0013
G1 Y2.9455
G1 Y2.9303
G3 X0.629 Y2.9288 I0.002 J0.0
G1 X0.6473 Y2.9122
G1 X0.6657 Y2.8956
G3 X0.667 Y2.8951 I0.0013 J0.0015
G1 X0.6826
G1 X0.6981
G3 X0.6997 Y2.8958 I0.0 J0.002
G1 X0.7122 Y2.9109
G1 X0.7241 Y2.9252
G1 X0.7709
G1 X0.8177
G1 X0.8296 Y2.9109
G1 X0.8421 Y2.8958
G3 X0.8436 Y2.8951 I0.0015 J0.0013
G1 X0.8609
G1 X0.8782
G3 X0.8797 Y2.8957 I0.0 J0.002
G1 X0.8963 Y2.9141
G1 X0.9129 Y2.9325
G3 X0.9134 Y2.9338 I-0.0015 J0.0013
G1 Y2.949
G1 Y2.9642
G3 X0.9128 Y2.9657 I-0.002 J0.0
G1 X0.8944 Y2.9823
G1 X0.876 Y2.999
G3 X0.8758 Y2.9991 I-0.0013 J-0.0015
G0 Z0.125
G0 X0.8747 Y2.8388
G0 Z0.0748
G1 F20.0 Z-0.0027
G1 F40.0 X0.8586
G1 X0.8426
G3 X0.841 Y2.8381 I0.0 J-0.002
G1 X0.8213 Y2.813
G1 X0.8021 Y2.7886
G1 X0.7631
G1 X0.7241
G1 X0.7122 Y2.803
G1 X0.6997 Y2.818
G3 X0.6981 Y2.8188 I-0.0015 J-0.0013
G1 X0.6808
G1 X0.6635
G3 X0.662 Y2.8181 I0.0 J-0.002
G1 X0.6454 Y2.7997
G1 X0.6288 Y2.7814
G3 X0.6283 Y2.78 I0.0015 J-0.0013
G1 Y2.7648
G1 Y2.7496
G3 X0.629 Y2.7481 I0.002 J0.0
G1 X0.6473 Y2.7315
G1 X0.6657 Y2.7149
G3 X0.667 Y2.7144 I0.0013 J0.0015
G1 X0.6826
G1 X0.6981
G3 X0.6997 Y2.7151 I0.0 J0.002
G1 X0.7132 Y2.7314
G1 X0.7261 Y2.747
G1 X0.8025 Y2.7417
G1 X0.8798 Y2.7364
G3 X0.8815 Y2.7371 I0.0001 J0.002
G1 X0.8972 Y2.7545
G3 X0.8973 Y2.7546 I-0.0015 J0.0013
G3 X0.8993 Y2.7572 I-0.2043 J0.161
G1 X0.9009 Y2.7592
G3 X0.9053 Y2.7656 I-0.0691 J0.0531
G3 X0.9086 Y2.7714 I-0.05 J0.0322
G3 X0.9112 Y2.7777 I-0.0393 J0.0196
G3 X0.9125 Y2.7829 I-0.0478 J0.0147
G1 X0.9127 Y2.7842
G1 X0.9134 Y2.788
G3 Y2.7884 I-0.002 J0.0003
G1 Y2.8036
G3 X0.9128 Y2.8051 I-0.002 J0.0
G1 X0.8944 Y2.8217
G1 X0.876 Y2.8383
G3 X0.8747 Y2.8388 I-0.0013 J-0.0015
G0 Z0.125
G0 X0.8699 Y2.6731
G0 Z0.0748
G1 F20.0 Z-0.0027
G1 F40.0 X0.8669 Y2.6732
G3 X0.8649 Y2.6716 I-0.0001 J-0.002
G1 X0.8611 Y2.6529
G1 X0.8574 Y2.6343
G3 X0.8579 Y2.6325 I0.002 J-0.0004
G1 X0.8678 Y2.6226
G1 X0.8776 Y2.6128
G3 X0.8792 Y2.6122 I0.0014 J0.0014
G1 X0.9807 Y2.6194
G1 X1.0822 Y2.6266
G3 X1.0841 Y2.6286 I-0.0001 J0.002
G1 Y2.6976
G1 Y2.7646
G1 X1.1511
G1 X1.2193
G1 X1.2312 Y2.7502
G1 X1.2437 Y2.7352
G3 X1.2452 Y2.7344 I0.0015 J0.0013
G1 X1.2625
G1 X1.2798
G3 X1.2813 Y2.7351 I0.0 J0.002
G1 X1.2979 Y2.7535
G1 X1.3145 Y2.7718
G3 X1.315 Y2.7732 I-0.0015 J0.0013
G1 Y2.7884
G1 Y2.8036
G3 X1.3144 Y2.8051 I-0.002 J0.0
G1 X1.296 Y2.8217
G1 X1.2776 Y2.8383
G3 X1.2763 Y2.8388 I-0.0013 J-0.0015
G1 X1.2607
G1 X1.2452
G3 X1.2437 Y2.8381 I0.0 J-0.002
G1 X1.2312 Y2.8231
G1 X1.2193 Y2.8087
G1 X1.1311
G1 X1.0419
G3 X1.0399 Y2.8067 I0.0 J-0.002
G1 Y2.7364
G1 Y2.6682
G1 X0.9545 Y2.6706
G1 X0.8699 Y2.6731
G0 Z0.125
G0 X0.8771 Y2.5736
G0 Z0.0748
G1 F20.0 Z-0.0027
G1 F40.0 X0.8661 Y2.5728
G3 X0.8642 Y2.5708 I0.0001 J-0.002
G1 Y2.5457
G1 Y2.5206
G3 X0.8662 Y2.5186 I0.002 J0.0
G1 X0.9215
G1 X0.9767
G3 X0.9787 Y2.5203 I0.0 J0.002
G1 X0.9819 Y2.5429
G1 X0.9851 Y2.5656
G3 X0.9838 Y2.5677 I-0.002 J0.0003
G1 X0.9692 Y2.5733
G3 X0.9689 Y2.5734 I-0.0007 J-0.0019
G3 X0.9672 Y2.5738 I-0.014 J-0.0644
G3 X0.9658 Y2.5741 I-0.0082 J-0.0368
G3 X0.9645 Y2.5743 I-0.0063 J-0.0286
G3 X0.9633 Y2.5745 I-0.0053 J-0.0243
G1 X0.9594 Y2.5752
G3 X0.9574 Y2.5756 I-0.006 J-0.031
G3 X0.9554 Y2.5758 I-0.0068 J-0.0419
G3 X0.9447 Y2.5767 I-0.014 J-0.1111
G3 X0.9341 I-0.0067 J-0.1977
G1 X0.9281 Y2.5766
G3 X0.9269 I0.0003 J-0.0311
G1 X0.9185 Y2.5763
G3 X0.9163 Y2.5762 I0.0017 J-0.0683
G3 X0.9131 Y2.5761 I0.0029 J-0.1043
G3 X0.9099 Y2.5759 I0.0063 J-0.1804
G1 X0.8771 Y2.5736
G0 Z0.125
G0 X0.823 Y2.566
G0 Z0.0748
G1 F20.0 Z-0.0027
G3 F40.0 X0.8211 Y2.5678 I-0.002 J-0.0003
G1 X0.7006
G1 X0.5801
G3 X0.5781 Y2.5658 I0.0 J-0.002
G1 Y2.4051
G1 Y2.2445
G3 X0.5801 Y2.2425 I0.002 J0.0
G1 X0.6303
G1 X0.6785
G1 Y1.9599
G1 Y1.6753
G3 X0.6792 Y1.6738 I0.002 J0.0
G1 X0.6967 Y1.6581
G1 X0.7143 Y1.6424
G3 X0.7156 Y1.6419 I0.0013 J0.0015
G1 X0.7809
G1 X0.8462
G3 X0.8475 Y1.6424 I0.0 J0.002
G1 X0.8651 Y1.6581
G1 X0.8826 Y1.6738
G3 X0.8833 Y1.6753 I-0.0013 J0.0015
G1 Y1.7023
G1 Y1.7293
G3 X0.8826 Y1.7308 I-0.002 J0.0
G1 X0.8633 Y1.7483
G1 X0.844 Y1.7658
G3 X0.8425 Y1.7663 I-0.0013 J-0.0015
G1 X0.8091 Y1.764
G2 X0.804 Y1.7637 I-0.0351 J0.614
G2 X0.7886 Y1.763 I-0.0549 J1.0396
G1 X0.7831 Y1.7628
G2 X0.775 Y1.7627 I-0.0104 J0.3651
G1 X0.7749
G2 X0.7709 I-0.003 J0.1912
G1 X0.7708
G2 X0.7668 I-0.0013 J0.1772
G2 X0.7622 I0.0024 J0.3494
G1 X0.7552 Y1.7629
G1 X0.7483 Y1.7631
G1 X0.7227 Y1.7645
G1 Y2.0236
G1 Y2.2846
G3 X0.7207 Y2.2866 I-0.002 J0.0
G1 X0.6705
G1 X0.6223
G1 Y2.4051
G1 Y2.5236
G1 X0.7006
G1 X0.7789
G1 Y2.4765
G1 Y2.4273
G3 X0.7807 Y2.4253 I0.002 J0.0
G1 X0.8704 Y2.4182
G1 X0.9601 Y2.4111
G3 X0.9613 Y2.4114 I0.0002 J0.002
G1 X0.972 Y2.4181
G1 X0.9827 Y2.4247
G3 X0.9837 Y2.4264 I-0.0011 J0.0017
G1 Y2.4462
G1 Y2.466
G3 X0.9824 Y2.4679 I-0.002 J0.0
G1 X0.9667 Y2.4739
G1 X0.951 Y2.4799
G3 X0.9501 Y2.48 I-0.0007 J-0.0019
G1 X0.8855 Y2.4734
G1 X0.8231 Y2.467
G1 Y2.5153
G1 Y2.5658
G3 X0.823 Y2.566 I-0.002 J0.0
G0 Z0.125
G0 X0.7402 Y2.4745
G0 Z0.0748
G1 F20.0 Z-0.0027
G1 F40.0 X0.7338 Y2.4803
G1 X0.7154 Y2.497
G3 X0.7141 Y2.4975 I-0.0013 J-0.0015
G1 X0.6988
G1 X0.6836
G3 X0.6821 Y2.4968 I0.0 J-0.002
G1 X0.6655 Y2.4785
G1 X0.6489 Y2.4601
G3 X0.6484 Y2.4588 I0.0015 J-0.0013
G1 Y2.4432
G1 Y2.4277
G3 X0.6491 Y2.4261 I0.002 J0.0
G1 X0.6642 Y2.4136
G1 X0.6785 Y2.4017
G1 Y2.3637
G1 Y2.3248
G3 X0.6805 Y2.3228 I0.002 J0.0
G1 X0.7784 Y2.3212
G3 X0.8004 Y2.321 I0.0809 J8.5541
G3 X0.8169 Y2.3209 I0.0465 J4.8852
G3 X0.8416 Y2.3207 I0.0495 J5.2516
G3 X0.8664 Y2.3206 I0.0485 J6.3402
G1 X0.9005 Y2.3205
G1 X0.9262 Y2.3204
G1 X0.9646
G3 X1.003 Y2.3205 I0.0002 J15.267
G3 X1.0225 I-0.0005 J5.5035
G3 X1.0395 I-0.0038 J5.7004
G3 X1.0693 Y2.3206 I-0.0065 J8.6864
G3 X1.0916 Y2.3207 I-0.0138 J9.1215
G3 X1.1251 Y2.3208 I-0.0266 J14.741
G3 X1.1587 Y2.3209 I-0.0819 J32.118
G1 X1.4401 Y2.3221
G1 X1.4574 Y2.303
G1 X1.4753 Y2.2833
G3 X1.4768 Y2.2826 I0.0015 J0.0013
G1 X1.5038
G1 X1.5308
G3 X1.5323 Y2.2833 I0.0 J0.002
G1 X1.5504 Y2.3034
G1 X1.568 Y2.3228
G1 X1.5957
G1 X1.6223
G1 Y2.1742
G1 Y2.0256
G1 X1.5957
G1 X1.568
G1 X1.5504 Y2.045
G1 X1.5323 Y2.0651
G3 X1.5308 Y2.0658 I-0.0015 J-0.0013
G1 X1.5038
G1 X1.4768
G3 X1.4753 Y2.0651 I0.0 J-0.002
G1 X1.4587 Y2.0467
G1 X1.442 Y2.0284
G3 X1.4415 Y2.027 I0.0015 J-0.0013
G1 Y2.0018
G1 Y1.9765
G3 X1.4422 Y1.975 I0.002 J0.0
G1 X1.4623 Y1.9569
G1 X1.4817 Y1.9393
G1 Y1.8815
G1 Y1.8228
G3 X1.4837 Y1.8208 I0.002 J0.0
G1 X1.5941
G1 X1.7026
G1 Y1.6822
G1 Y1.5437
G1 X1.6745
G1 X1.6443
G3 X1.6423 Y1.5417 I0.0 J-0.002
G1 Y1.311
G1 Y1.0823
G1 X1.4862 Y1.0796
G1 X1.328 Y1.0768
G3 X1.3261 Y1.0749 I0.0 J-0.002
G1 X1.3231 Y1.0179
G1 X1.3202 Y0.9628
G1 X1.2451 Y0.9646
G1 X1.1681 Y0.9664
G3 X1.1661 Y0.9648 I0.0 J-0.002
G1 X1.1623 Y0.9461
G1 X1.1586 Y0.9275
G3 X1.1591 Y0.9257 I0.002 J-0.0004
G1 X1.1692 Y0.9156
G1 X1.1793 Y0.9055
G3 X1.1809 Y0.9049 I0.0014 J0.0014
G1 X1.2721 Y0.9121
G1 X1.3634 Y0.9193
G3 X1.3652 Y0.9213 I-0.0002 J0.002
G1 Y0.9549
G1 Y0.9877
G1 X1.3902 Y1.0127
G1 X1.4152 Y1.0377
G1 X1.5494
G1 X1.6845
G3 X1.6865 Y1.0397 I0.0 J0.002
G1 Y1.2706
G1 Y1.4995
G1 X1.7146
G1 X1.7447
G3 X1.7467 Y1.5015 I0.0 J0.002
G1 Y1.6822
G1 Y1.863
G3 X1.7447 Y1.865 I-0.002 J0.0
G1 X1.6343
G1 X1.5259
G1 Y1.9014
G1 Y1.9389
G1 X1.5485 Y1.9602
G1 X1.5711 Y1.9814
G1 X1.6174
G1 X1.6644
G3 X1.6664 Y1.9834 I0.0 J0.002
G1 Y2.1927
G1 Y2.4011
G1 X1.6858 Y2.4187
G1 X1.7059 Y2.4369
G3 X1.7066 Y2.4384 I-0.0013 J0.0015
G1 Y2.4654
G1 Y2.4924
G3 X1.7059 Y2.4939 I-0.002 J0.0
G1 X1.6876 Y2.5105
G1 X1.6692 Y2.5271
G3 X1.6679 Y2.5276 I-0.0013 J-0.0015
G1 X1.6426
G1 X1.6173
G3 X1.6158 Y2.5269 I0.0 J-0.002
G1 X1.5992 Y2.5086
G1 X1.5826 Y2.4902
G3 X1.5821 Y2.4889 I0.0015 J-0.0013
G1 Y2.4636
G1 Y2.4384
G3 X1.5828 Y2.4369 I0.002 J0.0
G1 X1.6028 Y2.4187
G1 X1.6223 Y2.4011
G1 Y2.3835
G1 Y2.367
G1 X1.5957
G1 X1.568
G1 X1.5504 Y2.3864
G1 X1.5323 Y2.4065
G3 X1.5308 Y2.4071 I-0.0015 J-0.0013
G1 X1.5038
G1 X1.4768
G3 X1.4753 Y2.4065 I0.0 J-0.002
G1 X1.4583 Y2.3877
G1 X1.4419 Y2.3696
G1 X1.0817 Y2.3698
G1 X0.7227 Y2.3701
G1 Y2.3854
G1 Y2.4017
G1 X0.737 Y2.4136
G1 X0.7521 Y2.4261
G3 X0.7528 Y2.4277 I-0.0013 J0.0015
G1 Y2.445
G1 Y2.4622
G3 X0.7521 Y2.4637 I-0.002 J0.0
G1 X0.7402 Y2.4745
G0 Z0.125
G0 X0.5419
G0 Z0.0748
G1 F20.0 Z-0.0027
G1 F40.0 Y2.6071
G1 X0.565 Y2.6252
G1 X0.5889 Y2.644
G3 X0.5896 Y2.6457 I-0.0012 J0.0016
G1 X0.5846 Y2.734
G1 X0.5796 Y2.8214
G1 X0.5952 Y2.8343
G1 X0.6115 Y2.8478
G3 X0.6122 Y2.8493 I-0.0013 J0.0015
G1 Y2.8666
G1 Y2.8839
G3 X0.6116 Y2.8854 I-0.002 J0.0
G1 X0.5932 Y2.902
G1 X0.5748 Y2.9186
G3 X0.5735 Y2.9192 I-0.0013 J-0.0015
G1 X0.5583
G1 X0.543
G3 X0.5416 Y2.9185 I0.0 J-0.002
G1 X0.5249 Y2.9001
G1 X0.5083 Y2.8818
G3 X0.5078 Y2.8804 I0.0015 J-0.0013
G1 Y2.8649
G1 Y2.8493
G3 X0.5085 Y2.8478 I0.002 J0.0
G1 X0.5236 Y2.8353
G1 X0.5379 Y2.8234
G1 Y2.7745
G1 Y2.7256
G1 X0.5169 Y2.7086
G1 X0.4952 Y2.691
G3 X0.4945 Y2.6894 I0.0013 J-0.0016
G1 X0.4969 Y2.4468
G1 X0.4992 Y2.2063
G1 X0.4001
G1 X0.301
G1 Y2.2332
G1 Y2.2612
G1 X0.3153 Y2.2731
G1 X0.3304 Y2.2856
G3 X0.3311 Y2.2871 I-0.0013 J0.0015
G1 Y2.3044
G1 Y2.3217
G3 X0.3304 Y2.3232 I-0.002 J0.0
G1 X0.3121 Y2.3398
G1 X0.2937 Y2.3564
G3 X0.2924 Y2.3569 I-0.0013 J-0.0015
G1 X0.2771
G1 X0.2619
G3 X0.2604 Y2.3563 I0.0 J-0.002
G1 X0.2438 Y2.3379
G1 X0.2272 Y2.3195
G3 X0.2267 Y2.3182 I0.0015 J-0.0013
G1 Y2.3026
G1 Y2.2871
G3 X0.2274 Y2.2856 I0.002 J0.0
G1 X0.2425 Y2.2731
G1 X0.2568 Y2.2612
G1 Y2.2131
G1 Y2.1642
G3 X0.2588 Y2.1622 I0.002 J0.0
G1 X0.3781
G1 X0.4964
G1 X0.5083 Y2.1478
G1 X0.5208 Y2.1328
G3 X0.5223 Y2.132 I0.0015 J0.0013
G1 X0.5396
G1 X0.5569
G3 X0.5584 Y2.1327 I0.0 J0.002
G1 X0.575 Y2.1511
G1 X0.5916 Y2.1694
G3 X0.5921 Y2.1708 I-0.0015 J0.0013
G1 Y2.1868
G1 Y2.2029
G3 X0.5914 Y2.2044 I-0.002 J0.0
G1 X0.5663 Y2.2242
G1 X0.5419 Y2.2433
G1 Y2.4252
G1 Y2.4745
G0 Z0.125
G0 X0.4454 Y2.4719
G0 Z0.0748
G1 F20.0 Z-0.0027
G1 F40.0 X0.443 Y2.5576
G1 X0.4395 Y2.6858
G1 X0.4648 Y2.7057
G1 X0.491 Y2.7263
G3 X0.4917 Y2.7279 I-0.0012 J0.0016
G1 Y2.746
G1 Y2.7641
G3 X0.491 Y2.7656 I-0.002 J0.0
G1 X0.476 Y2.7781
G1 X0.4616 Y2.79
G1 Y2.8469
G1 Y2.9037
G1 X0.476 Y2.9156
G1 X0.491 Y2.9281
G3 X0.4917 Y2.9297 I-0.0013 J0.0015
G1 Y2.947
G1 Y2.9642
G3 X0.4911 Y2.9657 I-0.002 J0.0
G1 X0.4727 Y2.9823
G1 X0.4544 Y2.999
G3 X0.453 Y2.9995 I-0.0013 J-0.0015
G1 X0.4378
G1 X0.4226
G3 X0.4211 Y2.9988 I0.0 J-0.002
G1 X0.4045 Y2.9805
G1 X0.3879 Y2.9621
G3 X0.3873 Y2.9608 I0.0015 J-0.0013
G1 Y2.9452
G1 Y2.9297
G3 X0.3881 Y2.9281 I0.002 J0.0
G1 X0.4031 Y2.9156
G1 X0.4175 Y2.9037
G1 Y2.8477
G1 Y2.7915
G1 X0.4055 Y2.7795
G1 X0.3929 Y2.767
G3 X0.3924 Y2.7655 I0.0014 J-0.0014
G1 X0.3959 Y2.6348
G1 X0.3994 Y2.5052
G1 X0.3816 Y2.4917
G1 X0.3636 Y2.478
G1 X0.2764 Y2.4777
G1 X0.1905 Y2.4774
G1 Y2.5107
G1 Y2.5454
G1 X0.2027 Y2.5649
G1 X0.2152 Y2.5848
G3 Y2.587 I-0.0017 J0.0011
G1 X0.2045 Y2.6038
G3 Y2.6039 I-0.0017 J-0.0011
G3 X0.2035 Y2.6052 I-0.0666 J-0.0478
G3 X0.2027 Y2.6063 I-0.0383 J-0.0273
G3 X0.202 Y2.6073 I-0.0301 J-0.0216
G3 X0.2007 Y2.609 I-0.0355 J-0.0254
G3 X0.1967 Y2.614 I-0.0892 J-0.0672
G3 X0.1866 Y2.6241 I-0.0681 J-0.058
G3 X0.1816 Y2.6281 I-0.078 J-0.0925
G1 X0.179 Y2.63
G1 X0.1765 Y2.6319
G3 X0.1764 Y2.632 I-0.0012 J-0.0016
G1 X0.1595 Y2.6426
G3 X0.1573 I-0.0011 J-0.0017
G1 X0.1404 Y2.632
G3 X0.1403 Y2.6319 I0.0011 J-0.0017
G3 X0.1391 Y2.631 I0.048 J-0.0668
G3 X0.1379 Y2.6302 I0.0274 J-0.0384
G3 X0.137 Y2.6294 I0.0217 J-0.0302
G3 X0.1353 Y2.6281 I0.0256 J-0.0358
G3 X0.1303 Y2.6241 I0.0685 J-0.0908
G1 X0.1302
G3 X0.1201 Y2.614 I0.0576 J-0.0678
G3 X0.1161 Y2.609 I0.0939 J-0.0792
G1 X0.1142 Y2.6065
G1 X0.1124 Y2.604
G3 X0.1123 Y2.6038 I0.0016 J-0.0012
G1 X0.1016 Y2.587
G3 Y2.5848 I0.0017 J-0.0011
G1 X0.1141 Y2.5649
G1 X0.1263 Y2.5454
G1 Y2.5107
G1 Y2.4774
G1 X0.0801
G1 X0.0319
G3 X0.0305 Y2.4768 I0.0 J-0.002
G1 X0.0184 Y2.4648
G1 X0.0064 Y2.4527
G3 X0.0058 Y2.4513 I0.0014 J-0.0014
G1 Y1.2397
G1 Y0.0281
G3 X0.0065 Y0.0266 I0.002 J0.0
G1 X0.0202 Y0.0152
G1 X0.0339 Y0.0039
G3 X0.0352 Y0.0034 I0.0013 J0.0015
G1 X0.6816 Y0.006
G1 X1.3281 Y0.0086
G3 X1.3301 Y0.0105 I0.0 J0.002
G1 X1.3331 Y0.0674
G1 X1.336 Y0.1234
G1 X1.3499 Y0.1349
G1 X1.3645 Y0.147
G3 X1.3652 Y0.1486 I-0.0013 J0.0015
G1 Y0.1762
G1 Y0.2039
G3 X1.3645 Y0.2054 I-0.002 J0.0
G1 X1.3494 Y0.2179
G1 X1.3351 Y0.2298
G1 Y0.2566
G1 Y0.2833
G1 X1.3494 Y0.2952
G1 X1.3645 Y0.3077
G3 X1.3652 Y0.3092 I-0.0013 J0.0015
G1 Y0.3366
G1 Y0.3639
G3 X1.3646 Y0.3654 I-0.002 J0.0
G1 X1.3462 Y0.382
G1 X1.3278 Y0.3986
G3 X1.3265 Y0.3991 I-0.0013 J-0.0015
G1 X1.3012
G1 X1.276
G3 X1.2745 Y0.3985 I0.0 J-0.002
G1 X1.2579 Y0.3801
G1 X1.2412 Y0.3617
G3 X1.2407 Y0.3604 I0.0015 J-0.0013
G1 Y0.3348
G1 Y0.3092
G3 X1.2415 Y0.3077 I0.002 J0.0
G1 X1.2565 Y0.2952
G1 X1.2709 Y0.2833
G1 Y0.2566
G1 Y0.2298
G1 X1.2565 Y0.2179
G1 X1.2415 Y0.2054
G3 X1.2407 Y0.2039 I0.0013 J-0.0015
G1 Y0.1762
G1 Y0.1486
G3 X1.2415 Y0.147 I0.002 J0.0
G1 X1.2565 Y0.1345
G1 X1.2709 Y0.1226
G1 Y0.0947
G1 Y0.0678
G1 X0.9616
G1 X0.6524
G1 Y0.1863
G1 Y0.3048
G1 X0.6589
G2 X0.6617 Y0.3039 I-0.0146 J-0.0549
G2 X0.6645 Y0.3029 I-0.0061 J-0.0203
G2 X0.6682 Y0.3007 I-0.0085 J-0.0184
G1 X0.6691 Y0.3
G2 X0.6716 Y0.2978 I-0.0275 J-0.0349
G3 X0.6717 Y0.2977 I0.0014 J0.0015
G2 X0.672 Y0.2974 I-0.0024 J-0.0029
G3 X0.6722 Y0.2973 I0.0014 J0.0014
G2 X0.6725 Y0.297 I-0.0025 J-0.003
G3 X0.6726 Y0.2969 I0.0014 J0.0014
G2 X0.6742 Y0.2954 I-0.0476 J-0.0508
G2 X0.679 Y0.2904 I-0.1634 J-0.1616
G1 X0.6915 Y0.2754
G3 X0.693 Y0.2746 I0.0015 J0.0013
G1 X0.7203
G1 X0.7477
G3 X0.7491 Y0.2753 I0.0 J0.002
G1 X0.7658 Y0.2937
G1 X0.7824 Y0.312
G3 X0.7829 Y0.3134 I-0.0015 J0.0013
G1 Y0.3386
G1 Y0.3639
G3 X0.7822 Y0.3654 I-0.002 J0.0
G1 X0.7639 Y0.382
G1 X0.7455 Y0.3986
G3 X0.7442 Y0.3991 I-0.0013 J-0.0015
G1 X0.7186
G1 X0.693
G3 X0.6915 Y0.3984 I0.0 J-0.002
G1 X0.679 Y0.3833
G1 X0.6671 Y0.369
G1 X0.6411
G1 X0.6142
G3 X0.6128 Y0.3684 I0.0 J-0.002
G1 X0.6008 Y0.3564
G1 X0.5887 Y0.3443
G3 X0.5881 Y0.3429 I0.0014 J-0.0014
G1 Y0.2044
G1 Y0.0678
G1 X0.3291
G1 X0.0701
G1 Y0.5126
G1 Y0.9574
G1 X0.1522
G1 X0.2353
G1 X0.2472 Y0.943
G1 X0.2597 Y0.928
G3 X0.2613 Y0.9272 I0.0015 J0.0013
G1 X0.2786
G1 X0.2959
G3 X0.2973 Y0.9279 I0.0 J0.002
G1 X0.314 Y0.9463
G1 X0.3306 Y0.9646
G3 X0.3311 Y0.966 I-0.0015 J0.0013
G1 Y0.9812
G1 Y0.9964
G3 X0.3304 Y0.9979 I-0.002 J0.0
G1 X0.3121 Y1.0145
G1 X0.2937 Y1.0311
G3 X0.2924 Y1.0316 I-0.0013 J-0.0015
G1 X0.2768
G1 X0.2613
G3 X0.2597 Y1.0309 I0.0 J-0.002
G1 X0.2472 Y1.0159
G1 X0.2353 Y1.0015
G1 X0.1522
G1 X0.0701
G1 Y1.1311
G1 Y1.2605
G1 X0.201 Y1.2584
G1 X0.2011
G1 X0.2389 Y1.2579
G1 X0.2767 Y1.2574
G3 X0.3118 Y1.2571 I0.0575 J4.8621
G3 X0.3206 I0.011 J1.3615
G3 X0.3338 Y1.257 I0.011 J1.6283
G3 X0.347 I0.0061 J2.0172
G1 X0.3595 Y1.2571
G1 X0.3782 Y1.2572
G1 X0.3969 Y1.2573
G1 X0.4597 Y1.2586
G3 X0.4616 Y1.2606 I0.0 J0.002
G1 Y1.3999
G1 Y1.5383
G1 X0.476 Y1.5502
G1 X0.491 Y1.5627
G3 X0.4917 Y1.5642 I-0.0013 J0.0015
G1 Y1.5818
G1 Y1.5995
G3 X0.491 Y1.601 I-0.002 J0.0
G1 X0.476 Y1.6135
G1 X0.4616 Y1.6254
G1 Y1.6734
G1 Y1.7224
G3 X0.4596 Y1.7244 I-0.002 J0.0
G1 X0.431
G1 X0.4034
G1 X0.3858 Y1.7438
G1 X0.3676 Y1.7639
G3 X0.3661 Y1.7646 I-0.0015 J-0.0013
G1 X0.3391
G1 X0.3121
G3 X0.3106 Y1.7639 I0.0 J-0.002
G1 X0.294 Y1.7455
G1 X0.2774 Y1.7272
G3 X0.2769 Y1.7258 I0.0015 J-0.0013
G1 Y1.7006
G1 Y1.6753
G3 X0.2776 Y1.6738 I0.002 J0.0
G1 X0.2959 Y1.6572
G1 X0.3143 Y1.6406
G3 X0.3156 Y1.6401 I0.0013 J0.0015
G1 X0.3409
G1 X0.3661
G3 X0.3676 Y1.6407 I0.0 J0.002
G1 X0.3858 Y1.6608
G2 X0.396 Y1.6708 I0.231 J-0.2254
G2 X0.4004 Y1.6746 I0.0473 J-0.0504
G2 X0.4051 Y1.6777 I0.0203 J-0.0259
G2 X0.4082 Y1.6791 I0.0131 J-0.0252
G1 X0.4083
G2 X0.4099 Y1.6797 I0.0095 J-0.0228
G1 X0.4113 Y1.6802
G1 X0.4175
G1 Y1.6533
G1 Y1.6254
G1 X0.4031 Y1.6135
G1 X0.3881 Y1.601
G3 X0.3873 Y1.5995 I0.0013 J-0.0015
G1 Y1.5818
G1 Y1.5642
G3 X0.3881 Y1.5627 I0.002 J0.0
G1 X0.4031 Y1.5502
G1 X0.4175 Y1.5383
G1 Y1.42
G1 Y1.3027
G1 X0.3983
G1 X0.3781
G1 X0.359 Y1.3271
G1 X0.3392 Y1.3522
G3 X0.3377 Y1.3529 I-0.0016 J-0.0012
G1 X0.3191
G1 X0.3004
G3 X0.2989 Y1.3522 I0.0 J-0.002
G1 X0.2791 Y1.3271
G1 X0.26 Y1.3027
G1 X0.1645
G1 X0.0701
G1 Y1.8579
G1 Y2.4132
G1 X0.2181
G1 X0.367
G1 X0.3726 Y2.4041
G1 X0.3788 Y2.394
G3 X0.3805 Y2.3931 I0.0017 J0.0011
G1 X0.3987
G1 X0.417
G3 X0.4185 Y2.3938 I0.0 J0.002
G1 X0.4323 Y2.4104
G1 X0.4461 Y2.427
G3 X0.4465 Y2.4283 I-0.0015 J0.0013
G1 X0.4454 Y2.4719
G0 Z0.125
G0 Y2.116
G0 Z0.0748
G1 F20.0 Z-0.0027
G1 F40.0 X0.4375
G1 X0.4219
G3 X0.4204 Y2.1152 I0.0 J-0.002
G1 X0.4079 Y2.1002
G1 X0.396 Y2.0858
G1 X0.3479
G1 X0.299
G3 X0.297 Y2.0838 I0.0 J-0.002
G1 Y1.9734
G1 Y1.865
G1 X0.2115 Y1.8674
G1 X0.124 Y1.87
G3 X0.122 Y1.8684 I-0.0001 J-0.002
G1 X0.1182 Y1.8497
G1 X0.1144 Y1.8311
G3 X0.115 Y1.8293 I0.002 J-0.0004
G1 X0.1248 Y1.8194
G1 X0.1347 Y1.8096
G3 X0.1362 Y1.809 I0.0014 J0.0014
G1 X0.2378 Y1.8162
G1 X0.3393 Y1.8234
G3 X0.3411 Y1.8254 I-0.0001 J0.002
G1 Y1.9345
G1 Y2.0417
G1 X0.368
G1 X0.396
G1 X0.4079 Y2.0273
G1 X0.4204 Y2.0123
G3 X0.4219 Y2.0116 I0.0015 J0.0013
G1 X0.4392
G1 X0.4565
G3 X0.458 Y2.0122 I0.0 J0.002
G1 X0.4746 Y2.0306
G1 X0.4912 Y2.0489
G3 X0.4917 Y2.0503 I-0.0015 J0.0013
G1 Y2.0655
G1 Y2.0807
G3 X0.4911 Y2.0822 I-0.002 J0.0
G1 X0.4727 Y2.0988
G1 X0.4544 Y2.1154
G3 X0.453 Y2.116 I-0.0013 J-0.0015
G1 X0.4454
G0 Z0.125
G0 X0.5219 Y1.9952
G0 Z0.0748
G1 F20.0 Z-0.0027
G3 F40.0 X0.5215 Y1.9948 I0.0011 J-0.0017
G1 X0.5049 Y1.9765
G1 X0.4883 Y1.9581
G3 X0.4877 Y1.9568 I0.0015 J-0.0013
G1 Y1.9412
G1 Y1.9257
G3 X0.4885 Y1.9241 I0.002 J0.0
G1 X0.5035 Y1.9116
G1 X0.5179 Y1.8997
G1 Y1.5003
G1 Y1.0999
G3 X0.5199 Y1.0979 I0.002 J0.0
G1 X0.5789
G1 X0.6369
G1 X0.6493 Y1.0831
G1 X0.6622 Y1.0675
G3 X0.664 Y1.0668 I0.0015 J0.0013
G1 X0.6868 Y1.0698
G1 X0.7087 Y1.0727
G1 X0.7377 Y1.0449
G1 X0.7674 Y1.0164
G3 X0.7688 Y1.0158 I0.0014 J0.0014
G1 X0.8953 Y1.0142
G1 X1.0198 Y1.0126
G1 Y0.7661
G1 X1.0199 Y0.5196
G1 X0.9616
G1 X0.9014
G3 X0.8994 Y0.5176 I0.0 J-0.002
G1 Y0.4589
G1 Y0.4011
G1 X0.88 Y0.3835
G1 X0.8599 Y0.3654
G3 X0.8592 Y0.3639 I0.0013 J-0.0015
G1 Y0.3369
G1 Y0.3099
G3 X0.8599 Y0.3084 I0.002 J0.0
G1 X0.88 Y0.2902
G1 X0.8994 Y0.2726
G1 Y0.2566
G1 Y0.2405
G1 X0.8817 Y0.2245
G1 X0.8639 Y0.2084
G1 X0.8391
G1 X0.8144
G1 X0.8025 Y0.2227
G1 X0.79 Y0.2378
G3 X0.7885 Y0.2385 I-0.0015 J-0.0013
G1 X0.7611
G1 X0.7338
G3 X0.7323 Y0.2378 I0.0 J-0.002
G1 X0.7157 Y0.2195
G1 X0.6991 Y0.2011
G3 X0.6986 Y0.1998 I0.0015 J-0.0013
G1 Y0.1745
G1 Y0.1492
G3 X0.6992 Y0.1477 I0.002 J0.0
G1 X0.7176 Y0.1311
G1 X0.736 Y0.1145
G3 X0.7373 Y0.114 I0.0013 J0.0015
G1 X0.7629
G1 X0.7885
G3 X0.79 Y0.1147 I0.0 J0.002
G1 X0.8025 Y0.1298
G1 X0.8144 Y0.1441
G1 X0.8411
G1 X0.8679
G1 X0.8798 Y0.1298
G1 X0.8923 Y0.1147
G3 X0.8938 Y0.114 I0.0015 J0.0013
G1 X0.9211
G1 X0.9485
G3 X0.9499 Y0.1147 I0.0 J0.002
G1 X0.9666 Y0.133
G1 X0.9832 Y0.1514
G3 X0.9837 Y0.1527 I-0.0015 J0.0013
G1 Y0.178
G1 Y0.2032
G3 X0.983 Y0.2047 I-0.002 J0.0
G1 X0.963 Y0.2229
G1 X0.9435 Y0.2405
G1 Y0.2566
G1 Y0.2726
G1 X0.963 Y0.2902
G1 X0.983 Y0.3084
G3 X0.9837 Y0.3099 I-0.0013 J0.0015
G1 Y0.3369
G1 Y0.3639
G3 X0.983 Y0.3654 I-0.002 J0.0
G1 X0.963 Y0.3835
G1 X0.9435 Y0.4011
G1 Y0.4388
G1 Y0.4754
G1 X1.0018
G1 X1.062
G3 X1.064 Y0.4774 I0.0 J0.002
G1 Y1.3197
G1 Y2.162
G3 X1.0622 Y2.164 I-0.002 J0.0
G1 X0.9709 Y2.1712
G1 X0.8797 Y2.1785
G3 X0.8781 Y2.1779 I-0.0002 J-0.002
G1 X0.868 Y2.1678
G1 X0.8579 Y2.1577
G3 X0.8574 Y2.1559 I0.0014 J-0.0014
G1 X0.8611 Y2.1372
G1 X0.8649 Y2.1186
G3 X0.8669 Y2.117 I0.002 J0.0004
G1 X0.9444 Y2.1188
G1 X1.0199 Y2.1206
G1 Y1.5937
G1 Y1.0668
G1 X0.9118
G1 X0.8025
G1 X0.7497 Y1.1189
G1 X0.6963 Y1.1716
G3 X0.6949 Y1.1722 I-0.0014 J-0.0014
G1 X0.6789
G1 X0.6629
G3 X0.6613 Y1.1715 I0.0 J-0.002
G1 X0.6488 Y1.1564
G1 X0.6369 Y1.1421
G1 X0.5989
G1 X0.562
G1 Y1.5204
G1 Y1.8997
G1 X0.5764 Y1.9116
G1 X0.5914 Y1.9241
G3 X0.5921 Y1.9257 I-0.0013 J0.0015
G1 Y1.943
G1 Y1.9602
G3 X0.5915 Y1.9617 I-0.002 J0.0
G1 X0.5731 Y1.9783
G1 X0.5548 Y1.995
G3 X0.5534 Y1.9955 I-0.0013 J-0.0015
G1 X0.5382
G1 X0.523
G3 X0.5219 Y1.9952 I0.0 J-0.002
G0 Z0.125
G0 X0.7588
G0 Z0.0748
G1 F20.0 Z-0.0027
G1 F40.0 Y1.8228
G3 X0.7608 Y1.8208 I0.002 J0.0
G1 X0.8411
G1 X0.9195
G1 Y1.7124
G1 Y1.6039
G1 X0.8022
G1 X0.6839
G1 X0.672 Y1.6183
G1 X0.6595 Y1.6333
G3 X0.658 Y1.634 I-0.0015 J-0.0013
G1 X0.6407
G1 X0.6234
G3 X0.6218 Y1.6333 I0.0 J-0.002
G1 X0.6076 Y1.6157
G1 X0.5933 Y1.5982
G3 X0.5929 Y1.5969 I0.0016 J-0.0013
G1 X0.5963 Y1.3986
G1 X0.5997 Y1.2003
G3 X0.6017 Y1.1983 I0.002 J0.0
G1 X0.6633
G1 X0.7241
G1 X0.7646 Y1.1586
G1 X0.8057 Y1.1182
G3 X0.807 Y1.1177 I0.0014 J0.0014
G1 X0.8918 Y1.1153
G1 X0.9766 Y1.113
G3 X0.9787 Y1.115 I0.0001 J0.002
G1 Y1.1401
G1 Y1.1652
G3 X0.9767 Y1.1672 I-0.002 J0.0
G1 X0.9045
G1 X0.8331
G1 X0.8 Y1.1992
G1 X0.7663 Y1.2319
G3 X0.7649 Y1.2324 I-0.0014 J-0.0014
G1 X0.7026
G1 X0.6423
G1 Y1.3769
G1 Y1.5225
G1 X0.6642 Y1.5407
G1 X0.6862 Y1.5591
G1 X0.8236 Y1.5594
G1 X0.9616 Y1.5598
G3 X0.9636 Y1.5618 I0.0 J0.002
G1 Y1.7124
G1 Y1.863
G3 X0.9616 Y1.865 I-0.002 J0.0
G1 X0.8813
G1 X0.803
G1 Y2.0437
G1 Y2.2224
G1 X0.8888 Y2.2199
G1 X0.9766 Y2.2174
G3 X0.9787 Y2.2191 I0.0001 J0.002
G1 X0.9817 Y2.2407
G1 X0.9848 Y2.2624
G3 X0.9839 Y2.2644 I-0.002 J0.0003
G1 X0.973 Y2.2711
G1 X0.962 Y2.2779
G3 X0.9609 Y2.2782 I-0.0011 J-0.0017
G1 X0.8608 Y2.2711
G1 X0.7607 Y2.264
G3 X0.7588 Y2.262 I0.0001 J-0.002
G1 Y2.0424
G1 Y1.9952
G0 Z0.125
G0 X0.8643 Y2.0182
G0 Z0.0748
G1 F20.0 Z-0.0027
G3 F40.0 X0.8662 Y2.0166 I0.002 J0.0004
G1 X0.9215
G1 X0.9767
G3 X0.9787 Y2.0183 I0.0 J0.002
G1 X0.9819 Y2.0409
G1 X0.9851 Y2.0636
G3 X0.9838 Y2.0657 I-0.002 J0.0003
G1 X0.9692 Y2.0713
G3 X0.9689 Y2.0714 I-0.0007 J-0.0019
G3 X0.9672 Y2.0718 I-0.014 J-0.0644
G3 X0.9658 Y2.0721 I-0.0082 J-0.0368
G3 X0.9645 Y2.0723 I-0.0063 J-0.0286
G3 X0.9633 Y2.0725 I-0.0053 J-0.0243
G1 X0.9594 Y2.0732
G3 X0.9574 Y2.0736 I-0.006 J-0.031
G3 X0.9554 Y2.0738 I-0.0068 J-0.0419
G3 X0.9447 Y2.0747 I-0.014 J-0.1111
G3 X0.9341 I-0.0067 J-0.1977
G1 X0.9281 Y2.0746
G3 X0.9269 I0.0003 J-0.0311
G1 X0.9185 Y2.0743
G3 X0.9163 Y2.0742 I0.0017 J-0.0683
G3 X0.9131 Y2.0741 I0.0029 J-0.1043
G3 X0.9099 Y2.0739 I0.0063 J-0.1803
G1 X0.8661 Y2.0708
G3 X0.8642 Y2.0688 I0.0001 J-0.002
G1 Y2.0437
G1 Y2.0186
G3 X0.8643 Y2.0182 I0.002 J0.0
G0 Z0.125
G0 X0.8677 Y1.9705
G0 Z0.0748
G1 F20.0 Z-0.0027
G1 F40.0 X0.8661 Y1.9704
G3 X0.8642 Y1.9684 I0.0001 J-0.002
G1 Y1.9433
G1 Y1.9182
G3 X0.8662 Y1.9162 I0.002 J0.0
G1 X0.9215
G1 X0.9767
G3 X0.9787 Y1.9179 I0.0 J0.002
G1 X0.9819 Y1.9405
G1 X0.9851 Y1.9632
G3 X0.9838 Y1.9653 I-0.002 J0.0003
G1 X0.9692 Y1.9709
G3 X0.9689 Y1.971 I-0.0007 J-0.0019
G3 X0.9672 Y1.9714 I-0.014 J-0.0644
G3 X0.9658 Y1.9717 I-0.0082 J-0.0368
G3 X0.9645 Y1.9719 I-0.0063 J-0.0286
G3 X0.9633 Y1.9721 I-0.0053 J-0.0243
G1 X0.9594 Y1.9728
G3 X0.9574 Y1.9732 I-0.006 J-0.031
G3 X0.9554 Y1.9734 I-0.0068 J-0.0419
G3 X0.9447 Y1.9743 I-0.014 J-0.1111
G3 X0.9341 I-0.0067 J-0.1977
G1 X0.9281 Y1.9742
G3 X0.9269 I0.0003 J-0.0311
G1 X0.9185 Y1.9739
G3 X0.9163 Y1.9738 I0.0017 J-0.0683
G3 X0.9131 Y1.9737 I0.0029 J-0.1043
G3 X0.9099 Y1.9735 I0.0063 J-0.1803
G1 X0.8677 Y1.9705
G0 Z0.125
G0 X1.1654 Y1.9684
G0 Z0.0748
G1 F20.0 Z-0.0027
G1 F40.0 Y1.9433
G1 Y1.9182
G3 X1.1674 Y1.9162 I0.002 J0.0
G1 X1.2227
G1 X1.2779
G3 X1.2799 Y1.9179 I0.0 J0.002
G1 X1.2831 Y1.9405
G1 X1.2863 Y1.9632
G3 X1.285 Y1.9653 I-0.002 J0.0003
G1 X1.2704 Y1.9709
G3 X1.2701 Y1.971 I-0.0007 J-0.0019
G3 X1.2684 Y1.9714 I-0.0141 J-0.0644
G3 X1.267 Y1.9717 I-0.0082 J-0.0368
G3 X1.2657 Y1.9719 I-0.0063 J-0.0286
G3 X1.2645 Y1.9721 I-0.0053 J-0.0243
G1 X1.2606 Y1.9728
G3 X1.2586 Y1.9732 I-0.006 J-0.031
G3 X1.2566 Y1.9734 I-0.0068 J-0.0419
G3 X1.2459 Y1.9743 I-0.014 J-0.1111
G3 X1.2353 I-0.0067 J-0.1977
G1 X1.2293 Y1.9742
G3 X1.2281 I0.0003 J-0.0311
G1 X1.2197 Y1.9739
G3 X1.2175 Y1.9738 I0.0017 J-0.0683
G3 X1.2143 Y1.9737 I0.0029 J-0.1043
G3 X1.2111 Y1.9735 I0.0063 J-0.1801
G1 X1.1673 Y1.9704
G3 X1.1654 Y1.9684 I0.0001 J-0.002
G0 Z0.125
G0 X1.1674 Y2.0166
G0 Z0.0748
G1 F20.0 Z-0.0027
G1 F40.0 X1.2227
G1 X1.2779
G3 X1.2799 Y2.0183 I0.0 J0.002
G1 X1.2831 Y2.0409
G1 X1.2863 Y2.0636
G3 X1.285 Y2.0657 I-0.002 J0.0003
G1 X1.2704 Y2.0713
G3 X1.2701 Y2.0714 I-0.0007 J-0.0019
G3 X1.2684 Y2.0718 I-0.0141 J-0.0644
G3 X1.267 Y2.0721 I-0.0082 J-0.0368
G3 X1.2657 Y2.0723 I-0.0063 J-0.0286
G3 X1.2645 Y2.0725 I-0.0053 J-0.0243
G1 X1.2606 Y2.0732
G3 X1.2586 Y2.0736 I-0.006 J-0.031
G3 X1.2566 Y2.0738 I-0.0068 J-0.0419
G3 X1.2459 Y2.0747 I-0.014 J-0.1111
G3 X1.2353 I-0.0067 J-0.1977
G1 X1.2293 Y2.0746
G3 X1.2281 I0.0003 J-0.0311
G1 X1.2197 Y2.0743
G3 X1.2175 Y2.0742 I0.0017 J-0.0683
G3 X1.2143 Y2.0741 I0.0029 J-0.1043
G3 X1.2111 Y2.0739 I0.0063 J-0.1801
G1 X1.1673 Y2.0708
G3 X1.1654 Y2.0688 I0.0001 J-0.002
G1 Y2.0437
G1 Y2.0186
G3 X1.1674 Y2.0166 I0.002 J0.0
G0 Z0.125
G0 X1.1953 Y1.8649
G0 Z0.0748
G1 F20.0 Z-0.0027
G3 F40.0 X1.1942 Y1.8643 I0.0004 J-0.002
G1 X1.1775 Y1.8459
G1 X1.1609 Y1.8276
G3 X1.1604 Y1.8262 I0.0015 J-0.0013
G1 Y1.8027
G1 Y1.7792
G3 X1.1609 Y1.7779 I0.002 J0.0
G1 X1.1767 Y1.7605
G1 X1.1914 Y1.7442
G1 X1.1791 Y1.7244
G1 X1.1659 Y1.7034
G3 Y1.7013 I0.0017 J-0.0011
G1 X1.1792 Y1.68
G1 X1.1916 Y1.6601
G1 X1.1819 Y1.6503
G3 X1.1818 Y1.6502 I0.0014 J-0.0014
G3 X1.181 Y1.6492 I0.0249 J-0.02
G3 X1.1804 Y1.6484 I0.0146 J-0.0119
G3 X1.1798 Y1.6476 I0.0117 J-0.0094
G3 X1.1793 Y1.647 I0.0103 J-0.0082
G3 X1.1761 Y1.6421 I0.0371 J-0.0281
G3 X1.172 Y1.6317 I0.0338 J-0.0193
G3 X1.1717 Y1.6303 I0.0131 J-0.0036
G3 X1.1713 Y1.6281 I0.0328 J-0.0071
G1 X1.171 Y1.6264
G1 X1.1707 Y1.6239
G1 X1.1705 Y1.6214
G3 Y1.6212 I0.002 J-0.0002
G1 Y1.6044
G3 X1.1712 Y1.6028 I0.002 J0.0
G1 X1.1862 Y1.5903
G1 X1.2006 Y1.5784
G1 Y1.4764
G1 Y1.3749
G1 X1.1812 Y1.3698
G1 X1.1603 Y1.3644
G3 X1.1588 Y1.3621 I0.0005 J-0.0019
G1 X1.1621 Y1.3388
G1 X1.1655 Y1.3155
G3 X1.1674 Y1.3138 I0.002 J0.0003
G1 X1.2227
G1 X1.2779
G3 X1.2799 Y1.3155 I0.0 J0.002
G1 X1.2831 Y1.3381
G1 X1.286 Y1.359
G1 X1.3037
G2 X1.3052 Y1.3588 I-0.0047 J-0.0519
G2 X1.3065 Y1.3587 I-0.0024 J-0.0283
G1 X1.3066
G2 X1.3077 Y1.3585 I-0.0018 J-0.0214
G1 X1.3078
G2 X1.316 Y1.3573 I-0.0092 J-0.0893
G2 X1.3298 Y1.3529 I-0.0147 J-0.0706
G2 X1.3361 Y1.35 I-0.0483 J-0.1115
G1 X1.3392 Y1.3484
G1 X1.3423 Y1.3467
G1 X1.3622 Y1.3343
G3 X1.3643 I0.0011 J0.0017
G1 X1.3819 Y1.3453
G1 X1.3994 Y1.3563
G3 X1.4003 Y1.3577 I-0.0011 J0.0017
G1 X1.4032 Y1.3769
G1 X1.4061 Y1.396
G3 X1.4056 Y1.3977 I-0.002 J0.0003
G1 X1.3931 Y1.4102
G1 X1.3807 Y1.4226
G3 X1.3793 Y1.4232 I-0.0014 J-0.0014
G1 X1.3618
G1 X1.3443
G3 X1.3426 Y1.4223 I0.0 J-0.002
G1 X1.3364 Y1.4122
G1 X1.3308 Y1.4031
G1 X1.2873
G1 X1.2447
G1 Y1.4903
G1 Y1.5784
G1 X1.2591 Y1.5903
G1 X1.2741 Y1.6028
G3 X1.2749 Y1.6044 I-0.0013 J0.0015
G1 Y1.6212
G3 X1.2748 Y1.6214 I-0.002 J0.0
G3 X1.2747 Y1.6227 I-0.0406 J-0.0037
G3 X1.2742 Y1.6271 I-0.1329 J-0.0141
G3 X1.2738 Y1.6294 I-0.0367 J-0.0049
G1 X1.2736 Y1.6305
G1 Y1.6306
G1 X1.2733 Y1.6316
G1 Y1.6317
G3 X1.2692 Y1.6421 I-0.0391 J-0.0093
G3 X1.2679 Y1.6443 I-0.0222 J-0.0122
G1 X1.2669 Y1.6458
G1 X1.2668
G1 X1.266 Y1.6469
G1 X1.2636 Y1.6501
G3 X1.2634 Y1.6503 I-0.0016 J-0.0012
G1 X1.2537 Y1.6601
G1 X1.2661 Y1.68
G1 X1.2794 Y1.7013
G3 Y1.7034 I-0.0017 J0.0011
G1 X1.2662 Y1.7244
G1 X1.2539 Y1.7442
G1 X1.2686 Y1.7605
G1 X1.2844 Y1.7779
G3 X1.2849 Y1.7792 I-0.0015 J0.0013
G1 Y1.8045
G1 Y1.8297
G3 X1.2842 Y1.8312 I-0.002 J0.0
G1 X1.2659 Y1.8478
G1 X1.2475 Y1.8644
G3 X1.2462 Y1.865 I-0.0013 J-0.0015
G1 X1.2209
G1 X1.1956
G3 X1.1953 Y1.8649 I0.0 J-0.002
G0 Z0.125
G0 X1.3411
G0 Z0.0748
G1 F20.0 Z-0.0027
G1 F40.0 Y1.7425
G3 X1.3431 Y1.7405 I0.002 J0.0
G1 X1.3933
G1 X1.4415
G1 Y1.4501
G1 Y1.1598
G1 X1.3055 Y1.1634
G1 X1.1675 Y1.1672
G3 X1.1654 Y1.1652 I-0.0001 J-0.002
G1 Y1.1401
G1 Y1.115
G3 X1.1674 Y1.113 I0.002 J0.0
G1 X1.2202 Y1.1134
G3 X1.2407 Y1.1136 I-0.062 J6.4016
G3 X1.2612 Y1.1139 I-0.0568 J5.3989
G1 X1.2896 Y1.1143
G1 X1.318 Y1.1148
G3 X1.3481 Y1.1153 I-0.1426 J8.6268
G3 X1.3783 Y1.1159 I-0.2386 J13.3954
G1 X1.4837 Y1.118
G3 X1.4857 Y1.12 I0.0 J0.002
G1 Y1.4513
G1 Y1.7826
G3 X1.4837 Y1.7846 I-0.002 J0.0
G1 X1.4335
G1 X1.3853
G1 Y1.9734
G1 Y2.1622
G1 X1.4119
G1 X1.4395
G1 X1.4571 Y2.1427
G1 X1.4753 Y2.1227
G3 X1.4768 Y2.122 I0.0015 J0.0013
G1 X1.5038
G1 X1.5308
G3 X1.5323 Y2.1227 I0.0 J0.002
G1 X1.5489 Y2.141
G1 X1.5655 Y2.1594
G3 X1.566 Y2.1607 I-0.0015 J0.0013
G1 Y2.186
G1 Y2.2112
G3 X1.5654 Y2.2127 I-0.002 J0.0
G1 X1.547 Y2.2293
G1 X1.5286 Y2.246
G3 X1.5273 Y2.2465 I-0.0013 J-0.0015
G1 X1.502
G1 X1.4768
G3 X1.4753 Y2.2458 I0.0 J-0.002
G1 X1.4571 Y2.2257
G1 X1.4395 Y2.2063
G1 X1.4119
G1 X1.3853
G1 Y2.2331
G1 Y2.262
G3 X1.3834 Y2.264 I-0.002 J0.0
G1 X1.2819 Y2.2712
G1 X1.1804 Y2.2784
G3 X1.1788 Y2.2778 I-0.0001 J-0.002
G1 X1.169 Y2.2679
G1 X1.1591 Y2.2581
G3 X1.1586 Y2.2563 I0.0014 J-0.0014
G1 X1.1623 Y2.2376
G1 X1.1661 Y2.219
G3 X1.1681 Y2.2174 I0.002 J0.0004
G1 X1.2557 Y2.2199
G1 X1.3411 Y2.2224
G1 Y1.9835
G1 Y1.8649
G0 Z0.125
G0 X1.5794 Y1.7219
G0 Z0.0748
G1 F20.0 Z-0.0027
G3 F40.0 X1.5753 Y1.7137 I0.048 J-0.0288
G3 X1.5727 Y1.7033 I0.0388 J-0.0152
G3 X1.5725 Y1.6978 I0.0346 J-0.004
G3 X1.5733 Y1.6924 I0.0298 J0.0013
G3 X1.575 Y1.6873 I0.0301 J0.0075
G1 X1.5751 Y1.6872
G3 X1.5768 Y1.6838 I0.0461 J0.0213
G1 Y1.6837
G3 X1.58 Y1.6788 I0.0549 J0.0315
G3 X1.5808 Y1.6777 I0.0532 J0.0365
G3 X1.5821 Y1.6759 I0.0661 J0.0463
G1 X1.5833 Y1.6742
G3 X1.5835 Y1.674 I0.0016 J0.0012
G1 X1.5932 Y1.6642
G1 X1.5808 Y1.6443
G1 X1.5675 Y1.623
G3 Y1.6209 I0.0017 J-0.0011
G1 X1.5781 Y1.604
G3 X1.5782 Y1.6039 I0.0017 J0.0011
G3 X1.5791 Y1.6026 I0.0663 J0.0477
G3 X1.58 Y1.6015 I0.0382 J0.0273
G3 X1.5807 Y1.6005 I0.0301 J0.0215
G3 X1.582 Y1.5988 I0.0355 J0.0254
G3 X1.586 Y1.5938 I0.0891 J0.0672
G3 X1.5961 Y1.5837 I0.0681 J0.058
G3 X1.6011 Y1.5797 I0.078 J0.0925
G1 X1.6036 Y1.5778
G1 X1.6062 Y1.5759
G3 X1.6063 I0.0012 J0.0016
G1 X1.6232 Y1.5652
G3 X1.6253 I0.0011 J0.0017
G1 X1.6422 Y1.5759
G3 X1.6423 I-0.0011 J0.0017
G3 X1.6436 Y1.5769 I-0.0479 J0.0667
G3 X1.6447 Y1.5777 I-0.0274 J0.0384
G3 X1.6457 Y1.5784 I-0.0217 J0.0302
G3 X1.6474 Y1.5797 I-0.0256 J0.0358
G3 X1.6524 Y1.5837 I-0.0684 J0.0907
G3 X1.6625 Y1.5938 I-0.0576 J0.0678
G3 X1.6665 Y1.5988 I-0.0939 J0.0793
G1 X1.6684 Y1.6013
G1 X1.6703 Y1.6039
G3 X1.6704 Y1.604 I-0.0016 J0.0012
G1 X1.681 Y1.6209
G3 Y1.623 I-0.0017 J0.0011
G1 X1.6677 Y1.6443
G1 X1.6553 Y1.6642
G1 X1.665 Y1.674
G3 X1.6651 Y1.6741 I-0.0014 J0.0014
G3 X1.6659 Y1.6751 I-0.0251 J0.0203
G3 X1.6665 Y1.6759 I-0.0148 J0.012
G3 X1.6708 Y1.6821 I-0.0439 J0.0347
G3 X1.6749 Y1.6925 I-0.0341 J0.0195
G3 X1.6752 Y1.6938 I-0.013 J0.0036
G3 X1.6756 Y1.696 I-0.0348 J0.0076
G3 X1.6764 Y1.7026 I-0.1075 J0.017
G3 X1.6765 Y1.7028 I-0.002 J0.0002
G1 Y1.7193
G3 X1.6758 Y1.7208 I-0.002 J0.0
G1 X1.6574 Y1.7374
G1 X1.6391 Y1.754
G3 X1.6377 Y1.7545 I-0.0013 J-0.0015
G1 X1.6225
G1 X1.6073
G3 X1.6058 Y1.7539 I0.0 J-0.002
G1 X1.5892 Y1.7355
G3 X1.5891 Y1.7354 I0.0015 J-0.0013
G3 X1.5852 Y1.7304 I0.2668 J-0.2113
G3 X1.5797 Y1.7225 I0.0758 J-0.0583
G3 X1.5794 Y1.7219 I0.0477 J-0.0293
G0 Z0.125
G0 X1.7628
G0 Z0.0748
G1 F20.0 Z-0.0027
G1 F40.0 Y1.42
G1 X1.7385 Y1.4009
G1 X1.7134 Y1.3812
G3 X1.7126 Y1.3796 I0.0012 J-0.0016
G1 Y1.3618
G1 Y1.344
G3 X1.7133 Y1.3425 I0.002 J0.0
G1 X1.7316 Y1.3259
G1 X1.75 Y1.3093
G3 X1.7513 Y1.3088 I0.0013 J0.0015
G1 X1.7666
G1 X1.7818
G3 X1.7833 Y1.3094 I0.0 J0.002
G1 X1.7999 Y1.3278
G1 X1.8165 Y1.3461
G3 X1.817 Y1.3478 I-0.0015 J0.0013
G1 X1.8146 Y1.3619
G2 X1.8141 Y1.3874 I8.4871 J0.1542
G2 X1.8138 Y1.4066 I4.5837 J0.0844
G2 X1.8136 Y1.421 I3.455 J0.0618
G2 X1.8133 Y1.4426 I4.0018 J0.071
G2 X1.813 Y1.4642 I4.3046 J0.0703
G2 X1.8126 Y1.4961 I9.656 J0.132
G1 X1.8123 Y1.524
G1 X1.8121 Y1.5484
G1 X1.8118 Y1.5911
G1 X1.8116 Y1.6231
G1 X1.8114 Y1.6711
G2 X1.8113 Y1.6951 I24.5773 J0.1222
G2 X1.8112 Y1.7191 I6.9712 J0.0426
G3 X1.8111 Y1.7411 I-5.6044 J-0.0138
G3 X1.811 Y1.7618 I-5.6094 J-0.0148
G3 X1.8109 Y1.7811 I-5.6137 J-0.0158
G3 X1.8108 Y1.7993 I-5.6174 J-0.0167
G3 X1.8107 Y1.8163 I-5.6206 J-0.0175
G3 X1.8106 Y1.8322 I-5.6232 J-0.0182
G3 Y1.8471 I-5.6255 J-0.0189
G3 X1.8104 Y1.8752 I-8.0897 J-0.0242
G3 X1.8103 Y1.8997 I-8.0933 J-0.0263
G3 X1.8102 Y1.9211 I-8.0952 J-0.0281
G3 X1.8101 Y1.9399 I-8.0957 J-0.0297
G3 X1.81 Y1.9728 I-11.8474 J-0.0411
G3 X1.8098 Y1.9974 I-11.8384 J-0.0454
G3 X1.8097 Y2.0343 I-18.0403 J-0.0699
G3 X1.8095 Y2.0713 I-30.8039 J-0.1327
G1 X1.8068 Y2.7666
G3 X1.8048 Y2.7686 I-0.002 J0.0
G1 X1.686
G1 X1.568
G1 X1.5504 Y2.788
G1 X1.5323 Y2.8081
G3 X1.5308 Y2.8087 I-0.0015 J-0.0013
G1 X1.5038
G1 X1.4768
G3 X1.4753 Y2.8081 I0.0 J-0.002
G1 X1.4587 Y2.7897
G1 X1.442 Y2.7713
G3 X1.4415 Y2.77 I0.0015 J-0.0013
G1 Y2.7447
G1 Y2.7195
G3 X1.4422 Y2.718 I0.002 J0.0
G1 X1.4623 Y2.6998
G1 X1.4817 Y2.6822
G1 Y2.6244
G1 Y2.5678
G1 X1.4235
G1 X1.3632
G3 X1.3612 Y2.5658 I0.0 J-0.002
G1 Y2.5151
G1 Y2.4665
G1 X1.2657 Y2.4694
G1 X1.1681 Y2.4724
G3 X1.1661 Y2.4708 I-0.0001 J-0.002
G1 X1.1623 Y2.4521
G1 X1.1586 Y2.4335
G3 X1.1591 Y2.4317 I0.002 J-0.0004
G1 X1.1687 Y2.4221
G1 X1.1783 Y2.4125
G3 X1.1799 Y2.4119 I0.0014 J0.0014
G1 X1.2917 Y2.419
G1 X1.4035 Y2.4261
G3 X1.4054 Y2.4281 I-0.0001 J0.002
G1 Y2.4768
G1 Y2.5236
G1 X1.4636
G1 X1.5239
G3 X1.5259 Y2.5256 I0.0 J0.002
G1 Y2.6042
G1 Y2.6819
G1 X1.5485 Y2.7031
G1 X1.5711 Y2.7244
G1 X1.6676
G1 X1.7628
G1 Y2.0727
G1 Y1.7219
G0 Z0.125
G0 X1.586 Y1.5266
G0 Z0.0748
G1 F20.0 Z-0.0027
G1 F40.0 X1.5788 Y1.5331
G3 X1.5775 Y1.5336 I-0.0013 J-0.0015
G1 X1.5623
G1 X1.547
G3 X1.5456 Y1.533 I0.0 J-0.002
G1 X1.5289 Y1.5146
G1 X1.5123 Y1.4963
G3 X1.5118 Y1.4949 I0.0015 J-0.0013
G1 Y1.4787
G3 Y1.4786 I0.002 J0.0
G3 X1.5121 Y1.4762 I0.0467 J0.0037
G3 X1.5132 Y1.4693 I0.0526 J0.0053
G3 X1.5148 Y1.4647 I0.0262 J0.0064
G3 X1.5172 Y1.4605 I0.0223 J0.0098
G3 X1.5198 Y1.4575 I0.0191 J0.0137
G1 X1.5211 Y1.4562
G1 Y1.4561
G1 X1.5225 Y1.4549
G3 X1.5228 Y1.4546 I0.0014 J0.0015
G1 X1.5319 Y1.449
G1 Y1.4255
G1 Y1.4014
G1 X1.5197 Y1.3819
G1 X1.5072 Y1.3619
G3 Y1.3598 I0.0017 J-0.0011
G1 X1.5179 Y1.343
G3 X1.518 Y1.3429 I0.0017 J0.0011
G3 X1.5189 Y1.3416 I0.0663 J0.0477
G3 X1.5197 Y1.3405 I0.0382 J0.0273
G3 X1.5204 Y1.3395 I0.0301 J0.0215
G3 X1.5217 Y1.3378 I0.0355 J0.0254
G3 X1.5257 Y1.3328 I0.0891 J0.0672
G3 X1.5358 Y1.3227 I0.0681 J0.058
G1 X1.5359
G3 X1.5409 Y1.3187 I0.078 J0.0925
G1 X1.5434 Y1.3168
G1 X1.5459 Y1.3149
G3 X1.546 Y1.3148 I0.0012 J0.0016
G1 X1.5629 Y1.3042
G3 X1.5651 I0.0011 J0.0017
G1 X1.582 Y1.3148
G3 X1.5821 Y1.3149 I-0.0011 J0.0017
G3 X1.5834 Y1.3158 I-0.0479 J0.0667
G3 X1.5845 Y1.3166 I-0.0274 J0.0384
G3 X1.5854 Y1.3174 I-0.0217 J0.0302
G3 X1.5872 Y1.3187 I-0.0256 J0.0358
G3 X1.5922 Y1.3227 I-0.0684 J0.0907
G3 X1.6023 Y1.3328 I-0.0576 J0.0678
G3 X1.6063 Y1.3378 I-0.0939 J0.0793
G1 X1.6082 Y1.3403
G1 X1.6101 Y1.3428
G3 Y1.343 I-0.0016 J0.0012
G1 X1.6208 Y1.3598
G3 Y1.3619 I-0.0017 J0.0011
G1 X1.6083 Y1.3819
G1 X1.5961 Y1.4014
G1 Y1.4255
G1 Y1.449
G1 X1.6052 Y1.4546
G1 X1.6153 Y1.4608
G3 X1.6162 Y1.4625 I-0.0011 J0.0017
G1 Y1.4805
G1 Y1.4984
G3 X1.6156 Y1.4999 I-0.002 J0.0
G1 X1.5972 Y1.5165
G1 X1.586 Y1.5266
G0 Z0.125
G0 X1.3927 Y1.3102
G0 Z0.0748
G1 F20.0 Z-0.0027
G1 F40.0 X1.3926 Y1.3103
G3 X1.3916 Y1.3111 I-0.0185 J-0.0219
G3 X1.3907 Y1.3118 I-0.011 J-0.0128
G3 X1.3841 Y1.3165 I-0.0388 J-0.0475
G3 X1.3735 Y1.3211 I-0.0236 J-0.0406
G3 X1.3685 Y1.3223 I-0.0133 J-0.0435
G3 X1.3632 Y1.3228 I-0.0055 J-0.0292
G3 X1.3579 Y1.3223 I0.0002 J-0.0298
G3 X1.3529 Y1.3211 I0.0085 J-0.0453
G3 X1.3424 Y1.3165 I0.013 J-0.045
G1 X1.3423
G3 X1.3379 Y1.3135 I0.0223 J-0.0375
G1 X1.3369 Y1.3127
G1 X1.3339 Y1.3103
G3 X1.3337 Y1.3102 I0.0012 J-0.0016
G1 X1.3216 Y1.2981
G3 X1.3211 Y1.2967 I0.0014 J-0.0014
G1 Y1.2793
G1 Y1.264
G1 X1.2453 Y1.2657
G1 X1.1675 Y1.2676
G3 X1.1654 Y1.2656 I0.0 J-0.002
G1 Y1.2405
G1 Y1.2154
G3 X1.1675 Y1.2134 I0.002 J0.0
G1 X1.2425 Y1.2149
G1 X1.3165 Y1.2164
G1 X1.3293 Y1.1982
G1 X1.3426 Y1.1791
G3 X1.3443 Y1.1782 I0.0016 J0.0011
G1 X1.3618
G1 X1.3793
G3 X1.3807 Y1.1788 I0.0 J0.002
G1 X1.3927 Y1.1909
G1 X1.4048 Y1.2029
G3 X1.4054 Y1.2043 I-0.0014 J0.0014
G1 Y1.2505
G1 Y1.2967
G3 X1.4048 Y1.2981 I-0.002 J0.0
G1 X1.3927 Y1.3102
G0 Z0.125
G0 X1.4432 Y0.9814
G0 Z0.0748
G1 F20.0 Z-0.0027
G3 F40.0 X1.4415 Y0.9794 I0.0003 J-0.002
G1 Y0.9192
G1 Y0.861
G1 X1.4146
G1 X1.3867
G1 X1.3748 Y0.8753
G1 X1.3623 Y0.8904
G3 X1.3608 Y0.8911 I-0.0015 J-0.0013
G1 X1.3439
G1 X1.3271
G3 X1.3257 Y0.8905 I0.0 J-0.002
G1 X1.3131 Y0.8779
G1 X1.3011 Y0.866
G1 X1.2347
G1 X1.1674
G3 X1.1654 Y0.864 I0.0 J-0.002
G1 Y0.8389
G1 Y0.8138
G3 X1.1674 Y0.8118 I0.002 J0.0
G1 X1.2347
G1 X1.3011
G1 X1.3131 Y0.7998
G1 X1.3257 Y0.7873
G3 X1.3271 Y0.7867 I0.0014 J0.0014
G1 X1.3439
G1 X1.3608
G3 X1.3623 Y0.7874 I0.0 J0.002
G1 X1.3748 Y0.8025
G1 X1.3867 Y0.8168
G1 X1.4146
G1 X1.4415
G1 Y0.7802
G1 Y0.7425
G1 X1.4221 Y0.7249
G1 X1.402 Y0.7067
G3 X1.4014 Y0.7052 I0.0013 J-0.0015
G1 Y0.6782
G1 Y0.6512
G3 X1.402 Y0.6497 I0.002 J0.0
G1 X1.4204 Y0.6331
G1 X1.4388 Y0.6165
G3 X1.4401 Y0.616 I0.0013 J0.0015
G1 X1.4654
G1 X1.4906
G3 X1.4921 Y0.6167 I0.0 J0.002
G1 X1.5103 Y0.6367
G1 X1.5279 Y0.6562
G1 X1.5439
G1 X1.56
G1 X1.5776 Y0.6367
G1 X1.5958 Y0.6167
G3 X1.5972 Y0.616 I0.0015 J0.0013
G1 X1.6243
G1 X1.6513
G3 X1.6527 Y0.6167 I0.0 J0.002
G1 X1.6694 Y0.635
G1 X1.686 Y0.6534
G3 X1.6865 Y0.6547 I-0.0015 J0.0013
G1 Y0.68
G1 Y0.7052
G3 X1.6858 Y0.7067 I-0.002 J0.0
G1 X1.6675 Y0.7233
G1 X1.6491 Y0.74
G3 X1.6478 Y0.7405 I-0.0013 J-0.0015
G1 X1.6225
G1 X1.5972
G3 X1.5958 Y0.7398 I0.0 J-0.002
G1 X1.5776 Y0.7197
G1 X1.56 Y0.7003
G1 X1.5441
G1 X1.5282
G1 X1.507 Y0.7229
G1 X1.4857 Y0.7456
G1 Y0.842
G1 Y0.9373
G1 X1.5025
G1 X1.5205
G1 X1.5324 Y0.9229
G1 X1.5449 Y0.9079
G3 X1.5464 Y0.9072 I0.0015 J0.0013
G1 X1.5637
G1 X1.581
G3 X1.5825 Y0.9078 I0.0 J0.002
G1 X1.5991 Y0.9262
G1 X1.6157 Y0.9445
G3 X1.6162 Y0.9459 I-0.0015 J0.0013
G1 Y0.9611
G1 Y0.9763
G3 X1.6156 Y0.9778 I-0.002 J0.0
G1 X1.5972 Y0.9944
G1 X1.5788 Y1.011
G3 X1.5775 Y1.0116 I-0.0013 J-0.0015
G1 X1.5619
G1 X1.5464
G3 X1.5449 Y1.0108 I0.0 J-0.002
G1 X1.5324 Y0.9958
G1 X1.5205 Y0.9814
G1 X1.4825
G1 X1.4435
G3 X1.4432 I0.0 J-0.002
G0 Z0.125
G0 X1.3639 Y0.7583
G0 Z0.0748
G1 F20.0 Z-0.0027
G2 F40.0 X1.3652 Y0.7564 I-0.0007 J-0.0019
G1 Y0.6671
G1 Y0.5798
G1 X1.5439
G1 X1.7227
G1 Y0.6767
G1 Y0.7746
G1 X1.7032 Y0.7922
G1 X1.6832 Y0.8104
G2 X1.6825 Y0.8119 I0.0013 J0.0015
G1 Y0.8389
G1 Y0.8659
G2 X1.6832 Y0.8674 I0.002 J0.0
G1 X1.7039 Y0.8862
G1 X1.7239 Y0.9042
G1 X1.7177 Y0.9371
G1 X1.7114 Y0.971
G2 X1.7118 Y0.9728 I0.002 J0.0004
G1 X1.7291 Y0.9918
G1 X1.7464 Y1.0109
G2 X1.7478 Y1.0116 I0.0015 J-0.0013
G1 X1.7631
G1 X1.7783
G2 X1.7796 Y1.011 I0.0 J-0.002
G1 X1.798 Y0.9944
G1 X1.8164 Y0.9778
G2 X1.817 Y0.9763 I-0.0013 J-0.0015
G1 Y0.9585
G1 Y0.9407
G2 X1.8162 Y0.9392 I-0.002 J0.0
G1 X1.7914 Y0.9196
G1 X1.7685 Y0.9016
G1 X1.7865 Y0.8853
G1 X1.8063 Y0.8674
G2 X1.807 Y0.8659 I-0.0013 J-0.0015
G1 Y0.8389
G1 Y0.8119
G2 X1.8063 Y0.8104 I-0.002 J0.0
G1 X1.7862 Y0.7922
G1 X1.7668 Y0.7746
G1 Y0.6566
G1 Y0.5377
G2 X1.7648 Y0.5357 I-0.002 J0.0
G1 X1.5439
G1 X1.3231
G2 X1.3211 Y0.5377 I0.0 J0.002
G1 Y0.628
G1 Y0.7164
G1 X1.3056 Y0.7163
G1 X1.3011 Y0.716
G1 X1.2967 Y0.7157
G3 X1.2937 Y0.7154 I0.0122 J-0.1446
G3 X1.2908 Y0.715 I0.0052 J-0.0576
G1 X1.2907
G3 X1.2877 Y0.7146 I0.0066 J-0.0591
G3 X1.2857 Y0.7143 I0.0081 J-0.0585
G3 X1.2831 Y0.7138 I0.017 J-0.1083
G1 X1.2795 Y0.7132
G1 X1.2769 Y0.7126
G1 Y0.7127
G1 X1.2743 Y0.7121
G3 X1.2692 Y0.7109 I0.0529 J-0.2444
G3 X1.2658 Y0.7101 I0.0578 J-0.2545
G1 X1.2447 Y0.7045
G1 Y0.6836
G1 Y0.6622
G1 X1.2642 Y0.6446
G1 X1.2842 Y0.6264
G2 X1.2849 Y0.6249 I-0.0013 J-0.0015
G1 Y0.5997
G1 Y0.5744
G2 X1.2844 Y0.5731 I-0.002 J0.0
G1 X1.2678 Y0.5547
G1 X1.2511 Y0.5363
G2 X1.2497 Y0.5357 I-0.0015 J0.0013
G1 X1.2244
G1 X1.1991
G2 X1.1978 Y0.5362 I0.0 J0.002
G1 X1.1794 Y0.5528
G1 X1.1611 Y0.5694
G2 X1.1604 Y0.5709 I0.0013 J0.0015
G1 Y0.5979
G1 Y0.6249
G2 X1.1611 Y0.6264 I0.002 J0.0
G1 X1.1812 Y0.6446
G1 X1.2006 Y0.6622
G1 Y0.6836
G1 Y0.7045
G1 X1.182 Y0.7093
G1 X1.1619 Y0.7146
G2 X1.1604 Y0.7165 I0.0005 J0.0019
G1 Y0.7369
G1 Y0.7574
G2 X1.1614 Y0.7591 I0.002 J0.0
G1 X1.1721 Y0.7657
G1 X1.1828 Y0.7723
G2 X1.184 Y0.7726 I0.0011 J-0.0017
G1 X1.2737 Y0.7655
G1 X1.3634 Y0.7584
G2 X1.3639 Y0.7583 I-0.0002 J-0.002
G0 Z0.125
G0 X0.9848 Y0.7567
G0 Z0.0748
G1 F20.0 Z-0.0027
G3 F40.0 X0.9839 Y0.7584 I-0.002 J0.0
G1 X0.9758 Y0.7633
G3 X0.9749 Y0.7636 I-0.001 J-0.0017
G3 X0.9443 Y0.7654 I-0.0814 J-1.1542
G3 X0.9352 Y0.7657 I-0.0178 J-0.4183
G1 X0.9273 Y0.7658
G1 X0.9272
G3 X0.8995 Y0.7657 I-0.0116 J-0.9754
G1 X0.8856 Y0.7655
G3 X0.8787 Y0.7653 I0.0204 J-1.0925
G3 X0.8752 I0.0035 J-0.2304
G2 X0.8718 Y0.7652 I-0.0057 J0.1771
G1 X0.8226 Y0.7641
G1 X0.7733 Y0.7631
G1 X0.58 Y0.7576
G3 X0.5781 Y0.7556 I0.0001 J-0.002
G1 Y0.6667
G1 Y0.5798
G1 X0.3893
G1 X0.2006
G1 Y0.6767
G1 Y0.7746
G1 X0.219 Y0.7913
G1 X0.237 Y0.8076
G1 X0.2568 Y0.7953
G1 X0.2779 Y0.7821
G3 X0.28 I0.0011 J0.0017
G1 X0.2969 Y0.7928
G3 X0.297 I-0.0011 J0.0017
G3 X0.2983 Y0.7938 I-0.0476 J0.0662
G3 X0.2994 Y0.7946 I-0.0273 J0.0382
G3 X0.3004 Y0.7953 I-0.0215 J0.03
G3 X0.3021 Y0.7966 I-0.0254 J0.0355
G3 X0.3071 Y0.8006 I-0.0672 J0.0891
G3 X0.3172 Y0.8107 I-0.058 J0.0681
G3 X0.3212 Y0.8157 I-0.0925 J0.078
G1 X0.3231 Y0.8182
G1 Y0.8183
G1 X0.325 Y0.8208
G3 Y0.8209 I-0.0016 J0.0012
G1 X0.3357 Y0.8378
G3 Y0.8399 I-0.0017 J0.0011
G1 X0.325 Y0.8568
G3 Y0.8569 I-0.0017 J-0.0011
G3 X0.324 Y0.8582 I-0.0667 J-0.0479
G3 X0.3232 Y0.8593 I-0.0384 J-0.0274
G3 X0.3225 Y0.8603 I-0.0302 J-0.0217
G3 X0.3212 Y0.862 I-0.0358 J-0.0256
G3 X0.3172 Y0.867 I-0.0907 J-0.0685
G3 X0.3071 Y0.8772 I-0.0678 J-0.0576
G3 X0.3021 Y0.8812 I-0.0793 J-0.094
G1 X0.2996 Y0.8831
G1 X0.2995
G1 X0.297 Y0.8849
G3 X0.2969 Y0.885 I-0.0012 J-0.0016
G1 X0.28 Y0.8956
G3 X0.2779 I-0.0011 J-0.0017
G1 X0.2568 Y0.8825
G1 X0.237 Y0.8701
G1 X0.2208 Y0.8849
G1 X0.2034 Y0.9006
G3 X0.202 Y0.9011 I-0.0013 J-0.0015
G1 X0.1767
G1 X0.1515
G3 X0.15 Y0.9005 I0.0 J-0.002
G1 X0.1334 Y0.8821
G1 X0.1168 Y0.8637
G3 X0.1163 Y0.8624 I0.0015 J-0.0013
G1 Y0.8371
G1 Y0.8119
G3 X0.1169 Y0.8104 I0.002 J0.0
G1 X0.137 Y0.7922
G1 X0.1564 Y0.7746
G1 Y0.6566
G1 Y0.5377
G3 X0.1584 Y0.5357 I0.002 J0.0
G1 X0.3893
G1 X0.6203
G3 X0.6223 Y0.5377 I0.0 J0.002
G1 Y0.6294
G1 Y0.7191
G1 X0.7984 Y0.7152
G1 X0.9766 Y0.7114
G3 X0.9787 Y0.7131 I0.0 J0.002
G1 X0.9817 Y0.7347
G1 X0.9848 Y0.7564
G3 Y0.7567 I-0.002 J0.0003
G0 Z0.125
G0 X0.977 Y0.8118
G0 Z0.0748
G1 F20.0 Z-0.0027
G3 F40.0 X0.9787 Y0.8135 I-0.0003 J0.002
G1 X0.9816 Y0.834
G1 X0.9845 Y0.8545
G3 X0.984 Y0.8562 I-0.002 J0.0003
G1 X0.9765 Y0.8637
G1 X0.969 Y0.8712
G3 X0.9675 Y0.8717 I-0.0014 J-0.0014
G1 X0.8463 Y0.865
G1 X0.7262 Y0.8583
G1 X0.7133 Y0.874
G1 X0.6997 Y0.8904
G3 X0.6981 Y0.8911 I-0.0015 J-0.0013
G1 X0.6805
G1 X0.6629
G3 X0.6613 Y0.8904 I0.0 J-0.002
G1 X0.6488 Y0.8753
G1 X0.6369 Y0.861
G1 X0.5487
G1 X0.4596
G3 X0.4576 Y0.859 I0.0 J-0.002
G1 Y0.8005
G1 Y0.7428
G1 X0.435 Y0.7216
G1 X0.4123 Y0.7003
G1 X0.3978
G1 X0.3833
G1 X0.3657 Y0.7197
G1 X0.3475 Y0.7398
G3 X0.3461 Y0.7405 I-0.0015 J-0.0013
G1 X0.3191
G1 X0.292
G3 X0.2906 Y0.7398 I0.0 J-0.002
G1 X0.2739 Y0.7215
G1 X0.2573 Y0.7031
G3 X0.2568 Y0.7018 I0.0015 J-0.0013
G1 Y0.6765
G1 Y0.6512
G3 X0.2575 Y0.6497 I0.002 J0.0
G1 X0.2758 Y0.6331
G1 X0.2942 Y0.6165
G3 X0.2955 Y0.616 I0.0013 J0.0015
G1 X0.3208
G1 X0.3461
G3 X0.3475 Y0.6167 I0.0 J0.002
G1 X0.3657 Y0.6367
G1 X0.3833 Y0.6562
G1 X0.3994
G1 X0.4155
G1 X0.433 Y0.6367
G1 X0.4512 Y0.6167
G3 X0.4527 Y0.616 I0.0015 J0.0013
G1 X0.4797
G1 X0.5067
G3 X0.5082 Y0.6167 I0.0 J0.002
G1 X0.5248 Y0.635
G1 X0.5414 Y0.6534
G3 X0.5419 Y0.6547 I-0.0015 J0.0013
G1 Y0.68
G1 Y0.7052
G3 X0.5413 Y0.7067 I-0.002 J0.0
G1 X0.5212 Y0.7249
G1 X0.5018 Y0.7425
G1 Y0.7802
G1 Y0.8168
G1 X0.5688
G1 X0.6369
G1 X0.6488 Y0.8025
G1 X0.6613 Y0.7874
G3 X0.6629 Y0.7867 I0.0015 J0.0013
G1 X0.6805
G1 X0.6981
G3 X0.6997 Y0.7874 I0.0 J0.002
G1 X0.713 Y0.8035
G1 X0.7257 Y0.8188
G1 X0.8507 Y0.8153
G1 X0.9766 Y0.8118
G3 X0.977 I0.0001 J0.002
G0 Z0.125
G0 X0.9767 Y0.9122
G0 Z0.0748
G1 F20.0 Z-0.0027
G1 F40.0 X0.9766
G1 X0.8511 Y0.9158
G1 X0.7256 Y0.9194
G2 X0.7246 Y0.9197 I0.0001 J0.002
G1 X0.7147 Y0.9257
G1 X0.7129 Y0.9264
G1 X0.713
G1 X0.711 Y0.9271
G3 X0.7071 Y0.9283 I-0.0146 J-0.0412
G3 X0.7062 Y0.9285 I-0.0031 J-0.0115
G2 X0.7061 I0.0004 J0.002
G3 X0.7053 Y0.9287 I-0.0022 J-0.009
G2 X0.7051 I0.0003 J0.002
G3 X0.7046 Y0.9288 I-0.0014 J-0.0064
G3 X0.7018 Y0.9292 I-0.0108 J-0.0725
G3 X0.6963 Y0.9294 I-0.0055 J-0.0588
G1 X0.6946
G1 X0.6947
G1 X0.693
G1 X0.6896 Y0.9292
G1 X0.6873 Y0.9291
G1 X0.6874
G1 X0.6844 Y0.9289
G1 X0.663 Y0.9261
G2 X0.6612 Y0.9269 I-0.0003 J0.002
G1 X0.641 Y0.9525
G1 X0.6214 Y0.9774
G1 X0.5209
G1 X0.4195
G2 X0.4175 Y0.9794 I0.0 J0.002
G1 Y1.0397
G1 Y1.0979
G1 X0.3705
G1 X0.3225
G1 X0.3106 Y1.0836
G1 X0.2981 Y1.0685
G2 X0.2965 Y1.0678 I-0.0015 J0.0013
G1 X0.281
G1 X0.2654
G2 X0.2641 Y1.0683 I0.0 J0.002
G1 X0.2457 Y1.0849
G1 X0.2274 Y1.1015
G2 X0.2267 Y1.103 I0.0013 J0.0015
G1 Y1.1183
G1 Y1.1335
G2 X0.2272 Y1.1348 I0.002 J0.0
G1 X0.2438 Y1.1532
G1 X0.2604 Y1.1715
G2 X0.2619 Y1.1722 I0.0015 J-0.0013
G1 X0.2792
G1 X0.2965
G2 X0.2981 Y1.1715 I0.0 J-0.002
G1 X0.3106 Y1.1564
G1 X0.3225 Y1.1421
G1 X0.3906
G1 X0.4596
G2 X0.4616 Y1.1401 I0.0 J-0.002
G1 Y1.0788
G1 Y1.0195
G1 X0.5795 Y1.0231
G1 X0.6994 Y1.0266
G2 X0.7008 Y1.0261 I0.0001 J-0.002
G1 X0.7358 Y0.9922
G1 X0.7701 Y0.9589
G1 X0.8648 Y0.966
G1 X0.9605 Y0.9732
G2 X0.9617 Y0.9729 I0.0001 J-0.002
G1 X0.9728 Y0.966
G1 X0.9839 Y0.9592
G2 X0.9848 Y0.9572 I-0.0011 J-0.0017
G1 X0.9817 Y0.9355
G1 X0.9787 Y0.9139
G2 X0.9767 Y0.9122 I-0.002 J0.0003
G0 Z0.125
G0 X0.8455 Y0.6599
G0 Z0.0748
G1 F20.0 Z-0.0027
G3 F40.0 X0.8446 Y0.6602 I-0.0009 J-0.0018
G1 X0.8198
G1 X0.7949
G3 X0.7935 Y0.6596 I0.0 J-0.002
G1 X0.7815 Y0.6475
G1 X0.7709 Y0.6369
G1 X0.7602 Y0.6475
G1 X0.7482 Y0.6596
G3 X0.7468 Y0.6602 I-0.0014 J-0.0014
G1 X0.7202
G1 X0.6936
G3 X0.6922 Y0.6595 I0.0 J-0.002
G1 X0.6755 Y0.6411
G1 X0.6589 Y0.6228
G3 X0.6584 Y0.6214 I0.0015 J-0.0013
G1 Y0.5962
G1 Y0.5709
G3 X0.6591 Y0.5694 I0.002 J0.0
G1 X0.6774 Y0.5528
G1 X0.6958 Y0.5362
G3 X0.6971 Y0.5357 I0.0013 J0.0015
G1 X0.7219
G1 X0.7468
G3 X0.7482 Y0.5363 I0.0 J0.002
G1 X0.7602 Y0.5483
G1 X0.7709 Y0.5589
G1 X0.7815 Y0.5483
G1 X0.7935 Y0.5363
G3 X0.7949 Y0.5357 I0.0014 J0.0014
G1 X0.8215
G1 X0.8481
G3 X0.8495 Y0.5363 I0.0 J0.002
G1 X0.8662 Y0.5547
G1 X0.8828 Y0.5731
G3 X0.8833 Y0.5744 I-0.0015 J0.0013
G1 Y0.5997
G1 Y0.6249
G3 X0.8826 Y0.6264 I-0.002 J0.0
G1 X0.8643 Y0.643
G1 X0.8459 Y0.6596
G3 X0.8455 Y0.6599 I-0.0013 J-0.0015
G0 Z0.125
G0 X0.532 Y0.3135
G0 Z0.0748
G1 F20.0 Z-0.0027
G1 F40.0 X0.5222 Y0.3224
G1 X0.5046 Y0.3384
G3 X0.5032 Y0.3389 I-0.0013 J-0.0015
G1 X0.4779
G1 X0.4527
G3 X0.4512 Y0.3382 I0.0 J-0.002
G1 X0.4355 Y0.3206
G1 X0.4198 Y0.3031
G3 X0.4193 Y0.3017 I0.0015 J-0.0013
G1 Y0.2365
G1 Y0.1712
G3 X0.4198 Y0.1699 I0.002 J0.0
G1 X0.4355 Y0.1523
G1 X0.4512 Y0.1347
G3 X0.4527 Y0.1341 I0.0015 J0.0013
G1 X0.4797
G1 X0.5067
G3 X0.5082 Y0.1348 I0.0 J0.002
G1 X0.5238 Y0.1523
G1 X0.5394 Y0.1699
G3 X0.54 Y0.1712 I-0.0015 J0.0013
G1 X0.5402 Y0.2381
G1 X0.5404 Y0.305
G3 X0.5398 Y0.3065 I-0.002 J0.0
G1 X0.532 Y0.3135
G0 Z0.125
G0 X0.3798 Y0.3051
G0 Z0.0748
G1 F20.0 Z-0.0027
G3 F40.0 X0.3791 Y0.3065 I-0.002 J-0.0001
G1 X0.3615 Y0.3224
G1 X0.3439 Y0.3384
G3 X0.3426 Y0.3389 I-0.0013 J-0.0015
G1 X0.3173
G1 X0.292
G3 X0.2906 Y0.3382 I0.0 J-0.002
G1 X0.2748 Y0.3206
G1 X0.2591 Y0.3031
G3 X0.2586 Y0.3017 I0.0015 J-0.0013
G1 Y0.2365
G1 Y0.1712
G3 X0.2591 Y0.1699 I0.002 J0.0
G1 X0.2748 Y0.1523
G1 X0.2906 Y0.1347
G3 X0.292 Y0.1341 I0.0015 J0.0013
G1 X0.3191
G1 X0.3461
G3 X0.3476 Y0.1348 I0.0 J0.002
G1 X0.3632 Y0.1523
G1 X0.3788 Y0.1699
G3 X0.3793 Y0.1712 I-0.0015 J0.0013
G1 X0.3795 Y0.2381
G1 X0.3798 Y0.305
G3 Y0.3051 I-0.002 J0.0
G0 Z0.125
G0 X0.697 Y1.2637
G0 Z0.0748
G1 F20.0 Z-0.0027
G3 F40.0 X0.6975 Y1.2636 I0.0006 J0.0019
G1 X0.7567 Y1.2605
G1 X0.8152 Y1.2575
G1 X0.8409 Y1.2329
G1 X0.8671 Y1.2078
G3 X0.8686 Y1.2072 I0.0014 J0.0014
G1 X0.9227 Y1.2103
G1 X0.9768 Y1.2134
G3 X0.9787 Y1.2151 I-0.0001 J0.002
G1 X0.9816 Y1.2356
G1 X0.9845 Y1.2561
G3 X0.984 Y1.2578 I-0.002 J0.0003
G1 X0.9768 Y1.2649
G1 X0.9697 Y1.272
G3 X0.9683 Y1.2726 I-0.0014 J-0.0014
G1 X0.9167
G1 X0.866
G1 X0.8321 Y1.3076
G1 X0.7976 Y1.3432
G3 X0.7961 Y1.3438 I-0.0014 J-0.0014
G1 X0.7468 Y1.3408
G1 X0.6975 Y1.3379
G3 X0.6959 Y1.3369 I0.0001 J-0.002
G1 X0.6849 Y1.3194
G1 X0.6739 Y1.3018
G3 Y1.2997 I0.0017 J-0.0011
G1 X0.6849 Y1.2821
G1 X0.6959 Y1.2645
G3 X0.697 Y1.2637 I0.0017 J0.0011
G0 Z0.125
G0 X0.7569 Y1.3643
G0 Z0.0748
G1 F20.0 Z-0.0027
G2 F40.0 X0.7562 Y1.365 I0.001 J0.0017
G1 X0.7451 Y1.3846
G1 X0.7428 Y1.3881
G1 X0.7404 Y1.3916
G1 X0.7388 Y1.3939
G3 X0.7365 Y1.3969 I-0.0956 J-0.0684
G3 X0.7246 Y1.4105 I-0.1126 J-0.0869
G1 X0.7228 Y1.4123
G1 X0.7229 Y1.4122
G1 X0.7211 Y1.414
G3 X0.7175 Y1.4173 I-0.2457 J-0.2578
G1 Y1.4174
G3 X0.7151 Y1.4196 I-0.0899 J-0.0955
G1 X0.715
G3 X0.7118 Y1.4225 I-0.1445 J-0.1557
G1 X0.6893 Y1.4412
G2 X0.6885 Y1.4427 I0.0013 J0.0015
G1 Y1.4588
G1 Y1.4748
G2 X0.6891 Y1.4762 I0.002 J0.0
G1 X0.7057 Y1.4945
G1 X0.7223 Y1.5129
G2 X0.7238 Y1.5136 I0.0015 J-0.0013
G1 X0.7411
G1 X0.7584
G2 X0.7599 Y1.5128 I0.0 J-0.002
G1 X0.7724 Y1.4978
G1 X0.7843 Y1.4834
G1 X0.8233
G1 X0.8624
G1 X0.8815 Y1.5078
G1 X0.9013 Y1.5329
G2 X0.9028 Y1.5336 I0.0016 J-0.0012
G1 X0.9189
G1 X0.9349
G2 X0.9363 Y1.5331 I0.0 J-0.002
G1 X0.9546 Y1.5165
G1 X0.973 Y1.4999
G2 X0.9737 Y1.4984 I-0.0013 J-0.0015
G1 Y1.4811
G1 Y1.4638
G2 X0.9729 Y1.4623 I-0.002 J0.0
G1 X0.9579 Y1.4498
G1 X0.9435 Y1.4379
G1 Y1.4061
G1 Y1.3749
G1 X0.9629 Y1.3698
G1 X0.9838 Y1.3644
G2 X0.9853 Y1.3621 I-0.0005 J-0.0019
G1 X0.982 Y1.3388
G1 X0.9787 Y1.3155
G2 X0.9767 Y1.3138 I-0.002 J0.0003
G1 X0.9215
G1 X0.8662
G2 X0.8643 Y1.3155 I0.0 J0.002
G1 X0.8609 Y1.3388
G1 X0.8576 Y1.3621
G2 X0.8591 Y1.3644 I0.002 J0.0003
G1 X0.88 Y1.3698
G1 X0.8994 Y1.3749
G1 Y1.4073
G1 Y1.4393
G1 X0.8612
G1 X0.8231
G1 Y1.4124
G1 Y1.3835
G2 X0.8223 Y1.382 I-0.002 J0.0
G1 X0.8078 Y1.3699
G1 X0.7932 Y1.3578
G2 X0.7915 Y1.3573 I-0.0013 J0.0015
G1 X0.7745 Y1.3607
G1 X0.7576 Y1.364
G2 X0.7569 Y1.3643 I0.0004 J0.002
G0 Z0.125
G0 X0.3813 Y1.4375
G0 Z0.0748
G1 F20.0 Z-0.0027
G3 F40.0 Y1.4378 I-0.002 J0.0004
G1 Y1.4631
G1 Y1.4884
G3 X0.3806 Y1.4899 I-0.002 J0.0
G1 X0.3606 Y1.508
G1 X0.3411 Y1.5256
G1 Y1.5467
G1 Y1.5687
G3 X0.3405 Y1.5702 I-0.002 J0.0
G1 X0.3221 Y1.5868
G1 X0.3038 Y1.6034
G3 X0.3024 Y1.6039 I-0.0013 J-0.0015
G1 X0.2771
G1 X0.2519
G3 X0.2504 Y1.6033 I0.0 J-0.002
G1 X0.2338 Y1.5849
G1 X0.2172 Y1.5665
G3 X0.2167 Y1.5652 I0.0015 J-0.0013
G1 Y1.5399
G1 Y1.5147
G3 X0.2173 Y1.5132 I0.002 J0.0
G1 X0.2374 Y1.495
G1 X0.2568 Y1.4774
G1 Y1.4563
G1 Y1.4344
G3 X0.2575 Y1.4329 I0.002 J0.0
G1 X0.2758 Y1.4163
G1 X0.2942 Y1.3996
G3 X0.2955 Y1.3991 I0.0013 J0.0015
G1 X0.3208
G1 X0.3461
G3 X0.3475 Y1.3998 I0.0 J0.002
G1 X0.3642 Y1.4181
G1 X0.3808 Y1.4365
G3 X0.3813 Y1.4375 I-0.0015 J0.0013
G0 Z0.125
G0 X0.2407 Y1.4283
G0 Z0.0748
G1 F20.0 Z-0.0027
G3 F40.0 X0.2401 Y1.4296 I-0.002 J-0.0001
G1 X0.2217 Y1.4462
G3 X0.2216 Y1.4463 I-0.0013 J-0.0015
G1 X0.219 Y1.4484
G3 X0.2149 Y1.4517 I-0.0838 J-0.1025
G1 X0.2128 Y1.4532
G1 X0.2117 Y1.454
G1 X0.2107 Y1.4547
G3 X0.2053 Y1.4582 I-0.0401 J-0.057
G3 X0.1994 Y1.461 I-0.0189 J-0.0323
G3 X0.195 Y1.4623 I-0.0133 J-0.0356
G1 X0.1939 Y1.4626
G1 X0.1907 Y1.4633
G3 X0.1903 Y1.4634 I-0.0004 J-0.0019
G1 X0.1805
G1 Y1.5862
G1 Y1.7092
G1 X0.2063 Y1.7122
G1 X0.2339 Y1.7154
G3 X0.2357 Y1.7171 I-0.0002 J0.002
G1 X0.2386 Y1.7376
G1 X0.2416 Y1.7581
G3 X0.241 Y1.7598 I-0.002 J0.0003
G1 X0.2339 Y1.7669
G1 X0.2268 Y1.774
G3 X0.2253 Y1.7746 I-0.0014 J-0.0014
G1 X0.1765
G1 X0.1277
G3 X0.1258 Y1.7733 I0.0 J-0.002
G1 X0.1195 Y1.7569
G1 X0.1132 Y1.7405
G3 X0.1134 Y1.7388 I0.0019 J-0.0007
G1 X0.125 Y1.7201
G1 X0.1363 Y1.702
G1 Y1.5725
G1 Y1.4436
G1 X0.1272 Y1.438
G1 X0.1172 Y1.4318
G3 X0.1163 Y1.4301 I0.0011 J-0.0017
G1 Y1.4021
G1 Y1.3741
G3 X0.1169 Y1.3726 I0.002 J0.0
G1 X0.1353 Y1.356
G1 X0.1536 Y1.3394
G3 X0.155 Y1.3389 I0.0013 J0.0015
G1 X0.1802
G1 X0.2055
G3 X0.207 Y1.3395 I0.0 J0.002
G1 X0.2236 Y1.3579
G1 X0.2402 Y1.3763
G3 X0.2407 Y1.3776 I-0.0015 J0.0013
G1 Y1.4029
G1 Y1.4281
G3 Y1.4283 I-0.002 J0.0
G0 Z0.125
G0 X0.2127 Y1.915
G0 Z0.0748
G1 F20.0 Z-0.0027
G1 F40.0 X0.2338 Y1.9162
G3 X0.2357 Y1.9179 I-0.0001 J0.002
G1 X0.2386 Y1.9384
G1 X0.2416 Y1.9589
G3 X0.241 Y1.9606 I-0.002 J0.0003
G1 X0.2339 Y1.9677
G3 X0.2335 Y1.968 I-0.0014 J-0.0014
G3 X0.2326 Y1.9685 I-0.0112 J-0.0179
G3 X0.2265 Y1.9717 I-0.0263 J-0.0431
G1 X0.2264
G3 X0.2207 Y1.9735 I-0.0133 J-0.0333
G3 X0.2178 Y1.974 I-0.0094 J-0.0417
G3 X0.2164 Y1.9742 I-0.0232 J-0.1507
G3 X0.2157 Y1.9743 I-0.0021 J-0.0123
G3 X0.2149 Y1.9744 I-0.0016 J-0.0098
G3 X0.2085 Y1.975 I-0.0139 J-0.114
G3 X0.2076 Y1.9751 I-0.0015 J-0.0153
G1 X0.202 Y1.9754
G3 X0.2019 I-0.0001 J-0.002
G1 X0.1805
G1 Y2.0575
G1 Y2.1407
G1 X0.1948 Y2.1526
G1 X0.2099 Y2.1651
G3 X0.2106 Y2.1666 I-0.0013 J0.0015
G1 Y2.1839
G1 Y2.2012
G3 X0.21 Y2.2027 I-0.002 J0.0
G1 X0.1916 Y2.2193
G1 X0.1732 Y2.2359
G3 X0.1719 Y2.2364 I-0.0013 J-0.0015
G1 X0.1567
G1 X0.1414
G3 X0.14 Y2.2358 I0.0 J-0.002
G1 X0.1233 Y2.2174
G1 X0.1067 Y2.1991
G3 X0.1062 Y2.1977 I0.0015 J-0.0013
G1 Y2.1822
G1 Y2.1666
G3 X0.1069 Y2.1651 I0.002 J0.0
G1 X0.122 Y2.1526
G1 X0.1363 Y2.1407
G1 Y2.0624
G1 Y1.9837
G1 X0.125 Y1.9656
G1 X0.1134 Y1.947
G3 X0.1132 Y1.9452 I0.0017 J-0.0011
G1 X0.1197 Y1.9283
G1 X0.1262 Y1.9114
G3 X0.1282 Y1.9101 I0.0019 J0.0007
G1 X0.181 Y1.9131
G1 X0.2127 Y1.915
G0 Z0.125
G0 X1.1657 Y2.5195
G0 Z0.0748
G1 F20.0 Z-0.0027
G3 F40.0 X1.1674 Y2.5186 I0.0017 J0.0011
G1 X1.2227
G1 X1.2779
G3 X1.2799 Y2.5203 I0.0 J0.002
G1 X1.2831 Y2.5429
G1 X1.2863 Y2.5656
G3 X1.285 Y2.5677 I-0.002 J0.0003
G1 X1.2704 Y2.5733
G3 X1.2701 Y2.5734 I-0.0007 J-0.0019
G3 X1.2684 Y2.5738 I-0.0141 J-0.0644
G3 X1.267 Y2.5741 I-0.0082 J-0.0368
G3 X1.2657 Y2.5743 I-0.0063 J-0.0286
G3 X1.2645 Y2.5745 I-0.0053 J-0.0243
G1 X1.2606 Y2.5752
G3 X1.2586 Y2.5756 I-0.006 J-0.031
G3 X1.2566 Y2.5758 I-0.0068 J-0.0419
G3 X1.2459 Y2.5767 I-0.014 J-0.1111
G3 X1.2353 I-0.0067 J-0.1977
G1 X1.2293 Y2.5766
G3 X1.2281 I0.0003 J-0.0311
G1 X1.2197 Y2.5763
G3 X1.2175 Y2.5762 I0.0017 J-0.0683
G3 X1.2143 Y2.5761 I0.0029 J-0.1043
G3 X1.2111 Y2.5759 I0.0063 J-0.1802
G1 X1.1673 Y2.5728
G3 X1.1654 Y2.5708 I0.0001 J-0.002
G1 Y2.5457
G1 Y2.5206
G3 X1.1657 Y2.5195 I0.002 J0.0
G0 Z0.125
G0 X1.1794 Y2.6127
G0 Z0.0748
G1 F20.0 Z-0.0027
G3 F40.0 X1.1799 I0.0003 J0.002
G1 X1.2917 Y2.6198
G1 X1.4035 Y2.6269
G3 X1.4054 Y2.6289 I-0.0001 J0.002
G1 Y2.7981
G1 Y2.9674
G3 X1.4034 Y2.9694 I-0.002 J0.0
G1 X1.3544
G1 X1.3064
G1 X1.2945 Y2.9837
G1 X1.282 Y2.9988
G3 X1.2804 Y2.9995 I-0.0015 J-0.0013
G1 X1.2631
G1 X1.2458
G3 X1.2444 Y2.9988 I0.0 J-0.002
G1 X1.2277 Y2.9805
G1 X1.2111 Y2.9621
G3 X1.2106 Y2.9608 I0.0015 J-0.0013
G1 Y2.9455
G1 Y2.9303
G3 X1.2113 Y2.9288 I0.002 J0.0
G1 X1.2296 Y2.9122
G1 X1.248 Y2.8956
G3 X1.2493 Y2.8951 I0.0013 J0.0015
G1 X1.2649
G1 X1.2804
G3 X1.282 Y2.8958 I0.0 J0.002
G1 X1.2945 Y2.9109
G1 X1.3064 Y2.9252
G1 X1.3343
G1 X1.3612
G1 Y2.7962
G1 Y2.6673
G1 X1.2657 Y2.6702
G1 X1.1681 Y2.6732
G3 X1.1661 Y2.6716 I-0.0001 J-0.002
G1 X1.1623 Y2.6529
G1 X1.1586 Y2.6343
G3 X1.1591 Y2.6325 I0.002 J-0.0004
G1 X1.1687 Y2.6229
G1 X1.1783 Y2.6133
G3 X1.1794 Y2.6127 I0.0014 J0.0014
G0 Z0.125
G0 X1.5823 Y2.839
G0 Z0.0748
G1 F20.0 Z-0.0027
G3 F40.0 X1.5828 Y2.8385 I0.0017 J0.001
G1 X1.6011 Y2.8219
G1 X1.6195 Y2.8052
G3 X1.6208 Y2.8047 I0.0013 J0.0015
G1 X1.6461
G1 X1.6713
G3 X1.6728 Y2.8054 I0.0 J0.002
G1 X1.6894 Y2.8237
G1 X1.7061 Y2.8421
G3 X1.7066 Y2.8434 I-0.0015 J0.0013
G1 Y2.8683
G1 Y2.8931
G3 X1.706 Y2.8945 I-0.002 J0.0
G1 X1.6939 Y2.9065
G1 X1.6833 Y2.9172
G1 X1.6939 Y2.9278
G1 X1.706 Y2.9398
G3 X1.7066 Y2.9413 I-0.0014 J0.0014
G1 Y2.9678
G1 Y2.9944
G3 X1.7059 Y2.9959 I-0.002 J0.0
G1 X1.6876 Y3.0125
G1 X1.6692 Y3.0291
G3 X1.6679 Y3.0296 I-0.0013 J-0.0015
G1 X1.6426
G1 X1.6173
G3 X1.6158 Y3.0289 I0.0 J-0.002
G1 X1.5992 Y3.0106
G1 X1.5826 Y2.9922
G3 X1.5821 Y2.9909 I0.0015 J-0.0013
G1 Y2.9661
G1 Y2.9413
G3 X1.5827 Y2.9398 I0.002 J0.0
G1 X1.5947 Y2.9278
G1 X1.6054 Y2.9172
G1 X1.5947 Y2.9065
G1 X1.5827 Y2.8945
G3 X1.5821 Y2.8931 I0.0014 J-0.0014
G1 Y2.8665
G1 Y2.84
G3 X1.5823 Y2.839 I0.002 J0.0
G0 Z0.125
G0 X1.5972 Y0.3389
G0 Z0.0748
G1 F20.0 Z-0.0027
G3 F40.0 X1.5958 Y0.3382 I0.0 J-0.002
G1 X1.58 Y0.3206
G1 X1.5643 Y0.3031
G3 X1.5638 Y0.3017 I0.0015 J-0.0013
G1 Y0.2365
G1 Y0.1712
G3 X1.5643 Y0.1699 I0.002 J0.0
G1 X1.58 Y0.1523
G1 X1.5958 Y0.1347
G3 X1.5972 Y0.1341 I0.0015 J0.0013
G1 X1.6243
G1 X1.6513
G3 X1.6528 Y0.1348 I0.0 J0.002
G1 X1.6684 Y0.1523
G1 X1.684 Y0.1699
G3 X1.6845 Y0.1712 I-0.0015 J0.0013
G1 X1.6847 Y0.2381
G1 X1.685 Y0.305
G3 X1.6843 Y0.3065 I-0.002 J0.0
G1 X1.6667 Y0.3224
G1 X1.6491 Y0.3384
G3 X1.6478 Y0.3389 I-0.0013 J-0.0015
G1 X1.6225
G1 X1.5972
G0 Z0.125
G0 X1.5242 Y0.3058
G0 Z0.0748
G1 F20.0 Z-0.0027
G3 F40.0 X1.5237 Y0.3065 I-0.0018 J-0.0008
G1 X1.5061 Y0.3224
G1 X1.4885 Y0.3384
G3 X1.4871 Y0.3389 I-0.0013 J-0.0015
G1 X1.4619
G1 X1.4366
G3 X1.4351 Y0.3382 I0.0 J-0.002
G1 X1.4194 Y0.3206
G1 X1.4037 Y0.3031
G3 X1.4032 Y0.3017 I0.0015 J-0.0013
G1 Y0.2365
G1 Y0.1712
G3 X1.4037 Y0.1699 I0.002 J0.0
G1 X1.4194 Y0.1523
G1 X1.4351 Y0.1347
G3 X1.4366 Y0.1341 I0.0015 J0.0013
G1 X1.4636
G1 X1.4906
G3 X1.4921 Y0.1348 I0.0 J0.002
G1 X1.5077 Y0.1523
G1 X1.5234 Y0.1699
G3 X1.5239 Y0.1712 I-0.0015 J0.0013
G1 X1.5241 Y0.2381
G1 X1.5243 Y0.305
G3 X1.5242 Y0.3058 I-0.002 J0.0
G0 Z0.125
M5
M30
