( Made using CamBam - http://www.cambam.co.uk )
( statevariablepcb_pcb_pots 2/7/2015 4:05:05 PM )
( T1 : 0.04 )
( T2 : 0.031 )
( T3 : 0.0 )
( T7 : 0.0472 )
G20 G90 G64 G40
G0 Z0.125
( T7 : 0.0472 )
T7 M6
( .0472 drills )
G17
M3 S1000
G0 X0.15 Y1.77
G98
G81 X0.15 Y1.77 Z-0.075 R0.125 F20.0
G81 Y1.965 Z-0.075
G81 Y2.16 Z-0.075
G81 Y1.245 Z-0.075
G81 Y1.05 Z-0.075
G81 Y0.855 Z-0.075
G80
( .04 drills )
G0 Z0.125
( T1 : 0.04 )
T1 M6
M3 S1000
G0 X2.3413 Y2.913
G98
G81 X2.3413 Y2.913 Z-0.075 R0.125 F20.0
G81 X2.4863 Z-0.075
G81 X2.196 Y2.9107 Z-0.075
G81 X1.8919 Y3.1578 Z-0.075
G81 X1.7919 Z-0.075
G81 Y3.2578 Z-0.075
G81 X1.6919 Z-0.075
G81 Y3.1578 Z-0.075
G81 X1.5919 Z-0.075
G81 X1.4919 Z-0.075
G81 Y3.2578 Z-0.075
G81 X1.5919 Z-0.075
G81 X1.8919 Z-0.075
G81 X1.9555 Y2.5121 Z-0.075
G81 X1.2134 Y2.913 Z-0.075
G81 X1.053 Y1.4058 Z-0.075
G81 X1.4516 Y1.3073 Z-0.075
G81 X2.3976 Y1.5661 Z-0.075
G81 X1.0301 Y0.1391 Z-0.075
G80
( .031 drills )
G0 Z0.125
( T2 : 0.031 )
T2 M6
M3 S1000
G0 X1.912 Y2.9313
G98
G81 X1.912 Y2.9313 Z-0.075 R0.125 F20.0
G81 X1.7539 Y2.9336 Z-0.075
G81 Y2.771 Z-0.075
G81 X1.5707 Z-0.075
G81 Y2.9313 Z-0.075
G81 X1.3714 Z-0.075
G81 Y2.7687 Z-0.075
G81 X1.2134 Y2.8305 Z-0.075
G81 X1.0507 Z-0.075
G81 X1.053 Y2.4297 Z-0.075
G81 X1.2111 Z-0.075
G81 X1.3325 Y2.2693 Z-0.075
G81 X1.4539 Y2.2716 Z-0.075
G81 Y2.3701 Z-0.075
G81 Y2.5098 Z-0.075
G81 X1.7516 Y2.3678 Z-0.075
G81 X1.7494 Y2.267 Z-0.075
G81 X1.7516 Y2.1663 Z-0.075
G81 Y2.0678 Z-0.075
G81 X1.7539 Y1.967 Z-0.075
G81 X1.7516 Y1.8662 Z-0.075
G81 Y1.7677 Z-0.075
G81 Y1.628 Z-0.075
G81 X1.8937 Y1.7082 Z-0.075
G81 X1.9349 Y1.6463 Z-0.075
G81 X2.0357 Y1.5249 Z-0.075
G81 X1.9326 Y1.4058 Z-0.075
G81 X1.8547 Z-0.075
G81 X1.7539 Y1.1653 Z-0.075
G81 Y1.0645 Z-0.075
G81 Y0.9637 Z-0.075
G81 Y0.863 Z-0.075
G81 X1.7516 Y0.7622 Z-0.075
G81 Y0.6637 Z-0.075
G81 X1.7539 Y0.5629 Z-0.075
G81 X1.7562 Y0.4644 Z-0.075
G81 X1.8158 Y0.3224 Z-0.075
G81 Y0.1621 Z-0.075
G81 X1.9967 Y0.1598 Z-0.075
G81 X2.1158 Y0.2422 Z-0.075
G81 X2.2372 Y0.1621 Z-0.075
G81 X2.2349 Y0.3613 Z-0.075
G81 X2.1365 Y0.4415 Z-0.075
G81 X1.9967 Y0.3407 Z-0.075
G81 X1.9761 Y0.6614 Z-0.075
G81 X2.2762 Z-0.075
G81 X2.3976 Y0.8034 Z-0.075
G81 X2.5167 Y0.9248 Z-0.075
G81 X2.4938 Y1.1653 Z-0.075
G81 Y1.2661 Z-0.075
G81 X2.4961 Y1.3669 Z-0.075
G81 X2.3357 Y1.4081 Z-0.075
G81 X2.2372 Y1.5272 Z-0.075
G81 X2.3586 Y1.6463 Z-0.075
G81 X2.4984 Y1.7082 Z-0.075
G81 X2.3563 Y1.8066 Z-0.075
G81 X2.3953 Y1.9899 Z-0.075
G81 X2.3976 Y2.1296 Z-0.075
G81 X2.3953 Y2.2693 Z-0.075
G81 X2.4984 Z-0.075
G81 X2.4813 Y2.4297 Z-0.075
G81 X2.3413 Z-0.075
G81 X2.196 Z-0.075
G81 X1.9944 Y2.2693 Z-0.075
G81 Y2.1273 Z-0.075
G81 Y1.9899 Z-0.075
G81 X1.9555 Y1.8089 Z-0.075
G81 X1.8937 Z-0.075
G81 X1.4516 Y1.77 Z-0.075
G81 X1.4539 Y1.8685 Z-0.075
G81 Y1.9693 Z-0.075
G81 Y2.0701 Z-0.075
G81 Y2.1708 Z-0.075
G81 X1.3119 Y2.0678 Z-0.075
G81 Y1.8891 Z-0.075
G81 Y1.8296 Z-0.075
G81 Y1.7265 Z-0.075
G81 X1.1103 Y1.7471 Z-0.075
G81 Y1.628 Z-0.075
G81 X1.053 Y1.4883 Z-0.075
G81 X0.9087 Y1.7471 Z-0.075
G81 X0.911 Y2.1479 Z-0.075
G81 X0.9316 Y2.2716 Z-0.075
G81 X1.1103 Y2.1479 Z-0.075
G81 X1.4516 Y1.4883 Z-0.075
G81 Y1.4058 Z-0.075
G81 Y1.1653 Z-0.075
G81 Y1.0645 Z-0.075
G81 Y0.9637 Z-0.075
G81 Y0.8652 Z-0.075
G81 Y0.7622 Z-0.075
G81 Y0.666 Z-0.075
G81 X1.4493 Y0.5606 Z-0.075
G81 X1.4516 Y0.4644 Z-0.075
G81 X1.4126 Y0.3201 Z-0.075
G81 Y0.1598 Z-0.075
G81 X1.1721 Y0.3613 Z-0.075
G81 X1.0278 Y0.2422 Z-0.075
G81 X0.6915 Y0.1305 Z-0.075
G81 X1.0278 Y0.6431 Z-0.075
G81 X1.1699 Y0.7622 Z-0.075
G81 Y0.9225 Z-0.075
G81 X1.1721 Y1.1035 Z-0.075
G81 X0.6966 Y1.3073 Z-0.075
G81 X0.425 Y1.25 Z-0.075
G81 Y1.055 Z-0.075
G81 Y0.855 Z-0.075
G81 X2.1365 Y0.9248 Z-0.075
G81 X2.2327 Y1.0439 Z-0.075
G81 X2.1342 Y1.1653 Z-0.075
G81 X2.5167 Y0.5217 Z-0.075
G81 X2.3976 Y0.4026 Z-0.075
G81 X1.8547 Y2.5098 Z-0.075
G81 X1.9532 Y2.771 Z-0.075
G81 X2.196 Y2.8305 Z-0.075
G81 X2.3413 Z-0.075
G81 X2.4863 Z-0.075
G80
( Profile1 )
G0 Z0.125
( T3 : 0.0 )
T3 M6
M3 S1000
G0 X0.9799 Y0.1815
G0 Z0.016
G1 F10.0 Z-0.004
G1 F25.0 X0.9679 Y0.1695
G3 X0.9667 Y0.1667 I0.0028 J-0.0028
G1 Y0.1401
G1 Y0.1136
G3 X0.968 Y0.1106 I0.004 J0.0
G1 X0.9864 Y0.094
G1 X1.0048 Y0.0774
G3 X1.0074 Y0.0763 I0.0027 J0.003
G1 X1.0327
G1 X1.058
G3 X1.0609 Y0.0776 I0.0 J0.004
G1 X1.0775 Y0.096
G1 X1.0942 Y0.1144
G3 X1.0952 Y0.117 I-0.003 J0.0027
G1 Y0.1419
G1 Y0.1667
G3 X1.094 Y0.1695 I-0.004 J0.0
G1 X1.082 Y0.1815
G1 X1.0728 Y0.1908
G1 X1.082 Y0.2
G1 X1.094 Y0.212
G3 X1.0952 Y0.2149 I-0.0028 J0.0028
G1 Y0.2414
G1 Y0.268
G3 X1.0939 Y0.2709 I-0.004 J0.0
G1 X1.0755 Y0.2875
G1 X1.0572 Y0.3042
G3 X1.0545 Y0.3052 I-0.0027 J-0.003
G1 X1.0292
G1 X1.004
G3 X1.001 Y0.3039 I0.0 J-0.004
G1 X0.9844 Y0.2855
G1 X0.9678 Y0.2672
G3 X0.9667 Y0.2645 I0.003 J-0.0027
G1 Y0.2397
G1 Y0.2149
G3 X0.9679 Y0.212 I0.004 J0.0
G1 X0.9799 Y0.2
G1 X0.9892 Y0.1908
G1 X0.9799 Y0.1815
G0 Z0.125
G0 Y0.0442
G0 Z0.016
G1 F10.0 Z-0.004
G1 F25.0 X0.8342
G1 Y1.3353
G1 Y2.6265
G1 X1.1916
G1 X1.549
G1 Y2.3601
G1 Y2.0938
G1 X1.4753 Y2.0955
G1 X1.3975 Y2.0973
G3 X1.3934 Y2.0933 I-0.0001 J-0.004
G1 Y2.0682
G1 Y2.0431
G3 X1.3975 Y2.0391 I0.004 J0.0
G1 X1.4753 Y2.041
G1 X1.549 Y2.0427
G1 Y1.516
G1 Y0.9894
G1 X1.4756 Y0.9911
G1 X1.3982 Y0.9929
G3 X1.3941 Y0.9897 I-0.0001 J-0.004
G1 X1.3904 Y0.9711
G1 X1.3866 Y0.9525
G3 X1.3877 Y0.9488 I0.0039 J-0.0008
G1 X1.3978 Y0.9387
G1 X1.4079 Y0.9286
G3 X1.411 Y0.9275 I0.0028 J0.0028
G1 X1.5023 Y0.9347
G1 X1.5935 Y0.9419
G3 X1.5972 Y0.9459 I-0.0003 J0.004
G1 Y1.8268
G1 Y2.7059
G1 X1.616 Y2.7229
G1 X1.636 Y2.7411
G3 X1.6374 Y2.744 I-0.0027 J0.003
G1 Y2.771
G1 Y2.798
G3 X1.636 Y2.801 I-0.004 J0.0
G1 X1.616 Y2.8192
G1 X1.5972 Y2.8362
G1 Y2.8514
G1 Y2.8666
G1 X1.616 Y2.8835
G1 X1.636 Y2.9017
G3 X1.6374 Y2.9047 I-0.0027 J0.003
G1 Y2.9317
G1 Y2.9587
G3 X1.636 Y2.9617 I-0.004 J0.0
G1 X1.6177 Y2.9783
G1 X1.5993 Y2.9949
G3 X1.5966 Y2.9959 I-0.0027 J-0.003
G1 X1.574
G1 X1.5284 Y3.1036
G1 Y3.2978
G3 X1.5244 Y3.3018 I-0.004 J0.0
G1 X1.4494
G3 X1.4454 Y3.2976 I0.0 J-0.004
G1 X1.4554 Y3.1076
G3 X1.4556 Y3.1065 I0.004 J0.0002
G1 X1.5089 Y2.9545
G1 Y2.9299
G1 Y2.9047
G3 X1.5102 Y2.9017 I0.004 J0.0
G1 X1.5303 Y2.8835
G1 X1.549 Y2.8666
G1 Y2.8514
G1 Y2.8362
G1 X1.5303 Y2.8192
G1 X1.5102 Y2.801
G3 X1.5089 Y2.798 I0.0027 J-0.003
G1 Y2.771
G1 Y2.744
G3 X1.5102 Y2.7411 I0.004 J0.0
G1 X1.5303 Y2.7229
G1 X1.549 Y2.7059
G1 Y2.6892
G1 Y2.6746
G1 X1.1715
G1 X0.79
G3 X0.786 Y2.6706 I0.0 J-0.004
G1 Y1.3353
G1 Y0.0
G3 X0.79 Y-0.004 I0.004 J0.0
G1 X1.7237
G1 X2.6574
G3 X2.6614 Y0.0 I0.0 J0.004
G1 Y0.2108
G1 Y0.4217
G3 X2.6574 Y0.4257 I-0.004 J0.0
G1 X2.5482
G1 X2.4409
G1 X2.4296 Y0.4393
G1 X2.4171 Y0.4544
G3 X2.414 Y0.4558 I-0.0031 J-0.0026
G1 X2.3967
G1 X2.3794
G3 X2.3765 Y0.4545 I0.0 J-0.004
G1 X2.3599 Y0.4361
G1 X2.3432 Y0.4178
G3 X2.3422 Y0.4151 I0.003 J-0.0027
G1 Y0.3999
G1 Y0.3846
G3 X2.3435 Y0.3817 I0.004 J0.0
G1 X2.3619 Y0.3651
G1 X2.3802 Y0.3484
G3 X2.3829 Y0.3474 I0.0027 J0.003
G1 X2.3985
G1 X2.414
G3 X2.4171 Y0.3488 I0.0 J0.004
G1 X2.4296 Y0.3639
G1 X2.4409 Y0.3775
G1 X2.5281
G1 X2.6133
G1 Y0.2108
G1 Y0.0442
G1 X1.7237
G1 X0.9799
G0 Z0.125
G0 X0.7621 Y0.1035
G0 Z0.016
G1 F10.0 Z-0.004
G3 F25.0 X0.7622 Y0.1046 I-0.0039 J0.0011
G1 Y0.1303
G1 Y0.1561
G3 X0.7609 Y0.1591 I-0.004 J0.0
G1 X0.7422 Y0.176
G1 X0.7246 Y0.1919
G1 X0.6841 Y0.7553
G3 X0.6801 Y0.759 I-0.004 J-0.0003
G1 X0.049
G1 Y2.1
G1 Y2.1263
G1 X0.0725 Y2.128
G1 X0.093 Y2.1053
G1 X0.1148 Y2.0812
G3 X0.1178 Y2.0799 I0.003 J0.0027
G1 X0.1502
G1 X0.1826
G3 X0.1856 Y2.0812 I0.0 J0.004
G1 X0.2055 Y2.1033
G1 X0.2255 Y2.1253
G3 X0.2265 Y2.128 I-0.003 J0.0027
G1 Y2.1583
G1 Y2.1886
G3 X0.2252 Y2.1916 I-0.004 J0.0
G1 X0.2032 Y2.2115
G1 X0.1811 Y2.2314
G3 X0.1784 Y2.2325 I-0.0027 J-0.003
G1 X0.1481
G1 X0.1178
G3 X0.1148 Y2.2312 I0.0 J-0.004
G1 X0.093 Y2.2071
G1 X0.0724 Y2.1843
G1 X0.0399
G1 X0.0249
G1 X-0.0001 Y2.184
G3 X-0.004 Y2.18 I0.0 J-0.004
G1 Y0.695
G3 X0.0 Y0.691 I0.004 J0.0
G1 X0.6263
G1 X0.6651 Y0.1914
G1 X0.6477 Y0.1722
G1 X0.6292 Y0.1517
G3 X0.6282 Y0.149 I0.003 J-0.0027
G1 Y0.1081
G3 X0.6292 Y0.1054 I0.004 J0.0
G1 X0.6477 Y0.0849
G1 X0.6663 Y0.0644
G3 X0.6692 Y0.0631 I0.003 J0.0027
G1 X0.6968
G1 X0.7243
G3 X0.7273 Y0.0644 I0.0 J0.004
G1 X0.7442 Y0.0832
G1 X0.7612 Y0.1019
G3 X0.7621 Y0.1035 I-0.003 J0.0027
G0 Z0.125
G0 X0.8688 Y0.3377
G0 Z0.016
G1 F10.0 Z-0.004
G3 F25.0 X0.8705 Y0.3374 I0.0017 J0.0036
G1 X0.9893
G1 X1.1064
G1 X1.1234 Y0.3186
G1 X1.1415 Y0.2985
G3 X1.1445 Y0.2972 I0.003 J0.0027
G1 X1.1715
G1 X1.1985
G3 X1.2015 Y0.2985 I0.0 J0.004
G1 X1.2181 Y0.3169
G1 X1.2347 Y0.3352
G3 X1.2358 Y0.3379 I-0.003 J0.0027
G1 Y0.3632
G1 Y0.3884
G3 X1.2344 Y0.3914 I-0.004 J0.0
G1 X1.2144 Y0.4096
G1 X1.1956 Y0.4266
G1 Y0.4835
G1 Y0.5382
G1 X1.2518
G1 X1.3121
G3 X1.3161 Y0.5422 I0.0 J0.004
G1 Y0.5928
G1 Y0.6394
G1 X1.4095 Y0.6365
G1 X1.5071 Y0.6335
G3 X1.5111 Y0.6367 I0.0001 J0.004
G1 X1.5149 Y0.6554
G1 X1.5187 Y0.674
G3 X1.5176 Y0.6776 I-0.0039 J0.0008
G1 X1.508 Y0.6872
G1 X1.4984 Y0.6968
G3 X1.4953 Y0.698 I-0.0028 J-0.0028
G1 X1.3835 Y0.6909
G1 X1.2717 Y0.6839
G3 X1.2679 Y0.6799 I0.0003 J-0.004
G1 Y0.6311
G1 Y0.5863
G1 X1.2117
G1 X1.1514
G3 X1.1474 Y0.5823 I0.0 J-0.004
G1 Y0.5038
G1 Y0.4269
G1 X1.1255 Y0.4063
G1 X1.1034 Y0.3855
G1 X1.0077
G1 X0.9145
G1 Y1.0352
G1 Y1.6869
G1 X0.9381 Y1.7054
G1 X0.9632 Y1.7252
G3 X0.9647 Y1.7283 I-0.0025 J0.0031
G1 Y1.7461
G1 Y1.7639
G3 X0.9634 Y1.7669 I-0.004 J0.0
G1 X0.945 Y1.7835
G1 X0.9266 Y1.8001
G3 X0.924 Y1.8012 I-0.0027 J-0.003
G1 X0.9087
G1 X0.8935
G3 X0.8905 Y1.7998 I0.0 J-0.004
G1 X0.8739 Y1.7815
G1 X0.8573 Y1.7631
G3 X0.8563 Y1.7598 I0.003 J-0.0027
G1 X0.8587 Y1.7458
G2 X0.8591 Y1.7205 I-8.4851 J-0.154
G2 X0.8595 Y1.7013 I-4.5817 J-0.0843
G2 X0.8597 Y1.6869 I-3.453 J-0.0618
G2 X0.86 Y1.6653 I-3.9998 J-0.0709
G2 X0.8603 Y1.6437 I-4.3026 J-0.0703
G1 Y1.6436
G2 X0.8607 Y1.6118 I-9.654 J-0.1319
G1 X0.861 Y1.5839
G1 X0.8612 Y1.5595
G1 X0.8615 Y1.5168
G1 X0.8617 Y1.4848
G1 X0.8619 Y1.4368
G2 X0.862 Y1.4128 I-24.5753 J-0.1222
G2 X0.8621 Y1.3888 I-6.9692 J-0.0426
G3 X0.8622 Y1.3668 I5.6063 J0.0138
G3 X0.8623 Y1.3461 I5.6114 J0.0148
G3 X0.8624 Y1.3268 I5.6157 J0.0158
G3 X0.8625 Y1.3087 I5.6194 J0.0167
G3 X0.8626 Y1.2916 I5.6226 J0.0175
G3 X0.8627 Y1.2757 I5.6252 J0.0182
G3 Y1.2608 I5.6275 J0.0189
G3 X0.8629 Y1.2327 I8.0917 J0.0242
G3 X0.863 Y1.2082 I8.0953 J0.0263
G3 X0.8631 Y1.1868 I8.0972 J0.0282
G3 X0.8632 Y1.168 I8.0977 J0.0297
G3 X0.8633 Y1.1352 I11.8494 J0.0411
G3 X0.8634 Y1.1105 I11.8404 J0.0454
G3 X0.8636 Y1.0736 I18.0423 J0.0699
G3 X0.8638 Y1.0366 I30.8059 J0.1327
G1 X0.8665 Y0.3413
G3 X0.8688 Y0.3377 I0.004 J0.0
G0 Z0.125
G0 X1.0055 Y0.5788
G0 Z0.016
G1 F10.0 Z-0.004
G3 F25.0 X1.0074 Y0.5783 I0.002 J0.0035
G1 X1.0327
G1 X1.058
G3 X1.0609 Y0.5796 I0.0 J0.004
G1 X1.0775 Y0.598
G1 X1.0942 Y0.6164
G3 X1.0952 Y0.619 I-0.003 J0.0027
G1 Y0.6443
G1 Y0.6696
G3 X1.0939 Y0.6725 I-0.004 J0.0
G1 X1.0738 Y0.6907
G1 X1.055 Y0.7077
G1 Y0.7244
G1 Y0.739
G1 X1.0796
G1 X1.1064
G1 X1.1234 Y0.7202
G1 X1.1415 Y0.7001
G3 X1.1445 Y0.6988 I0.003 J0.0027
G1 X1.1715
G1 X1.1985
G3 X1.2015 Y0.7001 I0.0 J0.004
G1 X1.2185 Y0.7189
G1 X1.2343 Y0.7363
G1 X1.5936 Y0.7361
G1 X1.9506 Y0.7359
G1 Y0.7226
G1 Y0.7071
G1 X1.937 Y0.6958
G1 X1.922 Y0.6833
G3 X1.9205 Y0.6803 I0.0026 J-0.0031
G1 Y0.663
G1 Y0.6457
G3 X1.9218 Y0.6427 I0.004 J0.0
G1 X1.9402 Y0.6261
G1 X1.9586 Y0.6095
G3 X1.9612 Y0.6084 I0.0027 J0.003
G1 X1.9765
G1 X1.9917
G3 X1.9947 Y0.6098 I0.0 J0.004
G1 X2.0113 Y0.6281
G1 X2.0279 Y0.6465
G3 X2.0289 Y0.6492 I-0.003 J0.0027
G1 Y0.6647
G1 Y0.6803
G3 X2.0275 Y0.6833 I-0.004 J0.0
G1 X2.0124 Y0.6958
G1 X1.9988 Y0.7071
G1 Y0.7442
G1 Y0.7831
G3 X1.9949 Y0.7871 I-0.004 J0.0
G1 X1.897 Y0.7887
G1 X1.8969
G3 X1.8749 Y0.7889 I-0.0809 J-8.5561
G3 X1.8584 Y0.789 I-0.0465 J-4.8872
G3 X1.8337 Y0.7892 I-0.0496 J-5.2536
G3 X1.8089 Y0.7893 I-0.0485 J-6.3422
G1 X1.7748 Y0.7894
G1 X1.7491 Y0.7895
G1 X1.7107
G3 X1.6723 Y0.7894 I-0.0002 J-15.2691
G3 X1.6528 I0.0005 J-5.5055
G3 X1.6358 I0.0038 J-5.7024
G3 X1.606 Y0.7893 I0.0065 J-8.6884
G3 X1.5837 Y0.7892 I0.0138 J-9.1235
G3 X1.5501 Y0.7891 I0.0266 J-14.743
G3 X1.5166 Y0.789 I0.0819 J-32.12
G1 X1.236 Y0.7878
G1 X1.2194 Y0.8062
G1 X1.2015 Y0.826
G3 X1.1985 Y0.8273 I-0.003 J-0.0027
G1 X1.1715
G1 X1.1445
G3 X1.1415 Y0.826 I0.0 J-0.004
G1 X1.1234 Y0.8059
G1 X1.1064 Y0.7871
G1 X1.0796
G1 X1.055
G1 Y0.9337
G1 Y1.0803
G1 X1.0796
G1 X1.1064
G1 X1.1234 Y1.0616
G1 X1.1415 Y1.0415
G3 X1.1445 Y1.0402 I0.003 J0.0027
G1 X1.1715
G1 X1.1985
G3 X1.2015 Y1.0415 I0.0 J0.004
G1 X1.2181 Y1.0598
G1 X1.2347 Y1.0782
G3 X1.2358 Y1.0809 I-0.003 J0.0027
G1 Y1.1061
G1 Y1.1314
G3 X1.2344 Y1.1344 I-0.004 J0.0
G1 X1.2144 Y1.1525
G1 X1.1956 Y1.1695
G1 Y1.2264
G1 Y1.2851
G3 X1.1916 Y1.2891 I-0.004 J0.0
G1 X1.0812
G1 X0.9747
G1 Y1.4257
G1 Y1.5622
G1 X1.0008
G1 X1.031
G3 X1.035 Y1.5662 I0.0 J0.004
G1 Y1.7969
G1 Y2.0236
G1 X1.1892 Y2.0263
G1 X1.3473 Y2.0291
G3 X1.3512 Y2.0329 I-0.0001 J0.004
G1 X1.3542 Y2.0899
G1 X1.357 Y2.1431
G1 X1.4301 Y2.1413
G1 X1.5071 Y2.1395
G3 X1.5111 Y2.1427 I0.0001 J0.004
G1 X1.5149 Y2.1614
G1 X1.5187 Y2.18
G3 X1.5176 Y2.1836 I-0.0039 J0.0008
G1 X1.5075 Y2.1937
G1 X1.4974 Y2.2039
G3 X1.4942 Y2.205 I-0.0028 J-0.0028
G1 X1.403 Y2.1978
G1 X1.3118 Y2.1906
G3 X1.3081 Y2.1866 I0.0003 J-0.004
G1 Y2.153
G1 Y2.121
G1 X1.2837 Y2.0966
G1 X1.2593 Y2.0722
G1 X1.1259
G1 X0.9908
G3 X0.9868 Y2.0682 I0.0 J-0.004
G1 Y1.8373
G1 Y1.6104
G1 X0.9607
G1 X0.9306
G3 X0.9266 Y1.6064 I0.0 J-0.004
G1 Y1.4257
G1 Y1.245
G3 X0.9306 Y1.241 I0.004 J0.0
G1 X1.041
G1 X1.1474
G1 Y1.2066
G1 Y1.1699
G1 X1.1255 Y1.1492
G1 X1.1034 Y1.1285
G1 X1.0579
G1 X1.0109
G3 X1.0069 Y1.1245 I0.0 J-0.004
G1 Y0.9152
G1 Y0.7077
G1 X0.9881 Y0.6907
G1 X0.968 Y0.6725
G3 X0.9667 Y0.6696 I0.0027 J-0.003
G1 Y0.6426
G1 Y0.6156
G3 X0.968 Y0.6126 I0.004 J0.0
G1 X0.9864 Y0.596
G1 X1.0048 Y0.5794
G3 X1.0055 Y0.5788 I0.0027 J0.003
G0 Z0.125
G0 X1.2682 Y0.4805
G0 Z0.016
G1 F10.0 Z-0.004
G3 F25.0 X1.2679 Y0.4791 I0.0037 J-0.0014
G1 Y0.3098
G1 Y0.1406
G3 X1.2719 Y0.1366 I0.004 J0.0
G1 X1.3209
G1 X1.368
G1 X1.3793 Y0.1229
G1 X1.3918 Y0.1079
G3 X1.3949 Y0.1064 I0.0031 J0.0026
G1 X1.4122
G1 X1.4294
G3 X1.4324 Y0.1078 I0.0 J0.004
G1 X1.449 Y0.1261
G1 X1.4656 Y0.1445
G3 X1.4667 Y0.1472 I-0.003 J0.0027
G1 Y0.1624
G1 Y0.1776
G3 X1.4654 Y0.1806 I-0.004 J0.0
G1 X1.447 Y0.1972
G1 X1.4286 Y0.2138
G3 X1.426 Y0.2148 I-0.0027 J-0.003
G1 X1.4104
G1 X1.3949
G3 X1.3918 Y0.2134 I0.0 J-0.004
G1 X1.3793 Y0.1983
G1 X1.368 Y0.1847
G1 X1.341
G1 X1.3161
G1 Y0.3117
G1 Y0.4386
G1 X1.4095 Y0.4357
G1 X1.5071 Y0.4327
G3 X1.5111 Y0.4359 I0.0001 J0.004
G1 X1.5149 Y0.4546
G1 X1.5187 Y0.4732
G3 X1.5176 Y0.4768 I-0.0039 J0.0008
G1 X1.508 Y0.4864
G1 X1.4984 Y0.496
G3 X1.4953 Y0.4972 I-0.0028 J-0.0028
G1 X1.3835 Y0.4901
G1 X1.2717 Y0.4831
G3 X1.2682 Y0.4805 I0.0003 J-0.004
G0 Z0.125
G0 X1.3874 Y0.5403
G0 Z0.016
G1 F10.0 Z-0.004
G3 F25.0 X1.3896 Y0.5383 I0.0036 J0.0018
G1 X1.4042 Y0.5327
G3 X1.4048 Y0.5326 I0.0014 J0.0037
G3 X1.4065 Y0.5322 I0.0145 J0.0664
G3 X1.4079 Y0.5319 I0.0086 J0.0388
G3 X1.4092 Y0.5316 I0.0067 J0.0305
G3 X1.4104 Y0.5314 I0.0057 J0.0263
G1 X1.4143 Y0.5307
G3 X1.4164 Y0.5304 I0.0063 J0.033
G3 X1.4185 Y0.5301 I0.0071 J0.0438
G3 X1.4293 Y0.5293 I0.0142 J0.1131
G3 X1.44 Y0.5292 I0.0067 J0.1997
G1 X1.446 Y0.5293
G3 X1.4473 I-0.0003 J0.0331
G1 X1.4557 Y0.5296
G3 X1.4579 Y0.5297 I-0.0018 J0.0703
G3 X1.4611 Y0.5299 I-0.003 J0.1063
G3 X1.4643 Y0.53 I-0.0064 J0.1822
G1 X1.5081 Y0.5332
G3 X1.5119 Y0.5371 I-0.0003 J0.004
G1 Y0.5622
G1 Y0.5873
G3 X1.5079 Y0.5913 I-0.004 J0.0
G1 X1.4526
G1 X1.3974
G3 X1.3935 Y0.5879 I0.0 J-0.004
G1 X1.3902 Y0.5653
G1 X1.387 Y0.5426
G3 X1.3874 Y0.5403 I0.004 J-0.0006
G0 Z0.125
G0 X1.3953 Y0.3755
G0 Z0.016
G1 F10.0 Z-0.004
G3 F25.0 X1.3925 Y0.3742 I0.0002 J-0.004
G1 X1.3759 Y0.3558
G1 X1.3593 Y0.3374
G3 X1.3583 Y0.3348 I0.003 J-0.0027
G1 Y0.3195
G1 Y0.3043
G3 X1.3596 Y0.3013 I0.004 J0.0
G1 X1.378 Y0.2847
G1 X1.3963 Y0.2681
G3 X1.399 Y0.2671 I0.0027 J0.003
G1 X1.4146
G1 X1.4301
G3 X1.4332 Y0.2685 I0.0 J0.004
G1 X1.4457 Y0.2836
G1 X1.457 Y0.2972
G1 X1.5442
G1 X1.6334
G3 X1.6374 Y0.3012 I0.0 J0.004
G1 Y0.3715
G1 Y0.4377
G1 X1.7208 Y0.4353
G1 X1.8083 Y0.4327
G3 X1.8123 Y0.4359 I0.0001 J0.004
G1 X1.8161 Y0.4546
G1 X1.8199 Y0.4732
G3 X1.8188 Y0.4768 I-0.0039 J0.0008
G1 X1.8089 Y0.4867
G1 X1.7991 Y0.4966
G3 X1.796 Y0.4977 I-0.0028 J-0.0028
G1 X1.6944 Y0.4905
G1 X1.5929 Y0.4833
G3 X1.5892 Y0.4793 I0.0003 J-0.004
G1 Y0.4103
G1 Y0.3454
G1 X1.5241
G1 X1.457
G1 X1.4457 Y0.359
G1 X1.4332 Y0.374
G3 X1.4301 Y0.3755 I-0.0031 J-0.0026
G1 X1.4128
G1 X1.3955
G3 X1.3953 I0.0 J-0.004
G0 Z0.125
G0 X1.6887 Y0.5401
G0 Z0.016
G1 F10.0 Z-0.004
G3 F25.0 X1.6908 Y0.5383 I0.0035 J0.002
G1 X1.7054 Y0.5327
G3 X1.706 Y0.5326 I0.0014 J0.0037
G3 X1.7077 Y0.5322 I0.0145 J0.0663
G3 X1.7091 Y0.5319 I0.0086 J0.0388
G3 X1.7104 Y0.5316 I0.0067 J0.0305
G3 X1.7116 Y0.5314 I0.0057 J0.0263
G1 X1.7155 Y0.5307
G3 X1.7176 Y0.5304 I0.0063 J0.033
G3 X1.7197 Y0.5301 I0.0071 J0.0438
G3 X1.7305 Y0.5293 I0.0142 J0.1131
G3 X1.7412 Y0.5292 I0.0067 J0.1997
G1 X1.7472 Y0.5293
G3 X1.7485 I-0.0003 J0.0331
G1 X1.7569 Y0.5296
G3 X1.7591 Y0.5297 I-0.0018 J0.0703
G3 X1.7623 Y0.5299 I-0.003 J0.1063
G3 X1.7655 Y0.53 I-0.0064 J0.1824
G1 X1.8093 Y0.5332
G3 X1.8131 Y0.5371 I-0.0003 J0.004
G1 Y0.5622
G1 Y0.5873
G3 X1.8091 Y0.5913 I-0.004 J0.0
G1 X1.7538
G1 X1.6986
G3 X1.6947 Y0.5879 I0.0 J-0.004
G1 X1.6914 Y0.5653
G1 X1.6882 Y0.5426
G3 X1.6887 Y0.5401 I0.004 J-0.0006
G0 Z0.125
G0 X1.722 Y0.6268
G0 Z0.016
G1 F10.0 Z-0.004
G1 F25.0 X1.7236 Y0.6261
G3 X1.7254 Y0.6259 I0.0014 J0.0037
G1 X1.79 Y0.6325
G1 X1.8502 Y0.6387
G1 Y0.5926
G1 Y0.5422
G3 X1.8542 Y0.5382 I0.004 J0.0
G1 X1.9747
G1 X2.0952
G3 X2.0992 Y0.5422 I0.0 J0.004
G1 Y0.7028
G1 Y0.8634
G3 X2.0952 Y0.8674 I-0.004 J0.0
G1 X2.045
G1 X1.9988
G1 Y1.148
G1 Y1.4326
G3 X1.9975 Y1.4356 I-0.004 J0.0
G1 X1.9799 Y1.4513
G1 X1.9623 Y1.467
G3 X1.9597 Y1.468 I-0.0027 J-0.003
G1 X1.8944
G1 X1.8291
G3 X1.8265 Y1.467 I0.0 J-0.004
G1 X1.8089 Y1.4513
G1 X1.7913 Y1.4356
G3 X1.79 Y1.4326 I0.0027 J-0.003
G1 Y1.4056
G1 Y1.3786
G3 X1.7913 Y1.3756 I0.004 J0.0
G1 X1.8106 Y1.3581
G1 X1.83 Y1.3407
G3 X1.8329 Y1.3396 I0.0027 J0.003
G1 X1.8663 Y1.342
G2 X1.8714 Y1.3422 I0.0349 J-0.612
G2 X1.8868 Y1.3429 I0.0548 J-1.0376
G1 X1.8922 Y1.3431
G2 X1.9004 Y1.3432 I0.0104 J-0.3631
G2 X1.9044 Y1.3433 I0.0029 J-0.1892
G1 X1.9045
G2 X1.9085 Y1.3432 I0.0013 J-0.1752
G2 X1.9131 I-0.0024 J-0.3474
G1 X1.92 Y1.343
G1 X1.9269 Y1.3428
G1 X1.9506 Y1.3416
G1 Y1.0843
G1 Y0.8233
G3 X1.9546 Y0.8193 I0.004 J0.0
G1 X2.0048
G1 X2.051
G1 Y0.7028
G1 Y0.5863
G1 X1.9747
G1 X1.8984
G1 Y0.6315
G1 Y0.6806
G3 X1.8947 Y0.6846 I-0.004 J0.0
G1 X1.805 Y0.6917
G1 X1.7154 Y0.6988
G3 X1.7129 Y0.6982 I-0.0003 J-0.004
G1 X1.7022 Y0.6916
G1 X1.6915 Y0.6849
G3 X1.6896 Y0.6815 I0.0021 J-0.0034
G1 Y0.6617
G1 Y0.6419
G3 X1.6922 Y0.6382 I0.004 J0.0
G1 X1.7079 Y0.6322
G1 X1.722 Y0.6268
G0 Z0.125
G0 X1.7144 Y0.8278
G0 Z0.016
G1 F10.0 Z-0.004
G3 F25.0 X1.7146 I-0.0001 J0.004
G1 X1.8147 Y0.8349
G1 X1.9148 Y0.842
G3 X1.9185 Y0.8459 I-0.0003 J0.004
G1 Y1.0655
G1 Y1.2851
G3 X1.9145 Y1.2891 I-0.004 J0.0
G1 X1.8342
G1 X1.7578
G1 Y1.3956
G1 Y1.502
G1 X1.8731
G1 X1.9905
G1 X2.0018 Y1.4884
G1 X2.0143 Y1.4733
G3 X2.0173 Y1.4719 I0.0031 J0.0026
G1 X2.0346
G1 X2.0519
G3 X2.055 Y1.4734 I0.0 J0.004
G1 X2.0693 Y1.4909
G1 X2.0835 Y1.5085
G3 X2.0844 Y1.5111 I-0.0031 J0.0025
G1 X2.081 Y1.7094
G1 X2.0776 Y1.9077
G3 X2.0736 Y1.9116 I-0.004 J-0.0001
G1 X2.012
G1 X1.952
G1 X1.9121 Y1.9508
G1 X1.871 Y1.9911
G3 X1.8683 Y1.9923 I-0.0028 J-0.0029
G1 X1.7835 Y1.9946
G1 X1.6987 Y1.9969
G3 X1.6946 Y1.9929 I-0.0001 J-0.004
G1 Y1.9678
G1 Y1.9427
G3 X1.6986 Y1.9387 I0.004 J0.0
G1 X1.7708
G1 X1.8413
G1 X1.8739 Y1.9072
G1 X1.9076 Y1.8746
G3 X1.9104 Y1.8735 I0.0028 J0.0029
G1 X1.9727
G1 X2.031
G1 Y1.731
G1 Y1.5864
G1 X2.0098 Y1.5687
G1 X1.9883 Y1.5508
G1 X1.8517 Y1.5505
G1 X1.7137 Y1.5502
G3 X1.7097 Y1.5462 I0.0 J-0.004
G1 Y1.3956
G1 Y1.245
G3 X1.7137 Y1.241 I0.004 J0.0
G1 X1.794
G1 X1.8703
G1 Y1.0642
G1 Y0.8876
G1 X1.7866 Y0.89
G1 X1.6987 Y0.8925
G3 X1.6947 Y0.8891 I-0.0001 J-0.004
G1 X1.6916 Y0.8675
G1 X1.6885 Y0.8458
G3 X1.6903 Y0.8419 I0.004 J-0.0006
G1 X1.7013 Y0.8351
G1 X1.7122 Y0.8284
G3 X1.7144 Y0.8278 I0.0021 J0.0034
G0 Z0.125
G0 X1.7228 Y0.9332
G0 Z0.016
G1 F10.0 Z-0.004
G1 F25.0 X1.7954 Y0.9275
G3 X1.7986 Y0.9286 I0.0003 J0.004
G1 X1.8087 Y0.9387
G1 X1.8188 Y0.9488
G3 X1.8199 Y0.9525 I-0.0028 J0.0028
G1 X1.8161 Y0.9711
G1 X1.8123 Y0.9897
G3 X1.8083 Y0.9929 I-0.0039 J-0.0008
G1 X1.7308 Y0.9911
G1 X1.6574 Y0.9894
G1 Y1.5142
G1 Y2.0391
G1 X1.7635
G1 X1.872
G1 X1.9242 Y1.9876
G1 X1.9776 Y1.9349
G3 X1.9804 Y1.9337 I0.0028 J0.0028
G1 X1.9964
G1 X2.0124
G3 X2.0155 Y1.9352 I0.0 J0.004
G1 X2.028 Y1.9502
G1 X2.0393 Y1.9638
G1 X2.0763
G1 X2.1113
G1 Y1.5875
G1 Y1.2091
G1 X2.0977 Y1.1978
G1 X2.0826 Y1.1853
G3 X2.0812 Y1.1823 I0.0026 J-0.0031
G1 Y1.165
G1 Y1.1477
G3 X2.0825 Y1.1447 I0.004 J0.0
G1 X2.1008 Y1.1281
G1 X2.1192 Y1.1115
G3 X2.1219 Y1.1104 I0.0027 J0.003
G1 X2.1371
G1 X2.1523
G3 X2.1553 Y1.1118 I0.0 J0.004
G1 X2.1719 Y1.1301
G1 X2.1885 Y1.1485
G3 X2.1896 Y1.1512 I-0.003 J0.0027
G1 Y1.1667
G1 Y1.1823
G3 X2.1881 Y1.1853 I-0.004 J0.0
G1 X2.1731 Y1.1978
G1 X2.1594 Y1.2091
G1 Y1.6076
G1 Y2.008
G3 X2.1554 Y2.012 I-0.004 J0.0
G1 X2.0964
G1 X2.0393
G1 X2.0276 Y2.0261
G1 X2.0147 Y2.0417
G3 X2.0111 Y2.0431 I-0.0031 J-0.0026
G1 X1.9882 Y2.0401
G1 X1.9673 Y2.0374
G1 X1.939 Y2.0645
G1 X1.9093 Y2.093
G3 X1.9066 Y2.0941 I-0.0028 J-0.0029
G1 X1.78 Y2.0957
G1 X1.6575 Y2.0973
G1 X1.6574 Y2.3418
G1 Y2.5863
G1 X1.7137
G1 X1.7739
G3 X1.7779 Y2.5903 I0.0 J0.004
G1 Y2.649
G1 Y2.7059
G1 X1.7967 Y2.7229
G1 X1.8168 Y2.7411
G3 X1.8181 Y2.744 I-0.0027 J0.003
G1 Y2.771
G1 Y2.798
G3 X1.8168 Y2.801 I-0.004 J0.0
G1 X1.7967 Y2.8192
G1 X1.7779 Y2.8362
G1 Y2.8514
G1 Y2.8666
G1 X1.795 Y2.882
G1 X1.8122 Y2.8976
G1 X1.8362
G1 X1.8599
G1 X1.8712 Y2.8839
G1 X1.8837 Y2.8689
G3 X1.8868 Y2.8674 I0.0031 J0.0026
G1 X1.9142
G1 X1.9415
G3 X1.9445 Y2.8688 I0.0 J0.004
G1 X1.9611 Y2.8871
G1 X1.9777 Y2.9055
G3 X1.9787 Y2.9082 I-0.003 J0.0027
G1 Y2.9334
G1 Y2.9587
G3 X1.9774 Y2.9617 I-0.004 J0.0
G1 X1.959 Y2.9783
G1 X1.942 Y2.9937
G1 X1.9484 Y3.3027
G3 X1.9444 Y3.3068 I-0.004 J0.0001
G1 X1.8594
G3 X1.8554 Y3.3028 I0.0 J-0.004
G1 Y3.0778
G3 X1.8556 Y3.0766 I0.004 J0.0
G1 X1.8823 Y2.9928
G1 X1.8712 Y2.9794
G1 X1.8599 Y2.9658
G1 X1.8342
G1 X1.8084
G1 X1.7971 Y2.9794
G1 X1.7846 Y2.9945
G3 X1.7815 Y2.9959 I-0.0031 J-0.0026
G1 X1.7542
G1 X1.7268
G3 X1.7239 Y2.9946 I0.0 J-0.004
G1 X1.7073 Y2.9762
G1 X1.6906 Y2.9579
G3 X1.6896 Y2.9552 I0.003 J-0.0027
G1 Y2.9299
G1 Y2.9047
G3 X1.6909 Y2.9017 I0.004 J0.0
G1 X1.711 Y2.8835
G1 X1.7298 Y2.8666
G1 Y2.8514
G1 Y2.8362
G1 X1.711 Y2.8192
G1 X1.6909 Y2.801
G3 X1.6896 Y2.798 I0.0027 J-0.003
G1 Y2.771
G1 Y2.744
G3 X1.6909 Y2.7411 I0.004 J0.0
G1 X1.711 Y2.7229
G1 X1.7298 Y2.7059
G1 Y2.6691
G1 Y2.6345
G1 X1.6735
G1 X1.6133
G3 X1.6093 Y2.6305 I0.0 J-0.004
G1 Y1.7882
G1 Y0.9459
G3 X1.613 Y0.9419 I0.004 J0.0
G1 X1.7042 Y0.9347
G1 X1.7228 Y0.9332
G0 Z0.125
G0 X1.7279 Y1.0314
G0 Z0.016
G1 F10.0 Z-0.004
G3 F25.0 X1.7305 Y1.0313 I0.006 J0.1138
G3 X1.7412 Y1.0312 I0.0067 J0.1997
G1 X1.7472 Y1.0313
G3 X1.7485 I-0.0003 J0.0331
G1 X1.7569 Y1.0316
G3 X1.7591 Y1.0317 I-0.0018 J0.0703
G3 X1.7623 Y1.0319 I-0.003 J0.1063
G3 X1.7655 Y1.032 I-0.0064 J0.1823
G1 X1.8093 Y1.0352
G3 X1.8131 Y1.0391 I-0.0003 J0.004
G1 Y1.0642
G1 Y1.0893
G3 X1.8091 Y1.0933 I-0.004 J0.0
G1 X1.7538
G1 X1.6986
G3 X1.6947 Y1.0899 I0.0 J-0.004
G1 X1.6914 Y1.0673
G1 X1.6882 Y1.0446
G3 X1.6908 Y1.0403 I0.004 J-0.0006
G1 X1.7054 Y1.0347
G3 X1.706 Y1.0346 I0.0014 J0.0037
G3 X1.7077 Y1.0342 I0.0145 J0.0663
G3 X1.7091 Y1.0339 I0.0086 J0.0388
G3 X1.7104 Y1.0336 I0.0067 J0.0305
G3 X1.7116 Y1.0334 I0.0057 J0.0263
G1 X1.7155 Y1.0327
G3 X1.7176 Y1.0324 I0.0063 J0.033
G3 X1.7197 Y1.0321 I0.0071 J0.0438
G3 X1.7279 Y1.0314 I0.0142 J0.1131
G0 Z0.125
G0 X1.7311 Y1.1316
G0 Z0.016
G1 F10.0 Z-0.004
G3 F25.0 X1.7412 I0.0062 J0.1997
G1 X1.7472 Y1.1317
G3 X1.7485 I-0.0003 J0.0331
G1 X1.7569 Y1.132
G3 X1.7591 Y1.1321 I-0.0018 J0.0703
G3 X1.7623 Y1.1323 I-0.003 J0.1063
G3 X1.7655 Y1.1324 I-0.0064 J0.1823
G1 X1.8093 Y1.1356
G3 X1.8131 Y1.1395 I-0.0003 J0.004
G1 Y1.1646
G1 Y1.1897
G3 X1.8091 Y1.1937 I-0.004 J0.0
G1 X1.7538
G1 X1.6986
G3 X1.6947 Y1.1903 I0.0 J-0.004
G1 X1.6914 Y1.1677
G1 X1.6882 Y1.145
G3 X1.6908 Y1.1407 I0.004 J-0.0006
G1 X1.7054 Y1.1351
G3 X1.706 Y1.135 I0.0014 J0.0037
G3 X1.7077 Y1.1346 I0.0145 J0.0663
G3 X1.7091 Y1.1343 I0.0086 J0.0388
G3 X1.7104 Y1.134 I0.0067 J0.0305
G3 X1.7116 Y1.1338 I0.0057 J0.0263
G1 X1.7155 Y1.1331
G3 X1.7176 Y1.1328 I0.0063 J0.033
G3 X1.7197 Y1.1325 I0.0071 J0.0438
G3 X1.7305 Y1.1317 I0.0142 J0.1131
G3 X1.7311 Y1.1316 I0.0067 J0.1997
G0 Z0.125
G0 X1.5119 Y1.1394
G0 Z0.016
G1 F10.0 Z-0.004
G3 F25.0 Y1.1395 I-0.004 J0.0001
G1 Y1.1646
G1 Y1.1897
G3 X1.5079 Y1.1937 I-0.004 J0.0
G1 X1.4526
G1 X1.3974
G3 X1.3935 Y1.1903 I0.0 J-0.004
G1 X1.3902 Y1.1677
G1 X1.387 Y1.145
G3 X1.3896 Y1.1407 I0.004 J-0.0006
G1 X1.4042 Y1.1351
G3 X1.4048 Y1.135 I0.0014 J0.0037
G3 X1.4065 Y1.1346 I0.0145 J0.0664
G3 X1.4079 Y1.1343 I0.0086 J0.0388
G3 X1.4092 Y1.134 I0.0067 J0.0305
G3 X1.4104 Y1.1338 I0.0057 J0.0263
G1 X1.4143 Y1.1331
G3 X1.4164 Y1.1328 I0.0063 J0.033
G3 X1.4185 Y1.1325 I0.0071 J0.0438
G3 X1.4293 Y1.1317 I0.0142 J0.1131
G3 X1.44 Y1.1316 I0.0067 J0.1997
G1 X1.446 Y1.1317
G3 X1.4473 I-0.0003 J0.0331
G1 X1.4557 Y1.132
G3 X1.4579 Y1.1321 I-0.0018 J0.0703
G3 X1.4611 Y1.1323 I-0.003 J0.1063
G3 X1.4643 Y1.1324 I-0.0064 J0.1821
G1 X1.5081 Y1.1356
G3 X1.5119 Y1.1394 I-0.0003 J0.004
G0 Z0.125
G0 X1.5082 Y1.0933
G0 Z0.016
G1 F10.0 Z-0.004
G3 F25.0 X1.5079 I-0.0003 J-0.004
G1 X1.4526
G1 X1.3974
G3 X1.3935 Y1.0899 I0.0 J-0.004
G1 X1.3902 Y1.0673
G1 X1.387 Y1.0446
G3 X1.3896 Y1.0403 I0.004 J-0.0006
G1 X1.4042 Y1.0347
G3 X1.4048 Y1.0346 I0.0014 J0.0037
G3 X1.4065 Y1.0342 I0.0145 J0.0664
G3 X1.4079 Y1.0339 I0.0086 J0.0388
G3 X1.4092 Y1.0336 I0.0067 J0.0305
G3 X1.4104 Y1.0334 I0.0057 J0.0263
G1 X1.4143 Y1.0327
G3 X1.4164 Y1.0324 I0.0063 J0.033
G3 X1.4185 Y1.0321 I0.0071 J0.0438
G3 X1.4293 Y1.0313 I0.0142 J0.1131
G3 X1.44 Y1.0312 I0.0067 J0.1997
G1 X1.446 Y1.0313
G3 X1.4473 I-0.0003 J0.0331
G1 X1.4557 Y1.0316
G3 X1.4579 Y1.0317 I-0.0018 J0.0703
G3 X1.4611 Y1.0319 I-0.003 J0.1063
G3 X1.4643 Y1.032 I-0.0064 J0.1821
G1 X1.5081 Y1.0352
G3 X1.5119 Y1.0391 I-0.0003 J0.004
G1 Y1.0642
G1 Y1.0893
G3 X1.5082 Y1.0933 I-0.004 J0.0
G0 Z0.125
G0 X1.4804 Y1.241
G0 Z0.016
G1 F10.0 Z-0.004
G3 F25.0 X1.4826 Y1.2423 I-0.0007 J0.0039
G1 X1.4992 Y1.2606
G1 X1.5158 Y1.279
G3 X1.5169 Y1.2817 I-0.003 J0.0027
G1 Y1.3052
G1 Y1.3287
G3 X1.5158 Y1.3314 I-0.004 J0.0
G1 X1.5001 Y1.3488
G1 X1.4864 Y1.364
G1 X1.4979 Y1.3824
G1 X1.5111 Y1.4035
G3 Y1.4077 I-0.0034 J0.0021
G1 X1.4978 Y1.429
G1 X1.4862 Y1.4475
G1 X1.4948 Y1.4562
G3 X1.4951 Y1.4565 I-0.0028 J0.0028
G3 X1.4959 Y1.4575 I-0.0264 J0.0213
G3 X1.4965 Y1.4583 I-0.0162 J0.0131
G3 X1.4971 Y1.4591 I-0.0133 J0.0106
G3 X1.4976 Y1.4598 I-0.0119 J0.0094
G3 X1.5009 Y1.4648 I-0.0387 J0.0293
G3 X1.5052 Y1.4757 I-0.0356 J0.0203
G3 X1.5056 Y1.4772 I-0.015 J0.0041
G3 X1.506 Y1.4795 I-0.0347 J0.0075
G1 X1.5062 Y1.4812
G1 Y1.4813
G1 X1.5065 Y1.4837
G1 Y1.4838
G1 X1.5068 Y1.4863
G3 Y1.4867 I-0.004 J0.0004
G1 Y1.5035
G3 X1.5054 Y1.5066 I-0.004 J0.0
G1 X1.4903 Y1.5191
G1 X1.4767 Y1.5304
G1 Y1.6316
G1 Y1.7315
G1 X1.4946 Y1.7362
G1 X1.5155 Y1.7416
G3 X1.5184 Y1.7461 I-0.001 J0.0039
G1 X1.5151 Y1.7694
G1 X1.5118 Y1.7927
G3 X1.5079 Y1.7961 I-0.004 J-0.0006
G1 X1.4526
G1 X1.3974
G3 X1.3935 Y1.7927 I0.0 J-0.004
G1 X1.3903 Y1.7701
G1 X1.3875 Y1.751
G1 X1.3717
G2 X1.3704 Y1.7511 I0.0046 J0.0499
G3 X1.3702 I-0.0005 J-0.004
G2 X1.369 Y1.7512 I0.0022 J0.0263
G3 X1.3689 Y1.7513 I-0.0005 J-0.004
G2 X1.3679 Y1.7514 I0.0016 J0.0194
G3 X1.3677 I-0.0005 J-0.004
G2 X1.3597 Y1.7526 I0.009 J0.0873
G2 X1.3463 Y1.7568 I0.0143 J0.0686
G2 X1.3401 Y1.7597 I0.0475 J0.1096
G1 X1.337 Y1.7613
G1 X1.334 Y1.7629
G1 X1.3141 Y1.7753
G3 X1.3099 I-0.0021 J-0.0034
G1 X1.2924 Y1.7643
G1 X1.2748 Y1.7533
G3 X1.273 Y1.7505 I0.0021 J-0.0034
G1 X1.2701 Y1.7314
G1 X1.2672 Y1.7122
G3 X1.2683 Y1.7088 I0.004 J-0.0006
G1 X1.2808 Y1.6963
G1 X1.2932 Y1.6839
G3 X1.296 Y1.6827 I0.0028 J0.0028
G1 X1.3135
G1 X1.331
G3 X1.3344 Y1.6846 I0.0 J0.004
G1 X1.3406 Y1.6947
G1 X1.3456 Y1.7028
G1 X1.388
G1 X1.4286
G1 Y1.6177
G1 Y1.5304
G1 X1.4149 Y1.5191
G1 X1.3999 Y1.5066
G3 X1.3984 Y1.5035 I0.0026 J-0.0031
G1 Y1.4867
G3 X1.3985 Y1.4863 I0.004 J0.0
G3 X1.3986 Y1.485 I0.0426 J0.0038
G3 X1.3992 Y1.4805 I0.1349 J0.0144
G3 X1.3995 Y1.4781 I0.0387 J0.0052
G1 X1.3998 Y1.477
G1 Y1.4769
G1 X1.4 Y1.4759
G1 Y1.4758
G3 X1.4043 Y1.4648 I0.0411 J0.0098
G3 X1.4058 Y1.4625 I0.0239 J0.0131
G1 X1.4068 Y1.461
G3 Y1.4609 I0.0033 J0.0023
G1 X1.4076 Y1.4598
G3 X1.4077 I0.0032 J0.0023
G1 X1.4101 Y1.4566
G3 X1.4105 Y1.4562 I0.0032 J0.0024
G1 X1.4191 Y1.4475
G1 X1.4075 Y1.429
G1 X1.3942 Y1.4077
G3 Y1.4035 I0.0034 J-0.0021
G1 X1.4074 Y1.3824
G1 X1.4189 Y1.364
G1 X1.4052 Y1.3488
G1 X1.3894 Y1.3314
G3 X1.3884 Y1.3287 I0.003 J-0.0027
G1 Y1.3035
G1 Y1.2782
G3 X1.3897 Y1.2752 I0.004 J0.0
G1 X1.4081 Y1.2586
G1 X1.4264 Y1.242
G3 X1.4291 Y1.241 I0.0027 J0.003
G1 X1.4544
G1 X1.4796
G3 X1.4804 I0.0 J0.004
G0 Z0.125
G0 X1.3362
G0 Z0.016
G1 F10.0 Z-0.004
G1 F25.0 Y1.3654
G3 X1.3322 Y1.3694 I-0.004 J0.0
G1 X1.282
G1 X1.2358
G1 Y1.6578
G1 Y1.9461
G1 X1.3697 Y1.9425
G1 X1.5078 Y1.9387
G3 X1.5119 Y1.9427 I0.0001 J0.004
G1 Y1.9678
G1 Y1.9929
G3 X1.5078 Y1.9969 I-0.004 J0.0
G1 X1.4551 Y1.9966
G3 X1.4346 Y1.9963 I0.062 J-6.4036
G3 X1.4141 Y1.9961 I0.0568 J-5.4009
G1 X1.3857 Y1.9956
G1 X1.3573 Y1.9952
G3 X1.3271 Y1.9946 I0.1427 J-8.6291
G3 X1.2969 Y1.994 I0.2386 J-13.3974
G1 X1.1915 Y1.9919
G3 X1.1876 Y1.9879 I0.0001 J-0.004
G1 Y1.6566
G1 Y1.3253
G3 X1.1916 Y1.3213 I0.004 J0.0
G1 X1.2418
G1 X1.288
G1 Y1.1345
G1 Y0.9478
G1 X1.2634
G1 X1.2366
G1 X1.2197 Y0.9665
G1 X1.2015 Y0.9866
G3 X1.1985 Y0.9879 I-0.003 J-0.0027
G1 X1.1715
G1 X1.1445
G3 X1.1415 Y0.9866 I0.0 J-0.004
G1 X1.1249 Y0.9682
G1 X1.1083 Y0.9499
G3 X1.1073 Y0.9472 I0.003 J-0.0027
G1 Y0.9219
G1 Y0.8967
G3 X1.1086 Y0.8937 I0.004 J0.0
G1 X1.127 Y0.8771
G1 X1.1453 Y0.8605
G3 X1.148 Y0.8594 I0.0027 J0.003
G1 X1.1733
G1 X1.1985
G3 X1.2015 Y0.8608 I0.0 J0.004
G1 X1.2197 Y0.8808
G1 X1.2366 Y0.8996
G1 X1.2634
G1 X1.288
G1 Y0.8748
G1 Y0.8459
G3 X1.2917 Y0.842 I0.004 J0.0
G1 X1.3932 Y0.8348
G1 X1.4948 Y0.8276
G3 X1.4979 Y0.8287 I0.0003 J0.004
G1 X1.5077 Y0.8386
G1 X1.5176 Y0.8484
G3 X1.5187 Y0.8521 I-0.0028 J0.0028
G1 X1.5149 Y0.8707
G1 X1.5111 Y0.8893
G3 X1.5071 Y0.8925 I-0.0039 J-0.0008
G1 X1.4196 Y0.89
G1 X1.3362 Y0.8876
G1 Y1.1245
G1 Y1.241
G0 Z0.125
G0 X1.0975 Y1.3849
G0 Z0.016
G1 F10.0 Z-0.004
G3 F25.0 X1.1018 Y1.3935 I-0.0497 J0.0299
G3 X1.1045 Y1.4044 I-0.0407 J0.016
G3 X1.1048 Y1.4102 I-0.0366 J0.0043
G3 X1.104 Y1.416 I-0.0318 J-0.0014
G1 X1.1039 Y1.4161
G3 X1.1021 Y1.4215 I-0.032 J-0.008
G3 X1.1002 Y1.4251 I-0.0479 J-0.0221
G1 Y1.4252
G3 X1.097 Y1.4302 I-0.0567 J-0.0325
G3 X1.0961 Y1.4314 I-0.0549 J-0.0377
G3 X1.0948 Y1.4332 I-0.0677 J-0.0475
G1 X1.0936 Y1.4349
G3 X1.0932 Y1.4354 I-0.0032 J-0.0024
G1 X1.0846 Y1.444
G1 X1.0962 Y1.4626
G1 X1.1095 Y1.4839
G3 Y1.4881 I-0.0034 J0.0021
G1 X1.0989 Y1.505
G3 X1.0987 Y1.5052 I-0.0034 J-0.0021
G3 X1.0978 Y1.5065 I-0.068 J-0.0488
G3 X1.0969 Y1.5076 I-0.0398 J-0.0285
G3 X1.0962 Y1.5086 I-0.0317 J-0.0227
G3 X1.0949 Y1.5103 I-0.0371 J-0.0266
G3 X1.0909 Y1.5154 I-0.0907 J-0.0684
G1 X1.0908
G3 X1.0805 Y1.5257 I-0.0696 J-0.0593
G1 Y1.5258
G3 X1.0754 Y1.5298 I-0.0793 J-0.094
G1 X1.0729 Y1.5317
G1 X1.0728
G1 X1.0703 Y1.5336
G3 X1.0701 Y1.5338 I-0.0024 J-0.0032
G1 X1.0532 Y1.5444
G3 X1.0489 I-0.0021 J-0.0034
G1 X1.032 Y1.5338
G3 X1.0318 Y1.5336 I0.0021 J-0.0034
G3 X1.0305 Y1.5327 I0.0491 J-0.0683
G3 X1.0294 Y1.5319 I0.0286 J-0.04
G3 X1.0284 Y1.5311 I0.0228 J-0.0318
G3 X1.0267 Y1.5298 I0.0267 J-0.0374
G3 X1.0216 Y1.5257 I0.0697 J-0.0923
G3 X1.0112 Y1.5154 I0.0589 J-0.0693
G3 X1.0072 Y1.5103 I0.0955 J-0.0806
G1 X1.0053 Y1.5078
G1 X1.0052
G1 X1.0034 Y1.5052
G3 X1.0032 Y1.505 I0.0032 J-0.0024
G1 X0.9926 Y1.4881
G3 Y1.4839 I0.0034 J-0.0021
G1 X1.0059 Y1.4626
G1 X1.0175 Y1.444
G1 X1.0089 Y1.4354
G3 X1.0086 Y1.435 I0.0028 J-0.0028
G3 X1.0078 Y1.4341 I0.0267 J-0.0216
G3 X1.0072 Y1.4332 I0.0163 J-0.0133
G3 X1.0028 Y1.4268 I0.0455 J-0.0359
G3 X0.9985 Y1.416 I0.0359 J-0.0205
G3 X0.9981 Y1.4145 I0.015 J-0.0041
G3 X0.9977 Y1.4122 I0.0368 J-0.008
G3 X0.9969 Y1.4055 I0.1095 J-0.0173
G3 X0.9968 Y1.4051 I0.004 J-0.0004
G1 Y1.3886
G3 X0.9982 Y1.3857 I0.004 J0.0
G1 X1.0165 Y1.3691
G1 X1.0349 Y1.3524
G3 X1.0376 Y1.3514 I0.0027 J0.003
G1 X1.0528
G1 X1.068
G3 X1.071 Y1.3527 I0.0 J0.004
G1 X1.0876 Y1.3711
G3 X1.0878 Y1.3713 I-0.003 J0.0027
G3 X1.0917 Y1.3763 I-0.2683 J0.2125
G3 X1.0973 Y1.3844 I-0.0774 J0.0596
G3 X1.0975 Y1.3849 I-0.0494 J0.0304
G0 Z0.125
G0 X1.0978 Y1.5723
G0 Z0.016
G1 F10.0 Z-0.004
G1 F25.0 X1.113
G1 X1.1282
G3 X1.1312 Y1.5736 I0.0 J0.004
G1 X1.1478 Y1.592
G1 X1.1644 Y1.6103
G3 X1.1655 Y1.613 I-0.003 J0.0027
G1 Y1.6292
G3 Y1.6295 I-0.004 J0.0
G3 X1.1652 Y1.6319 I-0.0487 J-0.0039
G3 X1.164 Y1.6391 I-0.0546 J-0.0055
G3 X1.1623 Y1.644 I-0.0281 J-0.0069
G3 X1.1598 Y1.6485 I-0.0241 J-0.0106
G1 X1.1597 Y1.6486
G3 X1.1569 Y1.6519 I-0.0207 J-0.0148
G1 X1.1556 Y1.6532
G1 X1.1555
G1 X1.1542 Y1.6545
G3 X1.1535 Y1.655 I-0.0027 J-0.0029
G1 X1.1454 Y1.66
G1 Y1.6824
G1 Y1.7059
G1 X1.1573 Y1.7249
G1 X1.1697 Y1.7449
G3 Y1.7492 I-0.0034 J0.0021
G1 X1.1591 Y1.766
G3 X1.159 Y1.7662 I-0.0034 J-0.0021
G3 X1.158 Y1.7675 I-0.068 J-0.0488
G3 X1.1572 Y1.7686 I-0.0398 J-0.0285
G3 X1.1565 Y1.7696 I-0.0317 J-0.0227
G3 X1.1552 Y1.7714 I-0.0371 J-0.0266
G3 X1.1511 Y1.7764 I-0.0907 J-0.0684
G3 X1.1407 Y1.7868 I-0.0696 J-0.0593
G3 X1.1356 Y1.7909 I-0.0793 J-0.094
G1 X1.1331 Y1.7928
G1 X1.1305 Y1.7946
G3 X1.1303 Y1.7948 I-0.0024 J-0.0032
G1 X1.1134 Y1.8055
G3 X1.1091 I-0.0021 J-0.0034
G1 X1.0922 Y1.7948
G3 X1.092 Y1.7947 I0.0021 J-0.0034
G3 X1.0908 Y1.7937 I0.0491 J-0.0683
G3 X1.0896 Y1.7929 I0.0286 J-0.04
G3 X1.0887 Y1.7922 I0.0228 J-0.0318
G3 X1.0869 Y1.7909 I0.0267 J-0.0374
G3 X1.0818 Y1.7868 I0.0697 J-0.0923
G3 X1.0715 Y1.7764 I0.0589 J-0.0693
G3 X1.0674 Y1.7714 I0.0955 J-0.0806
G1 Y1.7713
G1 X1.0655 Y1.7688
G1 X1.0636 Y1.7663
G3 X1.0635 Y1.766 I0.0032 J-0.0024
G1 X1.0528 Y1.7492
G3 Y1.7449 I0.0034 J-0.0021
G1 X1.0653 Y1.7249
G1 X1.0772 Y1.7059
G1 Y1.6824
G1 Y1.66
G1 X1.069 Y1.655
G1 X1.059 Y1.6488
G3 X1.0571 Y1.6454 I0.0021 J-0.0034
G1 Y1.6274
G1 Y1.6095
G3 X1.0584 Y1.6065 I0.004 J0.0
G1 X1.0768 Y1.5899
G1 X1.0951 Y1.5733
G3 X1.0978 Y1.5723 I0.0027 J0.003
G0 Z0.125
G0 X1.2817 Y1.7958
G0 Z0.016
G1 F10.0 Z-0.004
G3 F25.0 X1.2824 Y1.7953 I0.0195 J0.0237
G3 X1.2834 Y1.7945 I0.0123 J0.0144
G3 X1.2901 Y1.7897 I0.04 J0.0491
G3 X1.2902 Y1.7896 I0.0021 J0.0034
G3 X1.3012 Y1.7849 I0.0246 J0.0423
G3 X1.3064 Y1.7837 I0.0139 J0.0454
G3 X1.3121 Y1.7831 I0.0058 J0.0311
G3 X1.3177 Y1.7837 I-0.0002 J0.0318
G3 X1.323 Y1.7849 I-0.0088 J0.0473
G3 X1.3339 Y1.7896 I-0.0136 J0.0469
G1 X1.334 Y1.7897
G3 X1.3386 Y1.7928 I-0.0233 J0.0393
G1 X1.3396 Y1.7936
G1 X1.3397
G1 X1.3427 Y1.796
G3 X1.343 Y1.7963 I-0.0025 J0.0031
G1 X1.3551 Y1.8084
G3 X1.3562 Y1.8112 I-0.0028 J0.0028
G1 Y1.8286
G1 Y1.8419
G1 X1.43 Y1.8402
G1 X1.5078 Y1.8383
G3 X1.5119 Y1.8423 I0.0001 J0.004
G1 Y1.8674
G1 Y1.8925
G3 X1.5078 Y1.8965 I-0.004 J0.0
G1 X1.4327 Y1.895
G1 X1.3598 Y1.8936
G1 X1.3477 Y1.9109
G1 X1.3343 Y1.93
G3 X1.331 Y1.9317 I-0.0033 J-0.0023
G1 X1.3135
G1 X1.296
G3 X1.2932 Y1.9305 I0.0 J-0.004
G1 X1.2811 Y1.9185
G1 X1.2691 Y1.9064
G3 X1.2679 Y1.9036 I0.0028 J-0.0028
G1 Y1.8574
G1 Y1.8112
G3 X1.2691 Y1.8084 I0.004 J0.0
G1 X1.2811 Y1.7963
G3 X1.2814 Y1.7961 I0.0028 J0.0028
G3 X1.2817 Y1.7958 I0.0198 J0.0234
G0 Z0.125
G0 X1.2324 Y2.1245
G0 Z0.016
G1 F10.0 Z-0.004
G3 F25.0 X1.2358 Y2.1285 I-0.0006 J0.004
G1 Y2.1887
G1 Y2.245
G1 X1.2607
G1 X1.2877
G1 X1.299 Y2.2313
G1 X1.3115 Y2.2163
G3 X1.3145 Y2.2148 I0.0031 J0.0026
G1 X1.3314
G1 X1.3482
G3 X1.3511 Y2.216 I0.0 J0.004
G1 X1.3636 Y2.2286
G1 X1.375 Y2.2399
G1 X1.4406
G1 X1.5079
G3 X1.5119 Y2.2439 I0.0 J0.004
G1 Y2.269
G1 Y2.2941
G3 X1.5079 Y2.2981 I-0.004 J0.0
G1 X1.4406
G1 X1.375
G1 X1.3636 Y2.3095
G1 X1.3511 Y2.3221
G3 X1.3482 Y2.3232 I-0.0028 J-0.0028
G1 X1.3314
G1 X1.3145
G3 X1.3115 Y2.3218 I0.0 J-0.004
G1 X1.299 Y2.3067
G1 X1.2877 Y2.2931
G1 X1.2607
G1 X1.2358
G1 Y2.3277
G1 Y2.3646
G1 X1.2545 Y2.3815
G1 X1.2746 Y2.3997
G3 X1.2759 Y2.4027 I-0.0027 J0.003
G1 Y2.4297
G1 Y2.4567
G3 X1.2746 Y2.4597 I-0.004 J0.0
G1 X1.2562 Y2.4763
G1 X1.2379 Y2.4929
G3 X1.2352 Y2.4939 I-0.0027 J-0.003
G1 X1.2099
G1 X1.1847
G3 X1.1817 Y2.4926 I0.0 J-0.004
G1 X1.1635 Y2.4725
G1 X1.1466 Y2.4538
G1 X1.1314
G1 X1.1162
G1 X1.0992 Y2.4725
G1 X1.081 Y2.4926
G3 X1.078 Y2.4939 I-0.003 J-0.0027
G1 X1.051
G1 X1.024
G3 X1.0211 Y2.4926 I0.0 J-0.004
G1 X1.0045 Y2.4742
G1 X0.9878 Y2.4559
G3 X0.9868 Y2.4532 I0.003 J-0.0027
G1 Y2.4279
G1 Y2.4027
G3 X0.9881 Y2.3997 I0.004 J0.0
G1 X1.0065 Y2.3831
G1 X1.0248 Y2.3665
G3 X1.0275 Y2.3654 I0.0027 J0.003
G1 X1.0528
G1 X1.078
G3 X1.081 Y2.3668 I0.0 J0.004
G1 X1.0992 Y2.3868
G1 X1.1162 Y2.4056
G1 X1.1312
G1 X1.1462
G1 X1.1669 Y2.3836
G1 X1.1876 Y2.3615
G1 Y2.2659
G1 Y2.1726
G1 X1.1727
G1 X1.1558
G1 X1.1445 Y2.1863
G1 X1.132 Y2.2013
G3 X1.1289 Y2.2028 I-0.0031 J-0.0026
G1 X1.1116
G1 X1.0943
G3 X1.0913 Y2.2014 I0.0 J-0.004
G1 X1.0747 Y2.1831
G1 X1.0581 Y2.1647
G3 X1.0571 Y2.162 I0.003 J-0.0027
G1 Y2.1468
G1 Y2.1316
G3 X1.0584 Y2.1286 I0.004 J0.0
G1 X1.0768 Y2.112
G1 X1.0951 Y2.0954
G3 X1.0978 Y2.0944 I0.0027 J0.003
G1 X1.1134
G1 X1.1289
G3 X1.132 Y2.0958 I0.0 J0.004
G1 X1.1445 Y2.1109
G1 X1.1558 Y2.1245
G1 X1.1928
G1 X1.2318
G3 X1.2324 I0.0 J0.004
G0 Z0.125
G0 X1.3108 Y2.3477
G0 Z0.016
G1 F10.0 Z-0.004
G2 F25.0 X1.3081 Y2.3515 I0.0013 J0.0038
G1 Y2.4408
G1 Y2.5261
G1 X1.1314
G1 X0.9546
G1 Y2.4312
G1 Y2.3342
G1 X0.9734 Y2.3172
G1 X0.9935 Y2.299
G2 X0.9948 Y2.296 I-0.0027 J-0.003
G1 Y2.269
G1 Y2.242
G2 X0.9935 Y2.2391 I-0.004 J0.0
G1 X0.9727 Y2.2203
G1 X0.9536 Y2.2029
G1 X0.9595 Y2.1712
G1 X0.9659 Y2.1372
G2 X0.9649 Y2.1338 I-0.0039 J-0.0007
G1 X0.9477 Y2.1147
G1 X0.9304 Y2.0957
G2 X0.9274 Y2.0944 I-0.003 J0.0027
G1 X0.9122
G1 X0.897
G2 X0.8943 Y2.0954 I0.0 J0.004
G1 X0.876 Y2.112
G1 X0.8576 Y2.1286
G2 X0.8563 Y2.1316 I0.0027 J0.003
G1 Y2.1494
G1 Y2.1672
G2 X0.8578 Y2.1703 I0.004 J0.0
G1 X0.8826 Y2.1898
G1 X0.9037 Y2.2064
G1 X0.8874 Y2.2212
G1 X0.8676 Y2.2391
G2 X0.8663 Y2.242 I0.0027 J0.003
G1 Y2.269
G1 Y2.296
G2 X0.8676 Y2.299 I0.004 J0.0
G1 X0.8877 Y2.3172
G1 X0.9065 Y2.3342
G1 Y2.4513
G1 Y2.5702
G2 X0.9105 Y2.5742 I0.004 J0.0
G1 X1.1314
G1 X1.3522
G2 X1.3562 Y2.5702 I0.0 J-0.004
G1 Y2.4799
G1 Y2.3936
G1 X1.3697 Y2.3937
G1 X1.374 Y2.3939
G1 X1.3785 Y2.3943
G3 X1.3813 Y2.3945 I-0.0121 J0.1426
G1 X1.3814
G3 X1.3843 Y2.3949 I-0.005 J0.0556
G2 X1.3844 I0.0006 J-0.004
G3 X1.3872 Y2.3953 I-0.0064 J0.0571
G2 X1.3873 I0.0006 J-0.0039
G3 X1.3892 Y2.3956 I-0.0078 J0.0566
G1 X1.3893
G3 X1.3919 Y2.396 I-0.0167 J0.1064
G1 X1.3954 Y2.3967
G1 X1.398 Y2.3972
G1 X1.3979
G1 X1.4005 Y2.3978
G3 X1.4056 Y2.3989 I-0.0525 J0.2425
G3 X1.409 Y2.3997 I-0.0574 J0.2526
G1 X1.4286 Y2.405
G1 Y2.4243
G1 Y2.4449
G1 X1.4098 Y2.4619
G1 X1.3897 Y2.48
G2 X1.3884 Y2.483 I0.0027 J0.003
G1 Y2.5083
G1 Y2.5335
G2 X1.3894 Y2.5362 I0.004 J0.0
G1 X1.4061 Y2.5546
G1 X1.4227 Y2.5729
G2 X1.4256 Y2.5742 I0.003 J-0.0027
G1 X1.4509
G1 X1.4762
G2 X1.4788 Y2.5732 I0.0 J-0.004
G1 X1.4972 Y2.5566
G1 X1.5156 Y2.54
G2 X1.5169 Y2.537 I-0.0027 J-0.003
G1 Y2.51
G1 Y2.483
G2 X1.5156 Y2.48 I-0.004 J0.0
G1 X1.4955 Y2.4619
G1 X1.4767 Y2.4449
G1 Y2.4243
G1 Y2.405
G1 X1.4938 Y2.4005
G1 X1.5139 Y2.3953
G2 X1.5169 Y2.3914 I-0.001 J-0.0039
G1 Y2.371
G1 Y2.3505
G2 X1.515 Y2.3471 I-0.004 J0.0
G1 X1.5043 Y2.3405
G1 X1.4935 Y2.3339
G2 X1.4911 Y2.3333 I-0.0021 J0.0034
G1 X1.4014 Y2.3404
G1 X1.3118 Y2.3475
G2 X1.3108 Y2.3477 I0.0003 J0.004
G0 Z0.125
G0 X1.3484 Y2.7068
G0 Z0.016
G1 F10.0 Z-0.004
G3 F25.0 X1.3488 I0.0004 J0.004
G1 X1.3741
G1 X1.3993
G3 X1.4023 Y2.7081 I0.0 J0.004
G1 X1.4189 Y2.7265
G1 X1.4355 Y2.7448
G3 X1.4366 Y2.7475 I-0.003 J0.0027
G1 Y2.7731
G1 Y2.7987
G3 X1.4351 Y2.8018 I-0.004 J0.0
G1 X1.4201 Y2.8143
G1 X1.4064 Y2.8256
G1 Y2.8514
G1 Y2.8771
G1 X1.4201 Y2.8884
G1 X1.4351 Y2.9009
G3 X1.4366 Y2.904 I-0.0026 J0.0031
G1 Y2.9317
G1 Y2.9593
G3 X1.4351 Y2.9624 I-0.004 J0.0
G1 X1.4201 Y2.9749
G1 X1.4064 Y2.9862
G1 Y3.0132
G1 Y3.0421
G1 Y3.3538
G1 X1.5604
G1 Y3.2989
G1 X1.5429 Y3.2686
G3 X1.5423 Y3.2666 I0.0035 J-0.002
G1 Y3.1378
G3 X1.5435 Y3.135 I0.004 J0.0
G1 X1.5725 Y3.106
G3 X1.5754 Y3.1048 I0.0028 J0.0028
G1 X1.8096
G3 X1.8125 Y3.106 I0.0 J0.004
G1 X1.8368 Y3.1303
G3 X1.838 Y3.1332 I-0.0028 J0.0028
G1 Y3.2782
G3 X1.8368 Y3.281 I-0.004 J0.0
G1 X1.8157 Y3.3021
G1 Y3.3539
G1 X2.0155
G1 X2.0209 Y3.0421
G1 Y2.9216
G1 Y2.8052
G1 X2.0166
G2 X2.0142 Y2.8059 I0.0143 J0.0529
G2 X2.0116 Y2.8069 I0.0056 J0.0184
G2 X2.0083 Y2.8088 I0.0077 J0.0166
G1 X2.0074 Y2.8095
G2 X2.005 Y2.8116 I0.0263 J0.0333
G3 X2.0048 Y2.8117 I-0.0027 J-0.0029
G2 X2.0047 Y2.8119 I0.0011 J0.0014
G3 X2.0044 Y2.8121 I-0.0029 J-0.0028
G2 X2.0042 Y2.8123 I0.0012 J0.0015
G3 X2.0041 Y2.8124 I-0.0029 J-0.0028
G2 X2.0025 Y2.814 I0.0463 J0.0493
G2 X1.9978 Y2.8189 I0.162 J0.1602
G1 X1.9854 Y2.8338
G3 X1.9823 Y2.8353 I-0.0031 J-0.0026
G1 X1.955
G1 X1.9276
G3 X1.9247 Y2.834 I0.0 J-0.004
G1 X1.9081 Y2.8156
G1 X1.8914 Y2.7972
G3 X1.8904 Y2.7946 I0.003 J-0.0027
G1 Y2.7693
G1 Y2.744
G3 X1.8917 Y2.7411 I0.004 J0.0
G1 X1.9101 Y2.7245
G1 X1.9284 Y2.7078
G3 X1.9311 Y2.7068 I0.0027 J0.003
G1 X1.9567
G1 X1.9823
G3 X1.9854 Y2.7082 I0.0 J0.004
G1 X1.9979 Y2.7233
G1 X2.0092 Y2.7369
G1 X2.0342
G1 X2.0611
G3 X2.0639 Y2.7381 I0.0 J0.004
G1 X2.0759 Y2.7501
G1 X2.088 Y2.7622
G3 X2.0892 Y2.765 I-0.0028 J0.0028
G1 Y2.9036
G1 Y3.0381
G1 X2.3462
G1 X2.6072
G3 X2.6074 I0.0 J0.004
G1 X2.6543 Y2.9912
G1 Y2.2013
G1 X2.6056 Y2.1526
G1 X2.5231
G1 X2.4409
G1 X2.4296 Y2.1662
G1 X2.4171 Y2.1812
G3 X2.414 Y2.1827 I-0.0031 J-0.0026
G1 X2.3967
G1 X2.3794
G3 X2.3765 Y2.1814 I0.0 J-0.004
G1 X2.3599 Y2.163
G1 X2.3432 Y2.1446
G3 X2.3422 Y2.142 I0.003 J-0.0027
G1 Y2.1267
G1 Y2.1115
G3 X2.3435 Y2.1085 I0.004 J0.0
G1 X2.3619 Y2.0919
G1 X2.3802 Y2.0753
G3 X2.3829 Y2.0743 I0.0027 J0.003
G1 X2.3985
G1 X2.414
G3 X2.4171 Y2.0757 I0.0 J0.004
G1 X2.4296 Y2.0908
G1 X2.4409 Y2.1044
G1 X2.5231
G1 X2.6032
G1 Y1.9769
G1 Y1.8494
G1 X2.4743 Y1.8516
G1 X2.4365 Y1.8521
G1 X2.3987 Y1.8525
G3 X2.3635 Y1.8528 I-0.0576 J-4.8641
G3 X2.3547 I-0.011 J-1.3635
G3 X2.3415 Y1.8529 I-0.011 J-1.6303
G3 X2.3283 I-0.0061 J-2.0192
G1 X2.3158 Y1.8528
G1 X2.2971 Y1.8527
G1 X2.2784 Y1.8526
G1 X2.2156 Y1.8514
G3 X2.2117 Y1.8474 I0.0001 J-0.004
G1 Y1.708
G1 Y1.5706
G1 X2.1981 Y1.5593
G1 X2.183 Y1.5468
G3 X2.1816 Y1.5437 I0.0026 J-0.0031
G1 Y1.5261
G1 Y1.5085
G3 X2.183 Y1.5054 I0.004 J0.0
G1 X2.1981 Y1.4929
G1 X2.2117 Y1.4816
G1 Y1.4345
G1 Y1.3855
G3 X2.2157 Y1.3815 I0.004 J0.0
G1 X2.2442
G1 X2.271
G1 X2.288 Y1.3628
G1 X2.3062 Y1.3427
G3 X2.3092 Y1.3414 I0.003 J0.0027
G1 X2.3362
G1 X2.3632
G3 X2.3661 Y1.3427 I0.0 J0.004
G1 X2.3827 Y1.361
G1 X2.3994 Y1.3794
G3 X2.4004 Y1.3821 I-0.003 J0.0027
G1 Y1.4073
G1 Y1.4326
G3 X2.3991 Y1.4356 I-0.004 J0.0
G1 X2.3807 Y1.4522
G1 X2.3624 Y1.4688
G3 X2.3597 Y1.4698 I-0.0027 J-0.003
G1 X2.3344
G1 X2.3092
G3 X2.3062 Y1.4685 I0.0 J-0.004
G1 X2.2881 Y1.4485
G2 X2.2779 Y1.4386 I-0.2295 J0.224
G2 X2.2736 Y1.4349 I-0.0459 J0.0489
G2 X2.2692 Y1.432 I-0.0191 J0.0243
G2 X2.2663 Y1.4307 I-0.0122 J0.0234
G3 X2.2662 Y1.4306 I0.0014 J-0.0037
G2 X2.2648 Y1.4301 I-0.0087 J0.0209
G1 X2.2647
G1 X2.2636 Y1.4297
G1 X2.2598
G1 Y1.4546
G1 Y1.4816
G1 X2.2735 Y1.4929
G1 X2.2885 Y1.5054
G3 X2.29 Y1.5085 I-0.0026 J0.0031
G1 Y1.5261
G1 Y1.5437
G3 X2.2885 Y1.5468 I-0.004 J0.0
G1 X2.2735 Y1.5593
G1 X2.2598 Y1.5706
G1 Y1.6879
G1 Y1.8032
G1 X2.277
G1 X2.2962
G1 X2.3147 Y1.7796
G1 X2.3345 Y1.7545
G3 X2.3376 Y1.753 I0.0031 J0.0025
G1 X2.3562
G1 X2.3749
G3 X2.378 Y1.7545 I0.0 J0.004
G1 X2.3978 Y1.7796
G1 X2.4163 Y1.8032
G1 X2.5108
G1 X2.6032
G1 Y1.25
G1 Y0.6968
G1 X2.4572
G1 X2.3095
G1 X2.3044 Y0.7049
G1 X2.2982 Y0.7149
G3 X2.2948 Y0.7168 I-0.0034 J-0.0021
G1 X2.2766
G1 X2.2583
G3 X2.2552 Y0.7154 I0.0 J-0.004
G1 X2.2414 Y0.6988
G1 X2.2277 Y0.6822
G3 X2.2267 Y0.6795 I0.0031 J-0.0026
G1 X2.2303 Y0.5503
G1 X2.2338 Y0.4231
G1 X2.2092 Y0.4038
G1 X2.1831 Y0.3832
G3 X2.1816 Y0.3801 I0.0025 J-0.0031
G1 Y0.3619
G1 Y0.3438
G3 X2.183 Y0.3407 I0.004 J0.0
G1 X2.1981 Y0.3282
G1 X2.2117 Y0.3169
G1 Y0.261
G1 Y0.2051
G1 X2.1981 Y0.1938
G1 X2.183 Y0.1813
G3 X2.1816 Y0.1783 I0.0026 J-0.0031
G1 Y0.161
G1 Y0.1437
G3 X2.1829 Y0.1407 I0.004 J0.0
G1 X2.2012 Y0.1241
G1 X2.2196 Y0.1075
G3 X2.2223 Y0.1064 I0.0027 J0.003
G1 X2.2375
G1 X2.2527
G3 X2.2557 Y0.1078 I0.0 J0.004
G1 X2.2723 Y0.1261
G1 X2.2889 Y0.1445
G3 X2.29 Y0.1472 I-0.003 J0.0027
G1 Y0.1627
G1 Y0.1783
G3 X2.2885 Y0.1813 I-0.004 J0.0
G1 X2.2735 Y0.1938
G1 X2.2598 Y0.2051
G1 Y0.2603
G1 Y0.3156
G1 X2.2712 Y0.327
G1 X2.2838 Y0.3395
G3 X2.2849 Y0.3425 I-0.0028 J0.0028
G1 X2.2814 Y0.4731
G1 X2.2779 Y0.6017
G1 X2.2949 Y0.6146
G1 X2.3124 Y0.6279
G1 X2.3989 Y0.6282
G1 X2.4828 Y0.6285
G1 Y0.5972
G1 Y0.5631
G1 X2.4709 Y0.5441
G1 X2.4584 Y0.5241
G3 Y0.5199 I0.0034 J-0.0021
G1 X2.4691 Y0.503
G3 X2.4692 Y0.5028 I0.0034 J0.0021
G3 X2.4701 Y0.5015 I0.0682 J0.049
G3 X2.471 Y0.5004 I0.0399 J0.0285
G3 X2.4717 Y0.4994 I0.0317 J0.0227
G3 X2.473 Y0.4977 I0.0372 J0.0266
G3 X2.4771 Y0.4926 I0.0907 J0.0685
G3 X2.4874 Y0.4823 I0.0696 J0.0593
G1 Y0.4822
G3 X2.4925 Y0.4782 I0.0793 J0.094
G1 X2.495 Y0.4763
G1 X2.4951
G1 X2.4976 Y0.4744
G3 X2.4978 Y0.4742 I0.0024 J0.0032
G1 X2.5147 Y0.4636
G3 X2.519 I0.0021 J0.0034
G1 X2.5359 Y0.4742
G3 X2.5361 Y0.4744 I-0.0021 J0.0034
G3 X2.5374 Y0.4753 I-0.0491 J0.0684
G3 X2.5385 Y0.4761 I-0.0286 J0.0401
G3 X2.5395 Y0.4769 I-0.0229 J0.0318
G3 X2.5413 Y0.4782 I-0.0267 J0.0374
G3 X2.5463 Y0.4823 I-0.0697 J0.0923
G3 X2.5567 Y0.4926 I-0.0589 J0.0693
G3 X2.5608 Y0.4977 I-0.0954 J0.0805
G1 X2.5627 Y0.5002
G1 X2.5645 Y0.5028
G3 X2.5647 Y0.503 I-0.0032 J0.0024
G1 X2.5753 Y0.5199
G3 Y0.5241 I-0.0034 J0.0021
G1 X2.5629 Y0.5441
G1 X2.551 Y0.5631
G1 Y0.5972
G1 Y0.6285
G1 X2.5952
G1 X2.6434
G3 X2.6462 Y0.6297 I0.0 J0.004
G1 X2.6583 Y0.6417
G1 X2.6703 Y0.6538
G3 X2.6715 Y0.6566 I-0.0028 J0.0028
G1 Y1.8682
G1 Y2.1063
G1 X2.7337 Y2.1685
G3 X2.7349 Y2.1714 I-0.0028 J0.0028
G1 X2.7211 Y3.0256
G3 X2.72 Y3.0283 I-0.004 J-0.0001
G1 X2.643 Y3.1053
G3 X2.6402 Y3.1065 I-0.0028 J-0.0028
G1 X2.0934 Y3.1118
G1 Y3.4429
G3 X2.0894 Y3.4469 I-0.004 J0.0
G1 X1.3494
G3 X1.3454 Y3.4429 I0.0 J-0.004
G1 X1.3432 Y3.0975
G1 X1.3402 Y3.0407
G1 X1.3373 Y2.9855
G1 X1.3241 Y2.9745
G1 X1.3095 Y2.9624
G3 X1.3081 Y2.9593 I0.0026 J-0.0031
G1 Y2.9317
G1 Y2.904
G3 X1.3095 Y2.9009 I0.004 J0.0
G1 X1.3246 Y2.8884
G1 X1.3382 Y2.8771
G1 Y2.8514
G1 Y2.8256
G1 X1.3246 Y2.8143
G1 X1.3095 Y2.8018
G3 X1.3081 Y2.7987 I0.0026 J-0.0031
G1 Y2.7714
G1 Y2.744
G3 X1.3094 Y2.7411 I0.004 J0.0
G1 X1.3278 Y2.7245
G1 X1.3461 Y2.7078
G3 X1.3484 Y2.7068 I0.0027 J0.003
G0 Z0.125
G0 X1.2585 Y2.7872
G0 Z0.016
G1 F10.0 Z-0.004
G1 F25.0 X1.2731 Y2.8035
G3 X1.2741 Y2.8062 I-0.003 J0.0027
G1 Y2.8714
G1 Y2.9367
G3 X1.2731 Y2.9394 I-0.004 J0.0
G1 X1.2574 Y2.9569
G1 X1.2417 Y2.9745
G3 X1.2387 Y2.9758 I-0.003 J-0.0027
G1 X1.2117
G1 X1.1847
G3 X1.1817 Y2.9745 I0.0 J-0.004
G1 X1.1661 Y2.9569
G1 X1.1504 Y2.9394
G3 X1.1494 Y2.9367 I0.003 J-0.0027
G1 X1.1492 Y2.8698
G1 X1.149 Y2.8029
G3 X1.1503 Y2.7999 I0.004 J0.0
G1 X1.1679 Y2.784
G1 X1.1855 Y2.7681
G3 X1.1882 Y2.767 I0.0027 J0.003
G1 X1.2134
G1 X1.2387
G3 X1.2417 Y2.7684 I0.0 J0.004
G1 X1.2574 Y2.7859
G1 X1.2585 Y2.7872
G0 Z0.125
G0 X1.1214 Y2.8041
G0 Z0.016
G1 F10.0 Z-0.004
G3 F25.0 X1.1215 Y2.8046 I-0.004 J0.0005
G1 Y2.8303
G1 Y2.8561
G3 X1.1201 Y2.8591 I-0.004 J0.0
G1 X1.1014 Y2.876
G1 X1.0827 Y2.893
G3 X1.08 Y2.894 I-0.0027 J-0.003
G1 X1.0542
G1 X1.0285
G3 X1.0255 Y2.8927 I0.0 J-0.004
G1 X1.007 Y2.8722
G1 X0.9896 Y2.853
G1 X0.9649
G3 X0.9623 Y2.854 I-0.0026 J-0.003
G1 X0.6751
G3 X0.6711 Y2.85 I0.0 J-0.004
G1 Y1.9969
G1 X0.2601
G1 X0.2276
G1 X0.207 Y2.0197
G1 X0.1852 Y2.0438
G3 X0.1822 Y2.0451 I-0.003 J-0.0027
G1 X0.1498
G1 X0.1174
G3 X0.1144 Y2.0438 I0.0 J-0.004
G1 X0.0945 Y2.0217
G1 X0.0745 Y1.9997
G3 X0.0735 Y1.997 I0.003 J-0.0027
G1 Y1.9667
G1 Y1.9364
G3 X0.0748 Y1.9334 I0.004 J0.0
G1 X0.0968 Y1.9135
G1 X0.1189 Y1.8936
G3 X0.1216 Y1.8925 I0.0027 J0.003
G1 X0.1519
G1 X0.1822
G3 X0.1852 Y1.8938 I0.0 J0.004
G1 X0.207 Y1.9179
G1 X0.2276 Y1.9407
G1 X0.2601
G1 X0.7349 Y1.9401
G3 X0.7389 Y1.9441 I0.0 J0.004
G1 Y2.8041
G1 X0.9623
G1 X0.9896
G1 X1.007 Y2.7849
G1 X1.0255 Y2.7644
G3 X1.0285 Y2.7631 I0.003 J0.0027
G1 X1.056
G1 X1.0836
G3 X1.0865 Y2.7644 I0.0 J0.004
G1 X1.1035 Y2.7832
G1 X1.1204 Y2.8019
G3 X1.1214 Y2.8041 I-0.003 J0.0027
G0 Z0.125
G0 X1.6954 Y2.3969
G0 Z0.016
G1 F10.0 Z-0.004
G3 F25.0 X1.6947 Y2.3951 I0.0033 J-0.0023
G1 X1.6916 Y2.3735
G1 X1.6885 Y2.3518
G3 X1.6904 Y2.3478 I0.004 J-0.0006
G1 X1.6985 Y2.3429
G3 X1.7003 Y2.3423 I0.0021 J0.0034
G3 X1.7309 Y2.3405 I0.0815 J1.1562
G1 X1.731
G3 X1.7401 Y2.3403 I0.0178 J0.4203
G1 X1.748 Y2.3401
G3 X1.7758 Y2.3402 I0.0116 J0.9774
G1 X1.7897 Y2.3404
G3 X1.7966 Y2.3406 I-0.0204 J1.0945
G3 X1.8001 Y2.3407 I-0.0035 J0.2324
G2 X1.8035 I0.0057 J-0.1751
G1 X1.8036
G1 X1.8528 Y2.3418
G1 X1.902 Y2.3428
G1 X2.0953 Y2.3483
G3 X2.0992 Y2.3523 I-0.0001 J0.004
G1 Y2.4412
G1 Y2.5261
G1 X2.286
G1 X2.4763
G1 X2.5604 Y2.5095
G1 Y2.356
G1 X2.4758 Y2.3363
G3 X2.474 Y2.3354 I0.0009 J-0.0039
G1 X2.4549 Y2.3181
G1 X2.438 Y2.3028
G1 X2.4195 Y2.3143
G1 X2.3984 Y2.3275
G3 X2.3942 I-0.0021 J-0.0034
G1 X2.3773 Y2.3169
G3 X2.3771 Y2.3167 I0.0021 J-0.0034
G3 X2.3758 Y2.3158 I0.0487 J-0.0678
G3 X2.3747 Y2.3149 I0.0284 J-0.0398
G3 X2.3737 Y2.3142 I0.0227 J-0.0317
G3 X2.372 Y2.3129 I0.0266 J-0.0371
G3 X2.3669 Y2.3089 I0.0684 J-0.0906
G1 Y2.3088
G3 X2.3566 Y2.2985 I0.0593 J-0.0696
G3 X2.3525 Y2.2934 I0.094 J-0.0793
G1 X2.3506 Y2.2909
G1 Y2.2908
G1 X2.3487 Y2.2883
G3 X2.3486 Y2.2881 I0.0032 J-0.0024
G1 X2.3379 Y2.2712
G3 Y2.2669 I0.0034 J-0.0021
G1 X2.3486 Y2.25
G3 X2.3487 Y2.2498 I0.0034 J0.0021
G3 X2.3496 Y2.2485 I0.0683 J0.0491
G3 X2.3505 Y2.2474 I0.04 J0.0286
G3 X2.3512 Y2.2464 I0.0318 J0.0228
G3 X2.3525 Y2.2447 I0.0374 J0.0267
G3 X2.3566 Y2.2396 I0.0923 J0.0697
G3 X2.3669 Y2.2292 I0.0693 J0.0589
G3 X2.372 Y2.2252 I0.0806 J0.0955
G1 X2.3745 Y2.2233
G1 X2.3746 Y2.2232
G1 X2.3771 Y2.2214
G3 X2.3773 Y2.2212 I0.0024 J0.0032
G1 X2.3942 Y2.2106
G3 X2.3984 I0.0021 J0.0034
G1 X2.4195 Y2.2237
G1 X2.438 Y2.2353
G1 X2.4532 Y2.2216
G1 X2.4706 Y2.2058
G3 X2.4733 Y2.2048 I0.0027 J0.003
G1 X2.4985
G1 X2.5238
G3 X2.5268 Y2.2061 I0.0 J0.004
G1 X2.5434 Y2.2245
G1 X2.56 Y2.2428
G3 X2.561 Y2.2455 I-0.003 J0.0027
G1 Y2.2708
G1 Y2.2922
G1 X2.6245 Y2.2938
G3 X2.6284 Y2.2978 I-0.0001 J0.004
G1 Y2.5678
G3 X2.6245 Y2.5718 I-0.004 J0.0
G1 X2.517 Y2.5742
G1 X2.5169
G1 X2.286
G1 X2.055
G3 X2.051 Y2.5702 I0.0 J-0.004
G1 Y2.4785
G1 Y2.3909
G1 X1.8769 Y2.3947
G1 X1.6987 Y2.3985
G3 X1.6954 Y2.3969 I-0.0001 J-0.004
G0 Z0.125
G0 X1.6985 Y2.2981
G0 Z0.016
G1 F10.0 Z-0.004
G3 F25.0 X1.6947 Y2.2947 I0.0001 J-0.004
G1 X1.6917 Y2.2742
G1 X1.6888 Y2.2537
G3 X1.6899 Y2.2503 I0.004 J-0.0006
G1 X1.6974 Y2.2428
G1 X1.7049 Y2.2353
G3 X1.708 Y2.2342 I0.0028 J0.0028
G1 X1.8291 Y2.2409
G1 X1.9482 Y2.2475
G1 X1.9605 Y2.2327
G1 X1.9741 Y2.2163
G3 X1.9772 Y2.2148 I0.0031 J0.0026
G1 X1.9948
G1 X2.0124
G3 X2.0155 Y2.2163 I0.0 J0.004
G1 X2.028 Y2.2313
G1 X2.0393 Y2.245
G1 X2.1265
G1 X2.2157
G3 X2.2197 Y2.249 I0.0 J0.004
G1 Y2.3074
G1 Y2.3642
G1 X2.2417 Y2.3849
G1 X2.2637 Y2.4056
G1 X2.2761
G1 X2.2931 Y2.3868
G1 X2.3113 Y2.3668
G3 X2.3142 Y2.3654 I0.003 J0.0027
G1 X2.3412
G1 X2.3682
G3 X2.3712 Y2.3668 I0.0 J0.004
G1 X2.3878 Y2.3851
G1 X2.4036 Y2.4025
G1 X2.4165 Y2.4052
G1 X2.4331 Y2.3868
G1 X2.4513 Y2.3668
G3 X2.4542 Y2.3654 I0.003 J0.0027
G1 X2.4812
G1 X2.5082
G3 X2.5112 Y2.3668 I0.0 J0.004
G1 X2.5278 Y2.3851
G1 X2.5444 Y2.4035
G3 X2.5455 Y2.4062 I-0.003 J0.0027
G1 Y2.4314
G1 Y2.4567
G3 X2.5442 Y2.4597 I-0.004 J0.0
G1 X2.5258 Y2.4763
G1 X2.5074 Y2.4929
G3 X2.5048 Y2.4939 I-0.0027 J-0.003
G1 X2.4795
G1 X2.4542
G3 X2.4513 Y2.4926 I0.0 J-0.004
G1 X2.4331 Y2.4725
G1 X2.4168 Y2.4545
G1 X2.4037 Y2.4601
G1 X2.3858 Y2.4763
G1 X2.3674 Y2.4929
G3 X2.3648 Y2.4939 I-0.0027 J-0.003
G1 X2.3395
G1 X2.3142
G3 X2.3113 Y2.4926 I0.0 J-0.004
G1 X2.2931 Y2.4725
G1 X2.2761 Y2.4538
G1 X2.2607
G1 X2.2437 Y2.4725
G1 X2.2256 Y2.4926
G3 X2.2226 Y2.4939 I-0.003 J-0.0027
G1 X2.1956
G1 X2.1686
G3 X2.1656 Y2.4926 I0.0 J-0.004
G1 X2.149 Y2.4742
G1 X2.1324 Y2.4559
G3 X2.1314 Y2.4532 I0.003 J-0.0027
G1 Y2.4279
G1 Y2.4027
G3 X2.1327 Y2.3997 I0.004 J0.0
G1 X2.1528 Y2.3815
G1 X2.1715 Y2.3646
G1 Y2.3277
G1 Y2.2931
G1 X2.1065
G1 X2.0393
G1 X2.028 Y2.3067
G1 X2.0155 Y2.3218
G3 X2.0124 Y2.3232 I-0.0031 J-0.0026
G1 X1.9948
G1 X1.9772
G3 X1.9741 Y2.3218 I0.0 J-0.004
G1 X1.9607 Y2.3057
G1 X1.9486 Y2.2911
G1 X1.8247 Y2.2946
G1 X1.6987 Y2.2981
G3 X1.6985 I-0.0001 J-0.004
G0 Z0.125
G0 X1.6986 Y2.1977
G0 Z0.016
G1 F10.0 Z-0.004
G2 F25.0 X1.6987 I0.0 J-0.004
G1 X1.8242 Y2.1941
G1 X1.9497 Y2.1905
G2 X1.9517 Y2.1899 I-0.0001 J-0.004
G1 X1.9614 Y2.184
G1 X1.9631 Y2.1834
G1 X1.963
G1 X1.965 Y2.1827
G3 X1.9686 Y2.1816 I0.0139 J0.0393
G1 X1.9687
G3 X1.9694 Y2.1814 I0.0026 J0.0095
G2 X1.9697 Y2.1813 I-0.0007 J-0.0039
G3 X1.9703 Y2.1812 I0.0017 J0.007
G2 X1.9706 I-0.0006 J-0.004
G3 X1.971 Y2.1811 I0.001 J0.0045
G3 X1.9737 Y2.1807 I0.0105 J0.0705
G3 X1.9789 Y2.1805 I0.0053 J0.0568
G1 X1.9806
G1 X1.9822
G1 X1.9856 Y2.1807
G1 X1.9878 Y2.1808
G1 X1.9907 Y2.181
G1 X2.012 Y2.1838
G2 X2.0157 Y2.1823 I0.0005 J-0.004
G1 X2.0359 Y2.1566
G1 X2.0549 Y2.1325
G1 X2.1544
G1 X2.2558
G2 X2.2598 Y2.1285 I0.0 J-0.004
G1 Y2.0682
G1 Y2.012
G1 X2.3048
G1 X2.3519
G1 X2.3632 Y2.0256
G1 X2.3757 Y2.0407
G2 X2.3788 Y2.0421 I0.0031 J-0.0026
G1 X2.3943
G1 X2.4099
G2 X2.4126 Y2.0411 I0.0 J-0.004
G1 X2.4309 Y2.0245
G1 X2.4493 Y2.0079
G2 X2.4506 Y2.0049 I-0.0027 J-0.003
G1 Y1.9897
G1 Y1.9744
G2 X2.4496 Y1.9718 I-0.004 J0.0
G1 X2.4329 Y1.9534
G1 X2.4163 Y1.935
G2 X2.4134 Y1.9337 I-0.003 J0.0027
G1 X2.3961
G1 X2.3788
G2 X2.3757 Y1.9352 I0.0 J0.004
G1 X2.3632 Y1.9502
G1 X2.3519 Y1.9638
G1 X2.2847
G1 X2.2157
G2 X2.2117 Y1.9678 I0.0 J0.004
G1 Y2.0291
G1 Y2.0863
G1 X2.0959 Y2.0829
G1 X1.976 Y2.0793
G2 X1.9731 Y2.0804 I-0.0001 J0.004
G1 X1.9381 Y2.1143
G1 X1.9044 Y2.1469
G1 X1.8106 Y2.1399
G1 X1.715 Y2.1327
G2 X1.7126 Y2.1333 I-0.0003 J0.004
G1 X1.7015 Y2.1402
G1 X1.6903 Y2.1471
G2 X1.6885 Y2.151 I0.0021 J0.0034
G1 X1.6916 Y2.1727
G1 X1.6947 Y2.1943
G2 X1.6986 Y2.1977 I0.004 J-0.0006
G0 Z0.125
G0 X1.8289 Y2.4462
G0 Z0.016
G1 F10.0 Z-0.004
G3 F25.0 X1.8307 Y2.4458 I0.0019 J0.0035
G1 X1.8555
G1 X1.8803
G3 X1.8832 Y2.4469 I0.0 J0.004
G1 X1.8952 Y2.459
G1 X1.9044 Y2.4682
G1 X1.9137 Y2.459
G1 X1.9257 Y2.4469
G3 X1.9285 Y2.4458 I0.0028 J0.0028
G1 X1.9551
G1 X1.9816
G3 X1.9846 Y2.4471 I0.0 J0.004
G1 X2.0012 Y2.4654
G1 X2.0178 Y2.4838
G3 X2.0189 Y2.4865 I-0.003 J0.0027
G1 Y2.5117
G1 Y2.537
G3 X2.0176 Y2.54 I-0.004 J0.0
G1 X1.9992 Y2.5566
G1 X1.9808 Y2.5732
G3 X1.9782 Y2.5742 I-0.0027 J-0.003
G1 X1.9533
G1 X1.9285
G3 X1.9257 Y2.5731 I0.0 J-0.004
G1 X1.9137 Y2.561
G1 X1.9044 Y2.5518
G1 X1.8952 Y2.561
G1 X1.8832 Y2.5731
G3 X1.8803 Y2.5742 I-0.0028 J-0.0028
G1 X1.8538
G1 X1.8272
G3 X1.8243 Y2.5729 I0.0 J-0.004
G1 X1.8077 Y2.5546
G1 X1.791 Y2.5362
G3 X1.79 Y2.5335 I0.003 J-0.0027
G1 Y2.5083
G1 Y2.483
G3 X1.7913 Y2.48 I0.004 J0.0
G1 X1.8097 Y2.4634
G1 X1.828 Y2.4468
G3 X1.8289 Y2.4462 I0.0027 J0.003
G0 Z0.125
G0 X2.1423 Y2.7926
G0 Z0.016
G1 F10.0 Z-0.004
G1 F25.0 X2.1518 Y2.784
G1 X2.1694 Y2.7681
G3 X2.1721 Y2.767 I0.0027 J0.003
G1 X2.1973
G1 X2.2226
G3 X2.2256 Y2.7684 I0.0 J0.004
G1 X2.2413 Y2.7859
G1 X2.257 Y2.8035
G3 X2.258 Y2.8062 I-0.003 J0.0027
G1 Y2.8714
G1 Y2.9367
G3 X2.257 Y2.9394 I-0.004 J0.0
G1 X2.2413 Y2.9569
G1 X2.2256 Y2.9745
G3 X2.2226 Y2.9758 I-0.003 J-0.0027
G1 X2.1956
G1 X2.1686
G3 X2.1656 Y2.9745 I0.0 J-0.004
G1 X2.15 Y2.9569
G1 X2.1344 Y2.9394
G3 X2.1333 Y2.9367 I0.003 J-0.0027
G1 X2.1331 Y2.8698
G1 X2.1329 Y2.8029
G3 X2.1342 Y2.7999 I0.004 J0.0
G1 X2.1423 Y2.7926
G0 Z0.125
G0 X2.2785 Y2.8026
G0 Z0.016
G1 F10.0 Z-0.004
G3 F25.0 X2.2798 Y2.7999 I0.004 J0.0003
G1 X2.2974 Y2.784
G1 X2.315 Y2.7681
G3 X2.3177 Y2.767 I0.0027 J0.003
G1 X2.343
G1 X2.3682
G3 X2.3712 Y2.7684 I0.0 J0.004
G1 X2.3869 Y2.7859
G1 X2.4027 Y2.8035
G3 X2.4037 Y2.8062 I-0.003 J0.0027
G1 Y2.8714
G1 Y2.9367
G3 X2.4027 Y2.9394 I-0.004 J0.0
G1 X2.3869 Y2.9569
G1 X2.3712 Y2.9745
G3 X2.3682 Y2.9758 I-0.003 J-0.0027
G1 X2.3412
G1 X2.3142
G3 X2.3112 Y2.9745 I0.0 J-0.004
G1 X2.2956 Y2.9569
G1 X2.28 Y2.9394
G3 X2.279 Y2.9367 I0.003 J-0.0027
G1 X2.2787 Y2.8698
G1 X2.2785 Y2.8029
G3 Y2.8026 I0.004 J0.0
G0 Z0.125
G0 X2.4235 Y2.8029
G0 Z0.016
G1 F10.0 Z-0.004
G3 F25.0 X2.4248 Y2.7999 I0.004 J0.0
G1 X2.4424 Y2.784
G1 X2.46 Y2.7681
G3 X2.4627 Y2.767 I0.0027 J0.003
G1 X2.488
G1 X2.5132
G3 X2.5162 Y2.7684 I0.0 J0.004
G1 X2.5319 Y2.7859
G1 X2.5477 Y2.8035
G3 X2.5487 Y2.8062 I-0.003 J0.0027
G1 Y2.8714
G1 Y2.9367
G3 X2.5477 Y2.9394 I-0.004 J0.0
G1 X2.5319 Y2.9569
G1 X2.5162 Y2.9745
G3 X2.5132 Y2.9758 I-0.003 J-0.0027
G1 X2.4862
G1 X2.4592
G3 X2.4562 Y2.9745 I0.0 J-0.004
G1 X2.4406 Y2.9569
G1 X2.425 Y2.9394
G3 X2.424 Y2.9367 I0.003 J-0.0027
G1 X2.4237 Y2.8698
G1 X2.4235 Y2.8029
G0 Z0.125
G0 X2.4696 Y1.771
G0 Z0.016
G1 F10.0 Z-0.004
G3 F25.0 X2.4668 Y1.7697 I0.0002 J-0.004
G1 X2.4502 Y1.7514
G1 X2.4336 Y1.733
G3 X2.4326 Y1.7303 I0.003 J-0.0027
G1 Y1.7051
G1 Y1.6798
G3 X2.4339 Y1.6768 I0.004 J0.0
G1 X2.4522 Y1.6602
G3 X2.4524 Y1.6601 I0.0027 J0.003
G1 X2.4551 Y1.6579
G3 X2.4592 Y1.6547 I0.0851 J0.104
G1 Y1.6546
G1 X2.4613 Y1.6531
G1 X2.4624 Y1.6523
G1 X2.4635 Y1.6515
G3 X2.469 Y1.648 I0.0412 J0.0586
G3 X2.4752 Y1.6451 I0.0199 J0.0341
G3 X2.4798 Y1.6437 I0.014 J0.0375
G1 X2.4809 Y1.6434
G1 X2.481
G1 X2.4841 Y1.6427
G3 X2.485 Y1.6426 I0.0009 J0.0039
G1 X2.4928
G1 Y1.5217
G1 Y1.4005
G1 X2.4687 Y1.3977
G1 X2.4411 Y1.3945
G3 X2.4376 Y1.3911 I0.0005 J-0.004
G1 X2.4347 Y1.3706
G1 X2.4318 Y1.3501
G3 X2.4329 Y1.3467 I0.004 J-0.0006
G1 X2.44 Y1.3396
G1 X2.4471 Y1.3325
G3 X2.4499 Y1.3313 I0.0028 J0.0028
G1 X2.4988
G1 X2.5476
G3 X2.5514 Y1.3339 I0.0 J0.004
G1 X2.5577 Y1.3503
G1 X2.5639 Y1.3667
G3 X2.5636 Y1.3702 I-0.0037 J0.0014
G1 X2.552 Y1.3888
G1 X2.541 Y1.4065
G1 Y1.5354
G1 Y1.6632
G1 X2.5491 Y1.6683
G1 X2.5591 Y1.6745
G3 X2.561 Y1.6779 I-0.0021 J0.0034
G1 Y1.7058
G1 Y1.7338
G3 X2.5597 Y1.7368 I-0.004 J0.0
G1 X2.5414 Y1.7534
G1 X2.523 Y1.77
G3 X2.5203 Y1.771 I-0.0027 J-0.003
G1 X2.4951
G1 X2.4698
G3 X2.4696 I0.0 J-0.004
G0 Z0.125
G0 X2.3999 Y1.694
G0 Z0.016
G1 F10.0 Z-0.004
G1 F25.0 X2.3824 Y1.7098
G3 X2.3798 Y1.7108 I-0.0027 J-0.003
G1 X2.3545
G1 X2.3292
G3 X2.3263 Y1.7095 I0.0 J-0.004
G1 X2.3097 Y1.6911
G1 X2.293 Y1.6728
G3 X2.292 Y1.6701 I0.003 J-0.0027
G1 Y1.6448
G1 Y1.6196
G3 X2.2933 Y1.6166 I0.004 J0.0
G1 X2.3134 Y1.5984
G1 X2.3322 Y1.5814
G1 Y1.5612
G1 Y1.5392
G3 X2.3335 Y1.5363 I0.004 J0.0
G1 X2.3518 Y1.5197
G1 X2.3702 Y1.503
G3 X2.3729 Y1.502 I0.0027 J0.003
G1 X2.3981
G1 X2.4234
G3 X2.4264 Y1.5033 I0.0 J0.004
G1 X2.443 Y1.5217
G1 X2.4596 Y1.54
G3 X2.4606 Y1.5427 I-0.003 J0.0027
G1 Y1.568
G1 Y1.5932
G3 X2.4593 Y1.5962 I-0.004 J0.0
G1 X2.4392 Y1.6144
G1 X2.4205 Y1.6314
G1 Y1.6516
G1 Y1.6736
G3 X2.4192 Y1.6765 I-0.004 J0.0
G1 X2.4008 Y1.6931
G1 X2.3999 Y1.694
G0 Z0.125
G0 X2.4283 Y1.2931
G0 Z0.016
G1 F10.0 Z-0.004
G1 F25.0 X2.3359 Y1.2865
G3 X2.3322 Y1.2825 I0.0003 J-0.004
G1 Y1.1734
G1 Y1.0682
G1 X2.3073
G1 X2.2803
G1 X2.269 Y1.0819
G1 X2.2565 Y1.0969
G3 X2.2534 Y1.0984 I-0.0031 J-0.0026
G1 X2.2361
G1 X2.2188
G3 X2.2158 Y1.097 I0.0 J-0.004
G1 X2.1992 Y1.0787
G1 X2.1826 Y1.0603
G3 X2.1816 Y1.0576 I0.003 J-0.0027
G1 Y1.0424
G1 Y1.0272
G3 X2.1829 Y1.0242 I0.004 J0.0
G1 X2.2012 Y1.0076
G1 X2.2196 Y0.991
G3 X2.2223 Y0.99 I0.0027 J0.003
G1 X2.2378
G1 X2.2534
G3 X2.2565 Y0.9914 I0.0 J0.004
G1 X2.269 Y1.0065
G1 X2.2803 Y1.0201
G1 X2.3273
G1 X2.3763
G3 X2.3803 Y1.0241 I0.0 J0.004
G1 Y1.1345
G1 Y1.2409
G1 X2.4637 Y1.2385
G1 X2.5512 Y1.2359
G3 X2.5553 Y1.2391 I0.0001 J0.004
G1 X2.5591 Y1.2578
G1 X2.5628 Y1.2764
G3 X2.5618 Y1.28 I-0.0039 J0.0008
G1 X2.5519 Y1.2899
G1 X2.542 Y1.2998
G3 X2.5389 Y1.3009 I-0.0028 J-0.0028
G1 X2.4374 Y1.2937
G1 X2.4283 Y1.2931
G0 Z0.125
G0 X2.4411 Y1.1937
G0 Z0.016
G1 F10.0 Z-0.004
G3 F25.0 X2.4376 Y1.1903 I0.0005 J-0.004
G1 X2.4347 Y1.1698
G1 X2.4318 Y1.1493
G3 X2.4329 Y1.1459 I0.004 J-0.0006
G1 X2.44 Y1.1388
G3 X2.4407 Y1.1382 I0.0028 J0.0028
G3 X2.4416 Y1.1377 I0.0122 J0.0196
G3 X2.448 Y1.1344 I0.0273 J0.0448
G3 X2.4481 Y1.1343 I0.0016 J0.0037
G3 X2.4542 Y1.1325 I0.014 J0.0351
G3 X2.4572 Y1.1319 I0.0098 J0.0437
G3 X2.4586 Y1.1317 I0.0235 J0.1527
G3 X2.4594 Y1.1316 I0.0024 J0.0143
G3 X2.4602 Y1.1315 I0.0019 J0.0118
G3 X2.4667 Y1.1309 I0.0141 J0.116
G3 X2.4676 Y1.1308 I0.0016 J0.0173
G1 X2.4731 Y1.1305
G3 X2.4734 I0.0002 J0.004
G1 X2.4928
G1 Y1.0504
G1 Y0.9682
G1 X2.4792 Y0.9569
G1 X2.4641 Y0.9444
G3 X2.4627 Y0.9413 I0.0026 J-0.0031
G1 Y0.924
G1 Y0.9067
G3 X2.464 Y0.9037 I0.004 J0.0
G1 X2.4824 Y0.8871
G1 X2.5007 Y0.8705
G3 X2.5034 Y0.8695 I0.0027 J0.003
G1 X2.5186
G1 X2.5338
G3 X2.5368 Y0.8708 I0.0 J0.004
G1 X2.5534 Y0.8892
G1 X2.57 Y0.9075
G3 X2.5711 Y0.9102 I-0.003 J0.0027
G1 Y0.9258
G1 Y0.9413
G3 X2.5696 Y0.9444 I-0.004 J0.0
G1 X2.5546 Y0.9569
G1 X2.541 Y0.9682
G1 Y1.0455
G1 Y1.1236
G1 X2.552 Y1.1412
G1 X2.5636 Y1.1599
G3 X2.5639 Y1.1634 I-0.0034 J0.0021
G1 X2.5575 Y1.1803
G1 X2.551 Y1.1973
G3 X2.547 Y1.1998 I-0.0037 J-0.0014
G1 X2.4942 Y1.1968
G1 X2.4414 Y1.1937
G3 X2.4411 I0.0002 J-0.004
G0 Z0.125
G0 X2.4169 Y0.9477
G0 Z0.016
G1 F10.0 Z-0.004
G3 F25.0 X2.4165 Y0.9478 I-0.0004 J-0.004
G1 X2.2972
G1 X2.1799
G1 X2.1686 Y0.9614
G1 X2.1561 Y0.9764
G3 X2.153 Y0.9779 I-0.0031 J-0.0026
G1 X2.1357
G1 X2.1184
G3 X2.1154 Y0.9766 I0.0 J-0.004
G1 X2.0988 Y0.9582
G1 X2.0822 Y0.9398
G3 X2.0812 Y0.9372 I0.003 J-0.0027
G1 Y0.9211
G1 Y0.9051
G3 X2.0827 Y0.9019 I0.004 J0.0
G1 X2.1078 Y0.8822
G1 X2.1314 Y0.8636
G1 Y0.6827
G1 Y0.5018
G1 X2.109 Y0.4843
G1 X2.0852 Y0.4655
G3 X2.0837 Y0.4621 I0.0025 J-0.0031
G1 X2.0887 Y0.3738
G1 X2.0936 Y0.2875
G1 X2.0788 Y0.2752
G1 X2.0625 Y0.2617
G3 X2.0611 Y0.2586 I0.0026 J-0.0031
G1 Y0.2413
G1 Y0.224
G3 X2.0624 Y0.221 I0.004 J0.0
G1 X2.0808 Y0.2044
G1 X2.0991 Y0.1878
G3 X2.1018 Y0.1868 I0.0027 J0.003
G1 X2.117
G1 X2.1322
G3 X2.1352 Y0.1881 I0.0 J0.004
G1 X2.1518 Y0.2064
G1 X2.1684 Y0.2248
G3 X2.1695 Y0.2275 I-0.003 J0.0027
G1 Y0.243
G1 Y0.2586
G3 X2.168 Y0.2617 I-0.004 J0.0
G1 X2.153 Y0.2742
G1 X2.1394 Y0.2855
G1 Y0.3335
G1 Y0.3814
G1 X2.1596 Y0.3978
G1 X2.1813 Y0.4154
G3 X2.1828 Y0.4186 I-0.0025 J0.0031
G1 X2.1804 Y0.6611
G1 X2.1781 Y0.8996
G1 X2.2752
G1 X2.3723
G1 Y0.8747
G1 Y0.8477
G1 X2.3587 Y0.8364
G1 X2.3436 Y0.8239
G3 X2.3422 Y0.8208 I0.0026 J-0.0031
G1 Y0.8035
G1 Y0.7862
G3 X2.3435 Y0.7833 I0.004 J0.0
G1 X2.3619 Y0.7667
G1 X2.3802 Y0.75
G3 X2.3829 Y0.749 I0.0027 J0.003
G1 X2.3981
G1 X2.4134
G3 X2.4163 Y0.7503 I0.0 J0.004
G1 X2.4329 Y0.7687
G1 X2.4496 Y0.787
G3 X2.4506 Y0.7897 I-0.003 J0.0027
G1 Y0.8053
G1 Y0.8208
G3 X2.4492 Y0.8239 I-0.004 J0.0
G1 X2.4341 Y0.8364
G1 X2.4205 Y0.8477
G1 Y0.8948
G1 Y0.9438
G3 X2.4169 Y0.9477 I-0.004 J0.0
G0 Z0.125
G0 X2.0106 Y0.3948
G0 Z0.016
G1 F10.0 Z-0.004
G3 F25.0 X2.0083 Y0.3956 I-0.0024 J-0.0032
G1 X1.9927
G1 X1.9772
G3 X1.9741 Y0.3941 I0.0 J-0.004
G1 X1.9605 Y0.3778
G1 X1.9483 Y0.363
G1 X1.873 Y0.3682
G1 X1.7956 Y0.3735
G3 X1.7923 Y0.3722 I-0.0003 J-0.004
G1 X1.7766 Y0.3548
G3 X1.7765 Y0.3546 I0.003 J-0.0027
G3 X1.7744 Y0.3519 I0.2058 J-0.1623
G1 X1.7728 Y0.3499
G3 X1.7683 Y0.3434 I0.0707 J-0.0543
G3 X1.7649 Y0.3374 I0.0517 J-0.0332
G3 X1.7622 Y0.3308 I0.0411 J-0.0204
G3 X1.7609 Y0.3254 I0.0497 J-0.0153
G1 X1.7606 Y0.3241
G1 Y0.324
G1 X1.7599 Y0.3202
G3 Y0.3195 I0.0039 J-0.0007
G1 Y0.3043
G3 X1.7612 Y0.3013 I0.004 J0.0
G1 X1.7796 Y0.2847
G1 X1.7979 Y0.2681
G3 X1.8006 Y0.2671 I0.0027 J0.003
G1 X1.8167
G1 X1.8327
G3 X1.8358 Y0.2686 I0.0 J0.004
G1 X1.8556 Y0.2937
G1 X1.8741 Y0.3173
G1 X1.9122
G1 X1.9503
G1 X1.9616 Y0.3037
G1 X1.9741 Y0.2886
G3 X1.9772 Y0.2872 I0.0031 J0.0026
G1 X1.9945
G1 X2.0118
G3 X2.0147 Y0.2885 I0.0 J0.004
G1 X2.0313 Y0.3068
G1 X2.048 Y0.3252
G3 X2.049 Y0.3279 I-0.003 J0.0027
G1 Y0.3431
G1 Y0.3583
G3 X2.0477 Y0.3613 I-0.004 J0.0
G1 X2.0293 Y0.3779
G1 X2.011 Y0.3945
G3 X2.0106 Y0.3948 I-0.0027 J-0.003
G0 Z0.125
G0 X2.0083 Y0.2148
G0 Z0.016
G1 F10.0 Z-0.004
G1 F25.0 X1.9927
G1 X1.9772
G3 X1.9741 Y0.2134 I0.0 J-0.004
G1 X1.9616 Y0.1983
G1 X1.9503 Y0.1847
G1 X1.9044
G1 X1.8586
G1 X1.8473 Y0.1983
G1 X1.8348 Y0.2134
G3 X1.8317 Y0.2148 I-0.0031 J-0.0026
G1 X1.8144
G1 X1.7971
G3 X1.7941 Y0.2135 I0.0 J-0.004
G1 X1.7775 Y0.1952
G1 X1.7609 Y0.1768
G3 X1.7599 Y0.1741 I0.003 J-0.0027
G1 Y0.1589
G1 Y0.1437
G3 X1.7612 Y0.1407 I0.004 J0.0
G1 X1.7796 Y0.1241
G1 X1.7979 Y0.1075
G3 X1.8006 Y0.1064 I0.0027 J0.003
G1 X1.8162
G1 X1.8317
G3 X1.8348 Y0.1079 I0.0 J0.004
G1 X1.8473 Y0.1229
G1 X1.8586 Y0.1366
G1 X1.9044
G1 X1.9503
G1 X1.9616 Y0.1229
G1 X1.9741 Y0.1079
G3 X1.9772 Y0.1064 I0.0031 J0.0026
G1 X1.9945
G1 X2.0118
G3 X2.0147 Y0.1078 I0.0 J0.004
G1 X2.0313 Y0.1261
G1 X2.048 Y0.1445
G3 X2.049 Y0.1472 I-0.003 J0.0027
G1 Y0.1624
G1 Y0.1776
G3 X2.0477 Y0.1806 I-0.004 J0.0
G1 X2.0293 Y0.1972
G1 X2.011 Y0.2138
G3 X2.0083 Y0.2148 I-0.0027 J-0.003
G0 Z0.125
G0 X1.7731 Y1.5723
G0 Z0.016
G1 F10.0 Z-0.004
G2 F25.0 X1.7725 I-0.0007 J0.0039
G1 X1.7564
G1 X1.7404
G2 X1.7377 Y1.5733 I0.0 J0.004
G1 X1.7193 Y1.5899
G1 X1.701 Y1.6065
G2 X1.6996 Y1.6095 I0.0027 J0.003
G1 Y1.6268
G1 Y1.6441
G2 X1.7011 Y1.6472 I0.004 J0.0
G1 X1.7161 Y1.6597
G1 X1.7298 Y1.671
G1 Y1.7018
G1 Y1.7315
G1 X1.7119 Y1.7362
G1 X1.691 Y1.7416
G2 X1.6881 Y1.7461 I0.001 J0.0039
G1 X1.6914 Y1.7694
G1 X1.6947 Y1.7927
G2 X1.6986 Y1.7961 I0.004 J-0.0006
G1 X1.7538
G1 X1.8091
G2 X1.813 Y1.7927 I0.0 J-0.004
G1 X1.8163 Y1.7694
G1 X1.8196 Y1.7461
G2 X1.8167 Y1.7416 I-0.004 J-0.0006
G1 X1.7958 Y1.7362
G1 X1.7779 Y1.7315
G1 Y1.7006
G1 Y1.6706
G1 X1.8141
G1 X1.8502
G1 Y1.6955
G1 Y1.7244
G2 X1.8517 Y1.7275 I0.004 J0.0
G1 X1.8663 Y1.7396
G1 X1.8808 Y1.7517
G2 X1.8842 Y1.7525 I0.0026 J-0.0031
G1 X1.9011 Y1.7492
G1 X1.9181 Y1.7459
G2 X1.9208 Y1.7439 I-0.0008 J-0.0039
G1 X1.9319 Y1.7244
G1 X1.9342 Y1.7209
G1 X1.9365 Y1.7175
G1 X1.9382 Y1.7152
G3 X1.9403 Y1.7122 I0.094 J0.0672
G3 X1.9521 Y1.6988 I0.111 J0.0856
G1 X1.9539 Y1.6971
G1 X1.9538
G1 X1.9556 Y1.6954
G3 X1.9592 Y1.692 I0.2443 J0.2563
G3 X1.9616 Y1.6898 I0.0885 J0.094
G3 X1.9648 Y1.6869 I0.1431 J0.1542
G1 X1.9873 Y1.6683
G2 X1.9888 Y1.6652 I-0.0026 J-0.0031
G1 Y1.6491
G1 Y1.6331
G2 X1.9877 Y1.6304 I-0.004 J0.0
G1 X1.9711 Y1.612
G1 X1.9545 Y1.5937
G2 X1.9515 Y1.5924 I-0.003 J0.0027
G1 X1.9342
G1 X1.9169
G2 X1.9139 Y1.5938 I0.0 J0.004
G1 X1.9014 Y1.6089
G1 X1.8901 Y1.6225
G1 X1.8519
G1 X1.8139
G1 X1.7954 Y1.5989
G1 X1.7756 Y1.5738
G2 X1.7731 Y1.5723 I-0.0031 J0.0025
G0 Z0.125
G0 X1.8772 Y1.7626
G0 Z0.016
G1 F10.0 Z-0.004
G3 F25.0 X1.8794 Y1.7622 I0.0019 J0.0035
G1 X1.9286 Y1.7651
G1 X1.9779 Y1.7681
G3 X1.9811 Y1.7699 I-0.0002 J0.004
G1 X1.9921 Y1.7875
G1 X2.0031 Y1.8051
G3 Y1.8093 I-0.0034 J0.0021
G1 X1.9921 Y1.8269
G1 X1.981 Y1.8445
G3 X1.9779 Y1.8463 I-0.0034 J-0.0021
G1 X1.9187 Y1.8494
G1 X1.861 Y1.8524
G1 X1.8358 Y1.8765
G1 X1.8095 Y1.9016
G3 X1.8065 Y1.9027 I-0.0028 J-0.0029
G1 X1.7525 Y1.8996
G1 X1.6984 Y1.8965
G3 X1.6947 Y1.8931 I0.0002 J-0.004
G1 X1.6917 Y1.8726
G1 X1.6888 Y1.8521
G3 X1.6899 Y1.8487 I0.004 J-0.0006
G1 X1.697 Y1.8416
G1 X1.7042 Y1.8345
G3 X1.707 Y1.8333 I0.0028 J0.0028
G1 X1.7586
G1 X1.8084
G1 X1.8418 Y1.799
G1 X1.8762 Y1.7634
G3 X1.8772 Y1.7626 I0.0029 J0.0028
G0 Z0.125
G0 X0.7238 Y1.7759
G0 Z0.016
G1 F10.0 Z-0.004
G1 F25.0 X0.724 Y1.7939
G3 X0.72 Y1.7979 I-0.004 J0.0
G1 X0.2601
G1 X0.2276
G1 X0.207 Y1.8207
G1 X0.1852 Y1.8448
G3 X0.1822 Y1.8461 I-0.003 J-0.0027
G1 X0.1498
G1 X0.1174
G3 X0.1144 Y1.8448 I0.0 J-0.004
G1 X0.0945 Y1.8227
G1 X0.0745 Y1.8007
G3 X0.0735 Y1.798 I0.003 J-0.0027
G1 Y1.7677
G1 Y1.7374
G3 X0.0748 Y1.7344 I0.004 J0.0
G1 X0.0968 Y1.7145
G1 X0.1189 Y1.6946
G3 X0.1216 Y1.6935 I0.0027 J0.003
G1 X0.1519
G1 X0.1822
G3 X0.1852 Y1.6948 I0.0 J0.004
G1 X0.207 Y1.7189
G1 X0.2276 Y1.7417
G1 X0.2601
G1 X0.671 Y1.7361
G1 X0.6702 Y1.3817
G1 Y1.3684
G1 X0.651 Y1.3511
G1 X0.6305 Y1.3326
G3 X0.6292 Y1.3296 I0.0027 J-0.003
G1 Y1.302
G1 Y1.2745
G3 X0.6305 Y1.2715 I0.004 J0.0
G1 X0.6492 Y1.2546
G1 X0.668 Y1.2376
G3 X0.6706 Y1.2366 I0.0027 J0.003
G1 X0.6964
G1 X0.7222
G3 X0.7251 Y1.2379 I0.0 J0.004
G1 X0.7421 Y1.2566
G1 X0.759 Y1.2754
G3 X0.7601 Y1.2781 I-0.003 J0.0027
G1 Y1.3038
G1 Y1.3296
G3 X0.7588 Y1.3326 I-0.004 J0.0
G1 X0.7383 Y1.3511
G1 X0.7191 Y1.3684
G1 X0.7238 Y1.7759
G0 Z0.125
G0 X0.4563 Y1.313
G0 Z0.016
G1 F10.0 Z-0.004
G3 F25.0 X0.4543 Y1.3135 I-0.002 J-0.0035
G1 X0.4285
G1 X0.4027
G3 X0.3998 Y1.3122 I0.0 J-0.004
G1 X0.3812 Y1.2917
G1 X0.3639 Y1.2726
G1 X0.2602 Y1.2769
G3 X0.2601 I-0.0002 J-0.004
G1 X0.2276
G1 X0.207 Y1.2997
G1 X0.1852 Y1.3238
G3 X0.1822 Y1.3251 I-0.003 J-0.0027
G1 X0.1498
G1 X0.1174
G3 X0.1144 Y1.3238 I0.0 J-0.004
G1 X0.0945 Y1.3017
G1 X0.0745 Y1.2797
G3 X0.0735 Y1.277 I0.003 J-0.0027
G1 Y1.2467
G1 Y1.2164
G3 X0.0748 Y1.2134 I0.004 J0.0
G1 X0.0968 Y1.1935
G1 X0.1189 Y1.1736
G3 X0.1216 Y1.1725 I0.0027 J0.003
G1 X0.1519
G1 X0.1822
G3 X0.1852 Y1.1738 I0.0 J0.004
G1 X0.207 Y1.1979
G1 X0.2276 Y1.2207
G1 X0.2601
G3 X0.2602 I0.0 J0.004
G1 X0.3507 Y1.2236
G1 X0.3639
G1 X0.3812 Y1.2044
G1 X0.3998 Y1.1839
G3 X0.4027 Y1.1826 I0.003 J0.0027
G1 X0.4303
G1 X0.4578
G3 X0.4608 Y1.1839 I0.0 J0.004
G1 X0.4777 Y1.2026
G1 X0.4947 Y1.2214
G3 X0.4957 Y1.2241 I-0.003 J0.0027
G1 Y1.2498
G1 Y1.2756
G3 X0.4944 Y1.2786 I-0.004 J0.0
G1 X0.4757 Y1.2955
G1 X0.4569 Y1.3125
G3 X0.4563 Y1.313 I-0.0027 J-0.003
G0 Z0.125
G0 X0.4543 Y1.1185
G0 Z0.016
G1 F10.0 Z-0.004
G1 F25.0 X0.4285
G1 X0.4027
G3 X0.3998 Y1.1172 I0.0 J-0.004
G1 X0.3812 Y1.0967
G1 X0.3639 Y1.0776
G1 X0.2602 Y1.0819
G3 X0.2601 I-0.0002 J-0.004
G1 X0.2276
G1 X0.207 Y1.1047
G1 X0.1852 Y1.1288
G3 X0.1822 Y1.1301 I-0.003 J-0.0027
G1 X0.1498
G1 X0.1174
G3 X0.1144 Y1.1288 I0.0 J-0.004
G1 X0.0945 Y1.1067
G1 X0.0745 Y1.0847
G3 X0.0735 Y1.082 I0.003 J-0.0027
G1 Y1.0517
G1 Y1.0214
G3 X0.0748 Y1.0184 I0.004 J0.0
G1 X0.0968 Y0.9985
G1 X0.1189 Y0.9786
G3 X0.1216 Y0.9775 I0.0027 J0.003
G1 X0.1519
G1 X0.1822
G3 X0.1852 Y0.9788 I0.0 J0.004
G1 X0.207 Y1.0029
G1 X0.2276 Y1.0257
G1 X0.2601
G3 X0.2602 I0.0 J0.004
G1 X0.3507 Y1.0286
G1 X0.3639
G1 X0.3812 Y1.0094
G1 X0.3998 Y0.9889
G3 X0.4027 Y0.9876 I0.003 J0.0027
G1 X0.4303
G1 X0.4578
G3 X0.4608 Y0.9889 I0.0 J0.004
G1 X0.4777 Y1.0076
G1 X0.4947 Y1.0264
G3 X0.4957 Y1.0291 I-0.003 J0.0027
G1 Y1.0548
G1 Y1.0806
G3 X0.4944 Y1.0836 I-0.004 J0.0
G1 X0.4757 Y1.1005
G1 X0.4569 Y1.1175
G3 X0.4543 Y1.1185 I-0.0027 J-0.003
G0 Z0.125
G0 Y0.9185
G0 Z0.016
G1 F10.0 Z-0.004
G1 F25.0 X0.4285
G1 X0.4027
G3 X0.3998 Y0.9172 I0.0 J-0.004
G1 X0.3812 Y0.8967
G1 X0.364 Y0.8776
G1 X0.2603 Y0.8829
G3 X0.2601 I-0.0002 J-0.004
G1 X0.2276
G1 X0.207 Y0.9057
G1 X0.1852 Y0.9298
G3 X0.1822 Y0.9311 I-0.003 J-0.0027
G1 X0.1498
G1 X0.1174
G3 X0.1144 Y0.9298 I0.0 J-0.004
G1 X0.0945 Y0.9077
G1 X0.0745 Y0.8857
G3 X0.0735 Y0.883 I0.003 J-0.0027
G1 Y0.8527
G1 Y0.8224
G3 X0.0748 Y0.8194 I0.004 J0.0
G1 X0.0968 Y0.7995
G1 X0.1189 Y0.7796
G3 X0.1216 Y0.7785 I0.0027 J0.003
G1 X0.1519
G1 X0.1822
G3 X0.1852 Y0.7798 I0.0 J0.004
G1 X0.207 Y0.8039
G1 X0.2276 Y0.8267
G1 X0.2601
G1 X0.2602
G1 X0.3507 Y0.8286
G1 X0.3639
G1 X0.3812 Y0.8094
G1 X0.3998 Y0.7889
G3 X0.4027 Y0.7876 I0.003 J0.0027
G1 X0.4303
G1 X0.4578
G3 X0.4608 Y0.7889 I0.0 J0.004
G1 X0.4777 Y0.8076
G1 X0.4947 Y0.8264
G3 X0.4957 Y0.8291 I-0.003 J0.0027
G1 Y0.8548
G1 Y0.8806
G3 X0.4944 Y0.8836 I-0.004 J0.0
G1 X0.4757 Y0.9005
G1 X0.4569 Y0.9175
G3 X0.4543 Y0.9185 I-0.0027 J-0.003
( Profile2 )
S1000
G0 Z0.125
G0 X0.9792 Y0.1822
G0 Z0.016
G1 F10.0 Z-0.004
G1 F25.0 X0.9672 Y0.1702
G3 X0.9657 Y0.1667 I0.0035 J-0.0035
G1 Y0.1401
G1 Y0.1136
G3 X0.9674 Y0.1098 I0.005 J0.0
G1 X0.9857 Y0.0932
G1 X1.0041 Y0.0766
G3 X1.0074 Y0.0753 I0.0034 J0.0037
G1 X1.0327
G1 X1.058
G3 X1.0617 Y0.077 I0.0 J0.005
G1 X1.0783 Y0.0953
G1 X1.0949 Y0.1137
G3 X1.0962 Y0.117 I-0.0037 J0.0034
G1 Y0.1419
G1 Y0.1667
G3 X1.0947 Y0.1702 I-0.005 J0.0
G1 X1.0827 Y0.1822
G1 X1.0742 Y0.1908
G1 X1.0827 Y0.1993
G1 X1.0947 Y0.2113
G3 X1.0962 Y0.2149 I-0.0035 J0.0035
G1 Y0.2414
G1 Y0.268
G3 X1.0946 Y0.2717 I-0.005 J0.0
G1 X1.0762 Y0.2883
G1 X1.0578 Y0.3049
G3 X1.0545 Y0.3062 I-0.0034 J-0.0037
G1 X1.0292
G1 X1.004
G3 X1.0002 Y0.3046 I0.0 J-0.005
G1 X0.9836 Y0.2862
G1 X0.967 Y0.2678
G3 X0.9657 Y0.2645 I0.0037 J-0.0034
G1 Y0.2397
G1 Y0.2149
G3 X0.9672 Y0.2113 I0.005 J0.0
G1 X0.9792 Y0.1993
G1 X0.9877 Y0.1908
G1 X0.9792 Y0.1822
G0 Z0.125
G0 Y0.0452
G0 Z0.016
G1 F10.0 Z-0.004
G1 F25.0 X0.8352
G1 Y1.3353
G1 Y2.6255
G1 X1.1916
G1 X1.548
G1 Y2.3601
G1 Y2.0948
G1 X1.4753 Y2.0965
G1 X1.3975 Y2.0983
G3 X1.3924 Y2.0933 I-0.0001 J-0.005
G1 Y2.0682
G1 Y2.0431
G3 X1.3975 Y2.0381 I0.005 J0.0
G1 X1.4753 Y2.04
G1 X1.548 Y2.0417
G1 Y1.516
G1 Y0.9904
G1 X1.4757 Y0.9921
G1 X1.3982 Y0.9939
G3 X1.3932 Y0.9899 I-0.0001 J-0.005
G1 X1.3894 Y0.9713
G1 X1.3856 Y0.9527
G3 X1.387 Y0.9481 I0.0049 J-0.001
G1 X1.3971 Y0.938
G1 X1.4072 Y0.9279
G3 X1.4111 Y0.9265 I0.0035 J0.0035
G1 X1.5024 Y0.9337
G1 X1.5936 Y0.9409
G3 X1.5982 Y0.9459 I-0.0004 J0.005
G1 Y1.8268
G1 Y2.7055
G1 X1.6166 Y2.7222
G1 X1.6367 Y2.7403
G3 X1.6384 Y2.744 I-0.0034 J0.0037
G1 Y2.771
G1 Y2.798
G3 X1.6367 Y2.8018 I-0.005 J0.0
G1 X1.6166 Y2.8199
G1 X1.5982 Y2.8366
G1 Y2.8514
G1 Y2.8661
G1 X1.6166 Y2.8828
G1 X1.6367 Y2.901
G3 X1.6384 Y2.9047 I-0.0034 J0.0037
G1 Y2.9317
G1 Y2.9587
G3 X1.6367 Y2.9624 I-0.005 J0.0
G1 X1.6184 Y2.979
G1 X1.6 Y2.9956
G3 X1.5966 Y2.9969 I-0.0034 J-0.0037
G1 X1.5747
G1 X1.5294 Y3.1038
G1 Y3.2978
G3 X1.5244 Y3.3028 I-0.005 J0.0
G1 X1.4494
G3 X1.4444 Y3.2976 I0.0 J-0.005
G1 X1.4544 Y3.1076
G3 X1.4547 Y3.1062 I0.005 J0.0003
G1 X1.5079 Y2.9543
G1 Y2.9299
G1 Y2.9047
G3 X1.5095 Y2.901 I0.005 J0.0
G1 X1.5296 Y2.8828
G1 X1.548 Y2.8661
G1 Y2.8514
G1 Y2.8366
G1 X1.5296 Y2.8199
G1 X1.5095 Y2.8018
G3 X1.5079 Y2.798 I0.0034 J-0.0037
G1 Y2.771
G1 Y2.744
G3 X1.5095 Y2.7403 I0.005 J0.0
G1 X1.5296 Y2.7222
G1 X1.548 Y2.7055
G1 Y2.6892
G1 Y2.6756
G1 X1.1715
G1 X0.79
G3 X0.785 Y2.6706 I0.0 J-0.005
G1 Y1.3353
G1 Y0.0
G3 X0.79 Y-0.005 I0.005 J0.0
G1 X1.7237
G1 X2.6574
G3 X2.6624 Y0.0 I0.0 J0.005
G1 Y0.2108
G1 Y0.4217
G3 X2.6574 Y0.4267 I-0.005 J0.0
G1 X2.5482
G1 X2.4414
G1 X2.4304 Y0.4399
G1 X2.4179 Y0.455
G3 X2.414 Y0.4568 I-0.0038 J-0.0032
G1 X2.3967
G1 X2.3794
G3 X2.3757 Y0.4552 I0.0 J-0.005
G1 X2.3591 Y0.4368
G1 X2.3425 Y0.4184
G3 X2.3412 Y0.4151 I0.0037 J-0.0034
G1 Y0.3999
G1 Y0.3846
G3 X2.3428 Y0.3809 I0.005 J0.0
G1 X2.3612 Y0.3643
G1 X2.3796 Y0.3477
G3 X2.3829 Y0.3464 I0.0034 J0.0037
G1 X2.3985
G1 X2.414
G3 X2.4179 Y0.3482 I0.0 J0.005
G1 X2.4304 Y0.3633
G1 X2.4414 Y0.3765
G1 X2.5281
G1 X2.6123
G1 Y0.2108
G1 Y0.0452
G1 X1.7237
G1 X0.9792
G0 Z0.125
G0 X0.7631 Y0.1033
G0 Z0.016
G1 F10.0 Z-0.004
G3 F25.0 X0.7632 Y0.1046 I-0.0048 J0.0013
G1 Y0.1303
G1 Y0.1561
G3 X0.7616 Y0.1598 I-0.005 J0.0
G1 X0.7429 Y0.1768
G1 X0.7256 Y0.1924
G1 X0.6851 Y0.7553
G3 X0.6801 Y0.76 I-0.005 J-0.0004
G1 X0.05
G1 Y2.1
G1 Y2.1253
G1 X0.0721 Y2.1269
G1 X0.0923 Y2.1046
G1 X0.1141 Y2.0805
G3 X0.1178 Y2.0789 I0.0037 J0.0034
G1 X0.1502
G1 X0.1826
G3 X0.1863 Y2.0805 I0.0 J0.005
G1 X0.2063 Y2.1026
G1 X0.2262 Y2.1246
G3 X0.2275 Y2.128 I-0.0037 J0.0034
G1 Y2.1583
G1 Y2.1886
G3 X0.2259 Y2.1923 I-0.005 J0.0
G1 X0.2038 Y2.2122
G1 X0.1818 Y2.2322
G3 X0.1784 Y2.2335 I-0.0034 J-0.0037
G1 X0.1481
G1 X0.1178
G3 X0.1141 Y2.2318 I0.0 J-0.005
G1 X0.0923 Y2.2077
G1 X0.072 Y2.1853
G1 X0.0399
G1 X0.0249
G1 X-0.0001 Y2.185
G3 X-0.005 Y2.18 I0.0001 J-0.005
G1 Y0.695
G3 X0.0 Y0.69 I0.005 J0.0
G1 X0.6254
G1 X0.6641 Y0.1918
G1 X0.647 Y0.1729
G1 X0.6285 Y0.1524
G3 X0.6272 Y0.149 I0.0037 J-0.0034
G1 Y0.1081
G3 X0.6285 Y0.1047 I0.005 J0.0
G1 X0.647 Y0.0842
G1 X0.6655 Y0.0638
G3 X0.6692 Y0.0621 I0.0037 J0.0034
G1 X0.6968
G1 X0.7243
G3 X0.728 Y0.0638 I0.0 J0.005
G1 X0.745 Y0.0825
G1 X0.7619 Y0.1012
G3 X0.7631 Y0.1033 I-0.0037 J0.0034
G0 Z0.125
G0 X0.8684 Y0.3368
G0 Z0.016
G1 F10.0 Z-0.004
G3 F25.0 X0.8705 Y0.3364 I0.0021 J0.0046
G1 X0.9893
G1 X1.1059
G1 X1.1226 Y0.3179
G1 X1.1408 Y0.2978
G3 X1.1445 Y0.2962 I0.0037 J0.0034
G1 X1.1715
G1 X1.1985
G3 X1.2022 Y0.2978 I0.0 J0.005
G1 X1.2189 Y0.3162
G1 X1.2355 Y0.3346
G3 X1.2368 Y0.3379 I-0.0037 J0.0034
G1 Y0.3632
G1 Y0.3884
G3 X1.2351 Y0.3922 I-0.005 J0.0
G1 X1.215 Y0.4103
G1 X1.1966 Y0.427
G1 Y0.4835
G1 Y0.5372
G1 X1.2518
G1 X1.3121
G3 X1.3171 Y0.5422 I0.0 J0.005
G1 Y0.5928
G1 Y0.6384
G1 X1.4095 Y0.6355
G1 X1.5071 Y0.6325
G3 X1.5121 Y0.6365 I0.0002 J0.005
G1 X1.5159 Y0.6552
G1 X1.5197 Y0.6738
G3 X1.5183 Y0.6783 I-0.0049 J0.001
G1 X1.5087 Y0.6879
G1 X1.4991 Y0.6975
G3 X1.4952 Y0.699 I-0.0035 J-0.0035
G1 X1.3834 Y0.6919
G1 X1.2716 Y0.6849
G3 X1.2669 Y0.6799 I0.0003 J-0.005
G1 Y0.6311
G1 Y0.5873
G1 X1.2117
G1 X1.1514
G3 X1.1464 Y0.5823 I0.0 J-0.005
G1 Y0.5038
G1 Y0.4273
G1 X1.1248 Y0.407
G1 X1.103 Y0.3865
G1 X1.0077
G1 X0.9155
G1 Y1.0352
G1 Y1.6864
G1 X0.9387 Y1.7047
G1 X0.9638 Y1.7244
G3 X0.9657 Y1.7283 I-0.0031 J0.0039
G1 Y1.7461
G1 Y1.7639
G3 X0.964 Y1.7676 I-0.005 J0.0
G1 X0.9457 Y1.7843
G1 X0.9273 Y1.8009
G3 X0.924 Y1.8022 I-0.0034 J-0.0037
G1 X0.9087
G1 X0.8935
G3 X0.8898 Y1.8005 I0.0 J-0.005
G1 X0.8732 Y1.7822
G1 X0.8566 Y1.7638
G3 X0.8554 Y1.7596 I0.0037 J-0.0034
G1 X0.8577 Y1.7457
G2 X0.8581 Y1.7205 I-8.4841 J-0.1539
G2 X0.8585 Y1.7013 I-4.5807 J-0.0843
G2 X0.8587 Y1.6869 I-3.452 J-0.0618
G1 Y1.6868
G2 X0.859 Y1.6653 I-3.9988 J-0.0709
G1 Y1.6652
G2 X0.8593 Y1.6436 I-4.3016 J-0.0702
G2 X0.8597 Y1.6118 I-9.653 J-0.1319
G1 X0.86 Y1.5839
G1 X0.8602 Y1.5595
G1 X0.8605 Y1.5168
G1 X0.8607 Y1.4848
G1 X0.8609 Y1.4368
G2 X0.861 Y1.4128 I-24.5743 J-0.1222
G2 X0.8611 Y1.3888 I-6.9682 J-0.0426
G3 X0.8612 Y1.3668 I5.6075 J0.0138
G3 X0.8613 Y1.3461 I5.6124 J0.0148
G3 X0.8614 Y1.3268 I5.6167 J0.0158
G3 X0.8615 Y1.3086 I5.6204 J0.0167
G3 X0.8616 Y1.2916 I5.6236 J0.0175
G3 X0.8617 Y1.2757 I5.6262 J0.0182
G3 Y1.2608 I5.6285 J0.0189
G3 X0.8619 Y1.2327 I8.0927 J0.0242
G3 X0.862 Y1.2082 I8.0963 J0.0264
G3 X0.8621 Y1.1868 I8.0982 J0.0282
G3 X0.8622 Y1.168 I8.0987 J0.0297
G3 X0.8623 Y1.1352 I11.8504 J0.0411
G3 X0.8624 Y1.1105 I11.8414 J0.0455
G3 X0.8626 Y1.0736 I18.0433 J0.0699
G3 X0.8628 Y1.0366 I30.8069 J0.1327
G1 X0.8655 Y0.3413
G3 X0.8684 Y0.3368 I0.005 J0.0
G0 Z0.125
G0 X1.005 Y0.578
G0 Z0.016
G1 F10.0 Z-0.004
G3 F25.0 X1.0074 Y0.5773 I0.0025 J0.0044
G1 X1.0327
G1 X1.058
G3 X1.0617 Y0.579 I0.0 J0.005
G1 X1.0783 Y0.5973
G1 X1.0949 Y0.6157
G3 X1.0962 Y0.619 I-0.0037 J0.0034
G1 Y0.6443
G1 Y0.6696
G3 X1.0946 Y0.6733 I-0.005 J0.0
G1 X1.0745 Y0.6914
G1 X1.056 Y0.7081
G1 Y0.7244
G1 Y0.738
G1 X1.0796
G1 X1.1059
G1 X1.1226 Y0.7195
G1 X1.1408 Y0.6994
G3 X1.1445 Y0.6978 I0.0037 J0.0034
G1 X1.1715
G1 X1.1985
G3 X1.2022 Y0.6994 I0.0 J0.005
G1 X1.2192 Y0.7182
G1 X1.2347 Y0.7353
G1 X1.5936 Y0.7351
G1 X1.9496 Y0.7349
G1 Y0.7226
G1 Y0.7076
G1 X1.9364 Y0.6966
G1 X1.9213 Y0.6841
G3 X1.9195 Y0.6803 I0.0032 J-0.0038
G1 Y0.663
G1 Y0.6457
G3 X1.9212 Y0.642 I0.005 J0.0
G1 X1.9395 Y0.6253
G1 X1.9579 Y0.6087
G3 X1.9612 Y0.6074 I0.0034 J0.0037
G1 X1.9765
G1 X1.9917
G3 X1.9954 Y0.6091 I0.0 J0.005
G1 X2.012 Y0.6274
G1 X2.0286 Y0.6458
G3 X2.0299 Y0.6492 I-0.0037 J0.0034
G1 Y0.6647
G1 Y0.6803
G3 X2.0281 Y0.6841 I-0.005 J0.0
G1 X2.0131 Y0.6966
G1 X1.9998 Y0.7076
G1 Y0.7442
G1 Y0.7831
G3 X1.9949 Y0.7881 I-0.005 J0.0
G1 X1.897 Y0.7897
G3 X1.875 Y0.7899 I-0.0809 J-8.5571
G3 X1.8584 Y0.79 I-0.0465 J-4.8882
G3 X1.8337 Y0.7902 I-0.0496 J-5.2546
G3 X1.8089 Y0.7903 I-0.0485 J-6.3432
G1 X1.7748 Y0.7904
G1 X1.7491 Y0.7905
G1 X1.7107
G3 X1.6723 Y0.7904 I-0.0002 J-15.2701
G3 X1.6528 I0.0005 J-5.5065
G3 X1.6358 I0.0038 J-5.7034
G3 X1.606 Y0.7903 I0.0065 J-8.6894
G3 X1.5837 Y0.7902 I0.0138 J-9.1245
G3 X1.5501 Y0.7901 I0.0266 J-14.744
G3 X1.5166 Y0.79 I0.0819 J-32.121
G1 X1.2365 Y0.7888
G1 X1.2201 Y0.8069
G1 X1.2022 Y0.8266
G3 X1.1985 Y0.8283 I-0.0037 J-0.0034
G1 X1.1715
G1 X1.1445
G3 X1.1408 Y0.8266 I0.0 J-0.005
G1 X1.1226 Y0.8066
G1 X1.1059 Y0.7881
G1 X1.0796
G1 X1.056
G1 Y0.9337
G1 Y1.0793
G1 X1.0796
G1 X1.1059
G1 X1.1226 Y1.0609
G1 X1.1408 Y1.0408
G3 X1.1445 Y1.0392 I0.0037 J0.0034
G1 X1.1715
G1 X1.1985
G3 X1.2022 Y1.0408 I0.0 J0.005
G1 X1.2189 Y1.0592
G1 X1.2355 Y1.0775
G3 X1.2368 Y1.0809 I-0.0037 J0.0034
G1 Y1.1061
G1 Y1.1314
G3 X1.2351 Y1.1351 I-0.005 J0.0
G1 X1.215 Y1.1533
G1 X1.1966 Y1.17
G1 Y1.2264
G1 Y1.2851
G3 X1.1916 Y1.2901 I-0.005 J0.0
G1 X1.0812
G1 X0.9757
G1 Y1.4257
G1 Y1.5612
G1 X1.0008
G1 X1.031
G3 X1.036 Y1.5662 I0.0 J0.005
G1 Y1.7969
G1 Y2.0227
G1 X1.1892 Y2.0253
G1 X1.3473 Y2.0281
G3 X1.3522 Y2.0328 I-0.0001 J0.005
G1 X1.3552 Y2.0899
G1 X1.3579 Y2.142
G1 X1.4301 Y2.1404
G1 X1.5071 Y2.1385
G3 X1.5121 Y2.1425 I0.0001 J0.005
G1 X1.5159 Y2.1612
G1 X1.5197 Y2.1798
G3 X1.5183 Y2.1843 I-0.0049 J0.001
G1 X1.5082 Y2.1945
G1 X1.4981 Y2.2046
G3 X1.4942 Y2.206 I-0.0035 J-0.0035
G1 X1.4029 Y2.1988
G1 X1.3117 Y2.1916
G3 X1.3071 Y2.1866 I0.0004 J-0.005
G1 Y2.153
G1 Y2.1214
G1 X1.283 Y2.0973
G1 X1.2589 Y2.0732
G1 X1.1259
G1 X0.9908
G3 X0.9858 Y2.0682 I0.0 J-0.005
G1 Y1.8373
G1 Y1.6114
G1 X0.9607
G1 X0.9306
G3 X0.9256 Y1.6064 I0.0 J-0.005
G1 Y1.4257
G1 Y1.245
G3 X0.9306 Y1.24 I0.005 J0.0
G1 X1.041
G1 X1.1464
G1 Y1.2066
G1 Y1.1703
G1 X1.1248 Y1.15
G1 X1.103 Y1.1295
G1 X1.0579
G1 X1.0109
G3 X1.0059 Y1.1245 I0.0 J-0.005
G1 Y0.9152
G1 Y0.7081
G1 X0.9874 Y0.6914
G1 X0.9674 Y0.6733
G3 X0.9657 Y0.6696 I0.0034 J-0.0037
G1 Y0.6426
G1 Y0.6156
G3 X0.9674 Y0.6118 I0.005 J0.0
G1 X0.9857 Y0.5952
G1 X1.0041 Y0.5786
G3 X1.005 Y0.578 I0.0034 J0.0037
G0 Z0.125
G0 X1.2672 Y0.4808
G0 Z0.016
G1 F10.0 Z-0.004
G3 F25.0 X1.2669 Y0.4791 I0.0047 J-0.0017
G1 Y0.3098
G1 Y0.1406
G3 X1.2719 Y0.1356 I0.005 J0.0
G1 X1.3209
G1 X1.3675
G1 X1.3785 Y0.1223
G1 X1.391 Y0.1072
G3 X1.3949 Y0.1054 I0.0038 J0.0032
G1 X1.4122
G1 X1.4294
G3 X1.4332 Y0.1071 I0.0 J0.005
G1 X1.4498 Y0.1254
G1 X1.4664 Y0.1438
G3 X1.4677 Y0.1472 I-0.0037 J0.0034
G1 Y0.1624
G1 Y0.1776
G3 X1.466 Y0.1813 I-0.005 J0.0
G1 X1.4477 Y0.1979
G1 X1.4293 Y0.2145
G3 X1.426 Y0.2158 I-0.0034 J-0.0037
G1 X1.4104
G1 X1.3949
G3 X1.391 Y0.214 I0.0 J-0.005
G1 X1.3785 Y0.199
G1 X1.3675 Y0.1857
G1 X1.341
G1 X1.3171
G1 Y0.3117
G1 Y0.4376
G1 X1.4095 Y0.4347
G1 X1.5071 Y0.4317
G3 X1.5121 Y0.4357 I0.0002 J0.005
G1 X1.5159 Y0.4544
G1 X1.5197 Y0.473
G3 X1.5183 Y0.4775 I-0.0049 J0.001
G1 X1.5087 Y0.4871
G1 X1.4991 Y0.4967
G3 X1.4952 Y0.4982 I-0.0035 J-0.0035
G1 X1.3834 Y0.4911
G1 X1.2716 Y0.4841
G3 X1.2672 Y0.4808 I0.0003 J-0.005
G0 Z0.125
G0 X1.3865 Y0.5399
G0 Z0.016
G1 F10.0 Z-0.004
G3 F25.0 X1.3892 Y0.5374 I0.0045 J0.0022
G1 X1.4038 Y0.5318
G3 X1.4045 Y0.5316 I0.0018 J0.0047
G3 X1.4063 Y0.5312 I0.0147 J0.0674
G3 X1.4077 Y0.5309 I0.0088 J0.0398
G3 X1.409 Y0.5307 I0.0069 J0.0315
G3 X1.4103 Y0.5304 I0.0059 J0.0273
G1 X1.4141 Y0.5297
G3 X1.4163 Y0.5294 I0.0065 J0.034
G3 X1.4184 Y0.5291 I0.0073 J0.0448
G3 X1.4293 Y0.5283 I0.0143 J0.1141
G3 X1.4401 Y0.5282 I0.0068 J0.2007
G1 X1.4461 Y0.5283
G3 X1.4473 I-0.0003 J0.0341
G1 X1.4557 Y0.5286
G3 X1.4579 Y0.5287 I-0.0018 J0.0713
G3 X1.4611 Y0.5289 I-0.003 J0.1073
G3 X1.4643 Y0.529 I-0.0065 J0.1832
G1 X1.4644
G1 X1.5082 Y0.5322
G3 X1.5129 Y0.5371 I-0.0004 J0.005
G1 Y0.5622
G1 Y0.5873
G3 X1.5079 Y0.5923 I-0.005 J0.0
G1 X1.4526
G1 X1.3974
G3 X1.3925 Y0.588 I0.0 J-0.005
G1 X1.3893 Y0.5654
G1 X1.386 Y0.5428
G3 X1.3865 Y0.5399 I0.005 J-0.0007
G0 Z0.125
G0 X1.3952 Y0.3765
G0 Z0.016
G1 F10.0 Z-0.004
G3 F25.0 X1.3918 Y0.3748 I0.0003 J-0.005
G1 X1.3752 Y0.3565
G1 X1.3586 Y0.3381
G3 X1.3573 Y0.3348 I0.0037 J-0.0034
G1 Y0.3195
G1 Y0.3043
G3 X1.3589 Y0.3006 I0.005 J0.0
G1 X1.3773 Y0.284
G1 X1.3956 Y0.2674
G3 X1.399 Y0.2661 I0.0034 J0.0037
G1 X1.4146
G1 X1.4301
G3 X1.4339 Y0.2679 I0.0 J0.005
G1 X1.4464 Y0.2829
G1 X1.4574 Y0.2962
G1 X1.5442
G1 X1.6334
G3 X1.6384 Y0.3012 I0.0 J0.005
G1 Y0.3715
G1 Y0.4367
G1 X1.7207 Y0.4343
G1 X1.8083 Y0.4317
G3 X1.8133 Y0.4357 I0.0001 J0.005
G1 X1.8171 Y0.4544
G1 X1.8209 Y0.473
G3 X1.8195 Y0.4775 I-0.0049 J0.001
G1 X1.8096 Y0.4874
G1 X1.7998 Y0.4973
G3 X1.7959 Y0.4987 I-0.0035 J-0.0035
G1 X1.6944 Y0.4915
G1 X1.5928 Y0.4843
G3 X1.5882 Y0.4793 I0.0004 J-0.005
G1 Y0.4103
G1 Y0.3464
G1 X1.5241
G1 X1.4574
G1 X1.4464 Y0.3596
G1 X1.4339 Y0.3747
G3 X1.4301 Y0.3765 I-0.0038 J-0.0032
G1 X1.4128
G1 X1.3955
G3 X1.3952 I0.0 J-0.005
G0 Z0.125
G0 X1.6878 Y0.5396
G0 Z0.016
G1 F10.0 Z-0.004
G3 F25.0 X1.6904 Y0.5374 I0.0044 J0.0024
G1 X1.705 Y0.5318
G3 X1.7057 Y0.5316 I0.0018 J0.0047
G3 X1.7075 Y0.5312 I0.0147 J0.0673
G3 X1.7089 Y0.5309 I0.0088 J0.0397
G3 X1.7102 Y0.5307 I0.0069 J0.0315
G3 X1.7115 Y0.5304 I0.0059 J0.0273
G1 X1.7153 Y0.5297
G3 X1.7175 Y0.5294 I0.0065 J0.034
G3 X1.7196 Y0.5291 I0.0073 J0.0448
G3 X1.7305 Y0.5283 I0.0143 J0.1141
G3 X1.7413 Y0.5282 I0.0068 J0.2007
G1 X1.7473 Y0.5283
G3 X1.7485 I-0.0003 J0.0341
G1 X1.7569 Y0.5286
G3 X1.7591 Y0.5287 I-0.0018 J0.0713
G3 X1.7623 Y0.5289 I-0.003 J0.1073
G3 X1.7655 Y0.529 I-0.0065 J0.1834
G1 X1.7656
G1 X1.8094 Y0.5322
G3 X1.8141 Y0.5371 I-0.0004 J0.005
G1 Y0.5622
G1 Y0.5873
G3 X1.8091 Y0.5923 I-0.005 J0.0
G1 X1.7538
G1 X1.6986
G3 X1.6937 Y0.588 I0.0 J-0.005
G1 X1.6905 Y0.5654
G1 X1.6872 Y0.5428
G3 X1.6878 Y0.5396 I0.005 J-0.0007
G0 Z0.125
G0 X1.721 Y0.6261
G0 Z0.016
G1 F10.0 Z-0.004
G1 F25.0 X1.7232 Y0.6252
G3 X1.7255 Y0.6249 I0.0018 J0.0047
G1 X1.7901 Y0.6315
G1 X1.8492 Y0.6376
G1 Y0.5926
G1 Y0.5422
G3 X1.8542 Y0.5372 I0.005 J0.0
G1 X1.9747
G1 X2.0952
G3 X2.1002 Y0.5422 I0.0 J0.005
G1 Y0.7028
G1 Y0.8634
G3 X2.0952 Y0.8684 I-0.005 J0.0
G1 X2.045
G1 X1.9998
G1 Y1.148
G1 Y1.4326
G3 X1.9981 Y1.4363 I-0.005 J0.0
G1 X1.9806 Y1.452
G1 X1.963 Y1.4678
G3 X1.9597 Y1.469 I-0.0033 J-0.0037
G1 X1.8944
G1 X1.8291
G3 X1.8258 Y1.4678 I0.0 J-0.005
G1 X1.8082 Y1.452
G1 X1.7907 Y1.4363
G3 X1.789 Y1.4326 I0.0033 J-0.0037
G1 Y1.4056
G1 Y1.3786
G3 X1.7906 Y1.3749 I0.005 J0.0
G1 X1.81 Y1.3574
G1 X1.8293 Y1.3399
G3 X1.833 Y1.3386 I0.0034 J0.0037
G1 X1.8664 Y1.341
G2 X1.8714 Y1.3412 I0.0349 J-0.611
G2 X1.8868 Y1.3419 I0.0548 J-1.0366
G1 X1.8923 Y1.3421
G2 X1.9004 Y1.3422 I0.0104 J-0.3621
G2 X1.9044 Y1.3423 I0.0029 J-0.1882
G1 X1.9045
G2 X1.9085 Y1.3422 I0.0013 J-0.1742
G2 X1.9131 I-0.0023 J-0.3464
G1 X1.92 Y1.342
G1 X1.9268 Y1.3418
G1 X1.9496 Y1.3406
G1 Y1.0843
G1 Y0.8233
G3 X1.9546 Y0.8183 I0.005 J0.0
G1 X2.0048
G1 X2.05
G1 Y0.7028
G1 Y0.5873
G1 X1.9747
G1 X1.8994
G1 Y0.6315
G1 Y0.6806
G3 X1.8948 Y0.6856 I-0.005 J0.0
G1 X1.8051 Y0.6927
G1 X1.7154 Y0.6998
G3 X1.7124 Y0.699 I-0.0004 J-0.005
G1 X1.7017 Y0.6924
G1 X1.691 Y0.6858
G3 X1.6886 Y0.6815 I0.0026 J-0.0043
G1 Y0.6617
G1 Y0.6419
G3 X1.6918 Y0.6373 I0.005 J0.0
G1 X1.7075 Y0.6312
G1 X1.721 Y0.6261
G0 Z0.125
G0 X1.7145 Y0.8268
G0 Z0.016
G1 F10.0 Z-0.004
G3 F25.0 X1.7146 I-0.0002 J0.005
G1 X1.8147 Y0.8339
G1 X1.9148 Y0.841
G3 X1.9195 Y0.8459 I-0.0004 J0.005
G1 Y1.0655
G1 Y1.2851
G3 X1.9145 Y1.2901 I-0.005 J0.0
G1 X1.8342
G1 X1.7588
G1 Y1.3956
G1 Y1.501
G1 X1.8731
G1 X1.99
G1 X2.001 Y1.4877
G1 X2.0135 Y1.4727
G3 X2.0173 Y1.4709 I0.0038 J0.0032
G1 X2.0346
G1 X2.0519
G3 X2.0558 Y1.4727 I0.0 J0.005
G1 X2.0701 Y1.4903
G1 X2.0843 Y1.5079
G3 X2.0854 Y1.5111 I-0.0039 J0.0031
G1 X2.082 Y1.7094
G1 X2.0786 Y1.9077
G3 X2.0736 Y1.9126 I-0.005 J-0.0001
G1 X2.012
G1 X1.9524
G1 X1.9128 Y1.9515
G1 X1.8717 Y1.9918
G3 X1.8683 Y1.9933 I-0.0035 J-0.0036
G1 X1.7835 Y1.9956
G1 X1.6988 Y1.9979
G3 X1.6936 Y1.9929 I-0.0001 J-0.005
G1 Y1.9678
G1 Y1.9427
G3 X1.6986 Y1.9377 I0.005 J0.0
G1 X1.7708
G1 X1.8409
G1 X1.8732 Y1.9065
G1 X1.9069 Y1.8739
G3 X1.9104 Y1.8725 I0.0035 J0.0036
G1 X1.9727
G1 X2.03
G1 Y1.731
G1 Y1.5869
G1 X2.0092 Y1.5695
G1 X1.988 Y1.5518
G1 X1.8517 Y1.5515
G1 X1.7137 Y1.5512
G3 X1.7087 Y1.5462 I0.0 J-0.005
G1 Y1.3956
G1 Y1.245
G3 X1.7137 Y1.24 I0.005 J0.0
G1 X1.794
G1 X1.8693
G1 Y1.0642
G1 Y0.8886
G1 X1.7866 Y0.891
G1 X1.6988 Y0.8935
G3 X1.6937 Y0.8892 I-0.0001 J-0.005
G1 X1.6906 Y0.8676
G1 X1.6875 Y0.846
G3 X1.6898 Y0.841 I0.0049 J-0.0007
G1 X1.7007 Y0.8343
G1 X1.7117 Y0.8275
G3 X1.7145 Y0.8268 I0.0026 J0.0043
G0 Z0.125
G0 X1.7228 Y0.9322
G0 Z0.016
G1 F10.0 Z-0.004
G1 F25.0 X1.7954 Y0.9265
G3 X1.7993 Y0.9279 I0.0004 J0.005
G1 X1.8094 Y0.938
G1 X1.8195 Y0.9481
G3 X1.8209 Y0.9527 I-0.0035 J0.0035
G1 X1.8171 Y0.9713
G1 X1.8133 Y0.9899
G3 X1.8083 Y0.9939 I-0.0049 J-0.001
G1 X1.7308 Y0.9921
G1 X1.6584 Y0.9904
G1 Y1.5142
G1 Y2.0381
G1 X1.7635
G1 X1.8716
G1 X1.9235 Y1.9869
G1 X1.9769 Y1.9342
G3 X1.9804 Y1.9327 I0.0035 J0.0036
G1 X1.9964
G1 X2.0124
G3 X2.0163 Y1.9345 I0.0 J0.005
G1 X2.0288 Y1.9496
G1 X2.0398 Y1.9628
G1 X2.0763
G1 X2.1103
G1 Y1.5875
G1 Y1.2096
G1 X2.097 Y1.1986
G1 X2.082 Y1.1861
G3 X2.0802 Y1.1823 I0.0032 J-0.0038
G1 Y1.165
G1 Y1.1477
G3 X2.0818 Y1.144 I0.005 J0.0
G1 X2.1002 Y1.1273
G1 X2.1185 Y1.1107
G3 X2.1219 Y1.1094 I0.0034 J0.0037
G1 X2.1371
G1 X2.1523
G3 X2.156 Y1.1111 I0.0 J0.005
G1 X2.1727 Y1.1294
G1 X2.1893 Y1.1478
G3 X2.1906 Y1.1512 I-0.0037 J0.0034
G1 Y1.1667
G1 Y1.1823
G3 X2.1888 Y1.1861 I-0.005 J0.0
G1 X2.1737 Y1.1986
G1 X2.1604 Y1.2096
G1 Y1.6076
G1 Y2.008
G3 X2.1554 Y2.013 I-0.005 J0.0
G1 X2.0964
G1 X2.0398
G1 X2.0284 Y2.0268
G1 X2.0154 Y2.0423
G3 X2.0109 Y2.0441 I-0.0038 J-0.0032
G1 X1.9881 Y2.0411
G1 X1.9677 Y2.0384
G1 X1.9397 Y2.0652
G1 X1.91 Y2.0937
G3 X1.9066 Y2.0951 I-0.0035 J-0.0036
G1 X1.7801 Y2.0967
G1 X1.6585 Y2.0983
G1 X1.6584 Y2.3418
G1 Y2.5853
G1 X1.7137
G1 X1.7739
G3 X1.7789 Y2.5903 I0.0 J0.005
G1 Y2.649
G1 Y2.7055
G1 X1.7974 Y2.7222
G1 X1.8174 Y2.7403
G3 X1.8191 Y2.744 I-0.0034 J0.0037
G1 Y2.771
G1 Y2.798
G3 X1.8174 Y2.8018 I-0.005 J0.0
G1 X1.7974 Y2.8199
G1 X1.7789 Y2.8366
G1 Y2.8514
G1 Y2.8661
G1 X1.7956 Y2.8812
G1 X1.8126 Y2.8966
G1 X1.8362
G1 X1.8595
G1 X1.8705 Y2.8833
G1 X1.883 Y2.8682
G3 X1.8868 Y2.8664 I0.0038 J0.0032
G1 X1.9142
G1 X1.9415
G3 X1.9452 Y2.8681 I0.0 J0.005
G1 X1.9618 Y2.8864
G1 X1.9784 Y2.9048
G3 X1.9797 Y2.9082 I-0.0037 J0.0034
G1 Y2.9334
G1 Y2.9587
G3 X1.9781 Y2.9624 I-0.005 J0.0
G1 X1.9597 Y2.979
G1 X1.943 Y2.9941
G1 X1.9494 Y3.3027
G3 X1.9444 Y3.3078 I-0.005 J0.0001
G1 X1.8594
G3 X1.8544 Y3.3028 I0.0 J-0.005
G1 Y3.0778
G3 X1.8546 Y3.0763 I0.005 J0.0
G1 X1.8812 Y2.993
G1 X1.8705 Y2.9801
G1 X1.8595 Y2.9668
G1 X1.8342
G1 X1.8088
G1 X1.7978 Y2.9801
G1 X1.7853 Y2.9951
G3 X1.7815 Y2.9969 I-0.0038 J-0.0032
G1 X1.7542
G1 X1.7268
G3 X1.7231 Y2.9953 I0.0 J-0.005
G1 X1.7065 Y2.9769
G1 X1.6899 Y2.9586
G3 X1.6886 Y2.9552 I0.0037 J-0.0034
G1 Y2.9299
G1 Y2.9047
G3 X1.6902 Y2.901 I0.005 J0.0
G1 X1.7103 Y2.8828
G1 X1.7288 Y2.8661
G1 Y2.8514
G1 Y2.8366
G1 X1.7103 Y2.8199
G1 X1.6902 Y2.8018
G3 X1.6886 Y2.798 I0.0034 J-0.0037
G1 Y2.771
G1 Y2.744
G3 X1.6902 Y2.7403 I0.005 J0.0
G1 X1.7103 Y2.7222
G1 X1.7288 Y2.7055
G1 Y2.6691
G1 Y2.6355
G1 X1.6735
G1 X1.6133
G3 X1.6083 Y2.6305 I0.0 J-0.005
G1 Y1.7882
G1 Y0.9459
G3 X1.6129 Y0.9409 I0.005 J0.0
G1 X1.7041 Y0.9337
G1 X1.7228 Y0.9322
G0 Z0.125
G0 X1.7279 Y1.0304
G0 Z0.016
G1 F10.0 Z-0.004
G3 F25.0 X1.7305 Y1.0303 I0.006 J0.1148
G3 X1.7413 Y1.0302 I0.0068 J0.2007
G1 X1.7473 Y1.0303
G3 X1.7485 I-0.0003 J0.0341
G1 X1.7569 Y1.0306
G3 X1.7591 Y1.0307 I-0.0018 J0.0713
G3 X1.7623 Y1.0309 I-0.003 J0.1073
G3 X1.7655 Y1.031 I-0.0065 J0.1833
G1 X1.7656
G1 X1.8094 Y1.0342
G3 X1.8141 Y1.0391 I-0.0004 J0.005
G1 Y1.0642
G1 Y1.0893
G3 X1.8091 Y1.0943 I-0.005 J0.0
G1 X1.7538
G1 X1.6986
G3 X1.6937 Y1.09 I0.0 J-0.005
G1 X1.6905 Y1.0674
G1 X1.6872 Y1.0448
G3 X1.6904 Y1.0394 I0.005 J-0.0007
G1 X1.705 Y1.0338
G3 X1.7057 Y1.0336 I0.0018 J0.0047
G3 X1.7075 Y1.0332 I0.0147 J0.0673
G3 X1.7089 Y1.0329 I0.0088 J0.0397
G3 X1.7102 Y1.0327 I0.0069 J0.0315
G3 X1.7115 Y1.0324 I0.0059 J0.0273
G1 X1.7153 Y1.0317
G3 X1.7175 Y1.0314 I0.0065 J0.034
G3 X1.7196 Y1.0311 I0.0073 J0.0448
G3 X1.7279 Y1.0304 I0.0143 J0.1141
G0 Z0.125
G0 X1.731 Y1.1306
G0 Z0.016
G1 F10.0 Z-0.004
G3 F25.0 X1.7413 I0.0062 J0.2007
G1 X1.7473 Y1.1307
G3 X1.7485 I-0.0003 J0.0341
G1 X1.7569 Y1.131
G3 X1.7591 Y1.1311 I-0.0018 J0.0713
G3 X1.7623 Y1.1313 I-0.003 J0.1073
G3 X1.7655 Y1.1314 I-0.0065 J0.1833
G1 X1.7656
G1 X1.8094 Y1.1346
G3 X1.8141 Y1.1395 I-0.0004 J0.005
G1 Y1.1646
G1 Y1.1897
G3 X1.8091 Y1.1947 I-0.005 J0.0
G1 X1.7538
G1 X1.6986
G3 X1.6937 Y1.1904 I0.0 J-0.005
G1 X1.6905 Y1.1678
G1 X1.6872 Y1.1452
G3 X1.6904 Y1.1398 I0.005 J-0.0007
G1 X1.705 Y1.1342
G3 X1.7057 Y1.134 I0.0018 J0.0047
G3 X1.7075 Y1.1336 I0.0147 J0.0673
G3 X1.7089 Y1.1333 I0.0088 J0.0397
G3 X1.7102 Y1.1331 I0.0069 J0.0315
G3 X1.7115 Y1.1328 I0.0059 J0.0273
G1 X1.7153 Y1.1321
G3 X1.7175 Y1.1318 I0.0065 J0.034
G3 X1.7196 Y1.1315 I0.0073 J0.0448
G3 X1.7305 Y1.1307 I0.0143 J0.1141
G3 X1.731 Y1.1306 I0.0068 J0.2007
G0 Z0.125
G0 X1.5129 Y1.1393
G0 Z0.016
G1 F10.0 Z-0.004
G3 F25.0 Y1.1395 I-0.005 J0.0002
G1 Y1.1646
G1 Y1.1897
G3 X1.5079 Y1.1947 I-0.005 J0.0
G1 X1.4526
G1 X1.3974
G3 X1.3925 Y1.1904 I0.0 J-0.005
G1 X1.3893 Y1.1678
G1 X1.386 Y1.1452
G3 X1.3892 Y1.1398 I0.005 J-0.0007
G1 X1.4038 Y1.1342
G3 X1.4045 Y1.134 I0.0018 J0.0047
G3 X1.4063 Y1.1336 I0.0147 J0.0674
G3 X1.4077 Y1.1333 I0.0088 J0.0398
G3 X1.409 Y1.1331 I0.0069 J0.0315
G3 X1.4103 Y1.1328 I0.0059 J0.0273
G1 X1.4141 Y1.1321
G3 X1.4163 Y1.1318 I0.0065 J0.034
G3 X1.4184 Y1.1315 I0.0073 J0.0448
G3 X1.4293 Y1.1307 I0.0143 J0.1141
G3 X1.4401 Y1.1306 I0.0068 J0.2007
G1 X1.4461 Y1.1307
G3 X1.4473 I-0.0003 J0.0341
G1 X1.4557 Y1.131
G3 X1.4579 Y1.1311 I-0.0018 J0.0713
G3 X1.4611 Y1.1313 I-0.003 J0.1073
G3 X1.4643 Y1.1314 I-0.0065 J0.1831
G1 X1.4644
G1 X1.5082 Y1.1346
G3 X1.5129 Y1.1393 I-0.0004 J0.005
G0 Z0.125
G0 X1.5084 Y1.0943
G0 Z0.016
G1 F10.0 Z-0.004
G3 F25.0 X1.5079 I-0.0005 J-0.005
G1 X1.4526
G1 X1.3974
G3 X1.3925 Y1.09 I0.0 J-0.005
G1 X1.3893 Y1.0674
G1 X1.386 Y1.0448
G3 X1.3892 Y1.0394 I0.005 J-0.0007
G1 X1.4038 Y1.0338
G3 X1.4045 Y1.0336 I0.0018 J0.0047
G3 X1.4063 Y1.0332 I0.0147 J0.0674
G3 X1.4077 Y1.0329 I0.0088 J0.0398
G3 X1.409 Y1.0327 I0.0069 J0.0315
G3 X1.4103 Y1.0324 I0.0059 J0.0273
G1 X1.4141 Y1.0317
G3 X1.4163 Y1.0314 I0.0065 J0.034
G3 X1.4184 Y1.0311 I0.0073 J0.0448
G3 X1.4293 Y1.0303 I0.0143 J0.1141
G3 X1.4401 Y1.0302 I0.0068 J0.2007
G1 X1.4461 Y1.0303
G3 X1.4473 I-0.0003 J0.0341
G1 X1.4557 Y1.0306
G3 X1.4579 Y1.0307 I-0.0018 J0.0713
G3 X1.4611 Y1.0309 I-0.003 J0.1073
G3 X1.4643 Y1.031 I-0.0065 J0.1831
G1 X1.4644
G1 X1.5082 Y1.0342
G3 X1.5129 Y1.0391 I-0.0004 J0.005
G1 Y1.0642
G1 Y1.0893
G3 X1.5084 Y1.0943 I-0.005 J0.0
G0 Z0.125
G0 X1.4806 Y1.24
G0 Z0.016
G1 F10.0 Z-0.004
G3 F25.0 X1.4834 Y1.2416 I-0.0009 J0.0049
G1 X1.5 Y1.26
G1 X1.5166 Y1.2783
G3 X1.5179 Y1.2817 I-0.0037 J0.0034
G1 Y1.3052
G1 Y1.3287
G3 X1.5166 Y1.3321 I-0.005 J0.0
G1 X1.5008 Y1.3495
G1 X1.4876 Y1.3641
G1 X1.4988 Y1.3819
G1 X1.5119 Y1.403
G3 Y1.4082 I-0.0042 J0.0026
G1 X1.4986 Y1.4295
G1 X1.4875 Y1.4474
G1 X1.4955 Y1.4555
G3 X1.4959 Y1.4559 I-0.0035 J0.0035
G3 X1.4967 Y1.4569 I-0.0272 J0.0219
G3 X1.4973 Y1.4577 I-0.017 J0.0137
G3 X1.4979 Y1.4585 I-0.0141 J0.0112
G3 X1.4984 Y1.4592 I-0.0127 J0.01
G3 X1.5018 Y1.4643 I-0.0395 J0.0298
G3 X1.5062 Y1.4755 I-0.0364 J0.0208
G3 X1.5065 Y1.477 I-0.016 J0.0043
G3 X1.507 Y1.4794 I-0.0357 J0.0077
G1 X1.5072 Y1.481
G3 Y1.4811 I-0.0049 J0.0007
G1 X1.5075 Y1.4836
G1 Y1.4837
G1 X1.5078 Y1.4862
G3 Y1.4867 I-0.005 J0.0005
G1 Y1.5035
G3 X1.506 Y1.5074 I-0.005 J0.0
G1 X1.491 Y1.5199
G1 X1.4777 Y1.5309
G1 Y1.6316
G1 Y1.7307
G1 X1.4949 Y1.7352
G1 X1.5157 Y1.7407
G3 X1.5194 Y1.7462 I-0.0013 J0.0048
G1 X1.5161 Y1.7695
G1 X1.5128 Y1.7928
G3 X1.5079 Y1.7971 I-0.005 J-0.0007
G1 X1.4526
G1 X1.3974
G3 X1.3925 Y1.7928 I0.0 J-0.005
G1 X1.3893 Y1.7703
G1 X1.3867 Y1.752
G1 X1.3717
G2 X1.3705 Y1.7521 I0.0046 J0.0489
G3 X1.3703 I-0.0006 J-0.005
G2 X1.3692 Y1.7522 I0.0021 J0.0253
G3 X1.3689 Y1.7523 I-0.0006 J-0.005
G2 X1.368 Y1.7524 I0.0016 J0.0184
G3 X1.3678 I-0.0007 J-0.005
G2 X1.3599 Y1.7536 I0.0089 J0.0863
G2 X1.3467 Y1.7577 I0.0141 J0.0676
G2 X1.3406 Y1.7606 I0.0471 J0.1087
G1 X1.3374 Y1.7622
G1 X1.3345 Y1.7638
G1 X1.3147 Y1.7762
G3 X1.3094 I-0.0026 J-0.0042
G1 X1.2918 Y1.7652
G1 X1.2743 Y1.7542
G3 X1.272 Y1.7507 I0.0027 J-0.0042
G1 X1.2691 Y1.7315
G1 X1.2662 Y1.7123
G3 X1.2676 Y1.708 I0.0049 J-0.0007
G1 X1.28 Y1.6956
G1 X1.2925 Y1.6832
G3 X1.296 Y1.6817 I0.0035 J0.0035
G1 X1.3135
G1 X1.331
G3 X1.3352 Y1.6841 I0.0 J0.005
G1 X1.3414 Y1.6941
G1 X1.3462 Y1.7018
G1 X1.388
G1 X1.4276
G1 Y1.6177
G1 Y1.5309
G1 X1.4143 Y1.5199
G1 X1.3992 Y1.5074
G3 X1.3974 Y1.5035 I0.0032 J-0.0038
G1 Y1.4867
G3 X1.3975 Y1.4862 I0.005 J0.0
G3 X1.3976 Y1.4849 I0.0436 J0.0039
G3 X1.3982 Y1.4804 I0.1359 J0.0145
G3 X1.3986 Y1.4779 I0.0397 J0.0053
G1 X1.3988 Y1.4768
G3 Y1.4767 I0.0049 J0.001
G1 X1.399 Y1.4756
G1 X1.3991
G3 X1.4035 Y1.4643 I0.042 J0.01
G3 X1.405 Y1.4619 I0.0248 J0.0136
G1 X1.406 Y1.4605
G3 Y1.4603 I0.0041 J0.0028
G1 X1.4068 Y1.4593
